; generated by Slic3r 1.0.0RC2 on 2014-05-06 at 12:04:03

; layer_height = .2
; perimeters = 3
; top_solid_layers = 1
; bottom_solid_layers = 1
; fill_density = .3
; perimeter_speed = 30
; infill_speed = 30
; travel_speed = 200
; nozzle_diameter = 0.5
; filament_diameter = 1.75
; extrusion_multiplier = 1
; perimeters extrusion width = 0.45mm
; infill extrusion width = 0.45mm
; solid infill extrusion width = 0.45mm
; top infill extrusion width = 0.40mm
; first layer extrusion width = 0.60mm

G21 ; set units to millimeters
M107
G28
M104 S210,0
M190 S60
M109 S210,0
; BEGINNING OF HEAD MOVEMENT WARNING TONES
M120 S4 P10
G4 P40
M120 S4 P10
G4 P40
M120 S4 P10
G4 P40
M120 S4 P10
G4 P40
M120 S4 P10
G4 P40
M117 KEEP HANDS AWAY
G4 S3
; END OF HEAD WARNING TONES
G90 ; use absolute coordinates
G92 E0
M82 ; use absolute distances for extrusion
T0
G92 E0
G1 F6000.000 E-5.40000
G1 Z4.350 F12000.000
G92 E0
G1 X47.812 Y-15.732 F12000.000
G1 Z0.350 F12000.000
G1 E5.50000 F6000.000
G1 X47.972 Y-15.052 E5.55881 F900
G1 X48.192 Y-13.912 E5.65655
G1 X48.502 Y-11.802 E5.83609
G1 X48.612 Y-10.632 E5.93502
G1 X48.742 Y-8.242 E6.13652
G1 X48.752 Y-7.022 E6.23923
G1 X48.702 Y-4.812 E6.42533
G1 X48.632 Y-3.482 E6.53745
G1 X48.522 Y-2.012 E6.66154
G1 X48.362 Y-0.442 E6.79440
G1 X48.102 Y1.558 E6.96419
G1 X47.832 Y3.278 E7.11076
G1 X47.472 Y5.168 E7.27273
G1 X47.132 Y6.728 E7.40714
G1 X46.712 Y8.408 E7.55292
G1 X46.202 Y10.238 E7.71285
G1 X45.682 Y11.938 E7.86251
G1 X45.212 Y13.358 E7.98843
G1 X44.492 Y15.398 E8.17056
G1 X43.722 Y17.398 E8.35097
G1 X42.862 Y19.488 E8.54123
G1 X42.012 Y21.388 E8.71646
G1 X41.122 Y23.258 E8.89081
G1 X40.202 Y25.078 E9.06249
G1 X39.292 Y26.778 E9.22482
G1 X38.252 Y28.608 E9.40202
G1 X37.282 Y30.248 E9.56242
G1 X36.192 Y31.998 E9.73599
G1 X34.822 Y34.108 E9.94777
G1 X33.732 Y35.728 E10.11215
G1 X32.202 Y37.908 E10.33636
G1 X30.732 Y39.928 E10.54668
G1 X27.642 Y44.038 E10.97956
G1 X23.552 Y49.318 E11.54182
G1 X22.392 Y50.768 E11.69814
G1 X21.572 Y51.748 E11.80571
G1 X20.342 Y53.118 E11.96071
G1 X19.082 Y54.428 E12.11372
G1 X18.322 Y55.148 E12.20186
G1 X17.492 Y55.888 E12.29547
G1 X16.542 Y56.658 E12.39842
G1 X15.632 Y57.218 E12.48837
G1 X14.602 Y57.528 E12.57892
G1 X-18.418 Y63.028 E15.39701
G1 X-19.098 Y63.088 E15.45448
G1 X-19.738 Y63.088 E15.50836
G1 X-20.748 Y62.958 E15.59409
G1 X-21.698 Y62.598 E15.67961
G1 X-22.528 Y62.008 E15.76534
G1 X-23.198 Y61.238 E15.85127
G1 X-32.648 Y47.038 E17.28722
G1 X-34.138 Y44.448 E17.53876
G1 X-35.518 Y41.858 E17.78582
G1 X-36.758 Y39.348 E18.02151
G1 X-38.018 Y36.558 E18.27922
G1 X-39.098 Y33.968 E18.51546
G1 X-39.778 Y32.188 E18.67587
G1 X-40.358 Y30.578 E18.81994
G1 X-40.938 Y28.888 E18.97035
G1 X-41.498 Y27.168 E19.12263
G1 X-42.068 Y25.328 E19.28480
G1 X-42.558 Y23.608 E19.43536
G1 X-43.068 Y21.748 E19.59772
G1 X-43.528 Y19.958 E19.75331
G1 X-44.408 Y16.178 E20.08004
G1 X-44.848 Y14.148 E20.25490
G1 X-45.378 Y11.488 E20.48324
G1 X-45.738 Y9.558 E20.64852
G1 X-45.938 Y8.288 E20.75675
G1 X-46.268 Y5.448 E20.99744
G1 X-46.448 Y3.068 E21.19838
G1 X-46.548 Y0.298 E21.43172
G1 X-46.548 Y-2.272 E21.64808
G1 X-46.518 Y-3.492 E21.75081
G1 X-42.558 Y-74.252 E27.71707
G1 X-42.468 Y-75.592 E27.83013
G1 X-42.298 Y-77.112 E27.95889
G1 X-42.028 Y-78.912 E28.11212
G1 X-41.618 Y-80.912 E28.28399
G1 X-41.168 Y-82.682 E28.43774
G1 X-40.698 Y-84.222 E28.57329
G1 X-40.108 Y-85.902 E28.72319
G1 X-39.398 Y-87.702 E28.88609
G1 X-38.628 Y-89.402 E29.04320
G1 X-37.758 Y-91.102 E29.20396
G1 X-36.868 Y-92.672 E29.35589
G1 X-35.878 Y-94.242 E29.51215
G1 X-34.888 Y-95.672 E29.65857
G1 X-33.938 Y-96.932 E29.79141
G1 X-32.618 Y-98.512 E29.96473
G1 X-31.588 Y-99.632 E30.09283
G1 X-30.298 Y-100.902 E30.24523
G1 X-29.178 Y-101.882 E30.37051
G1 X-27.688 Y-103.042 E30.52948
G1 X-26.418 Y-103.952 E30.66101
G1 X-24.808 Y-105.022 E30.82375
G1 X-23.418 Y-105.862 E30.96047
G1 X-21.808 Y-106.742 E31.11494
G1 X-19.978 Y-107.652 E31.28699
G1 X-18.268 Y-108.382 E31.44352
G1 X-16.488 Y-109.052 E31.60363
G1 X-15.248 Y-109.442 E31.71306
G1 X-13.608 Y-109.892 E31.85623
G1 X-11.688 Y-110.332 E32.02205
G1 X-10.398 Y-110.572 E32.13252
G1 X-8.478 Y-110.832 E32.29563
G1 X-6.378 Y-111.002 E32.47299
G1 X-4.758 Y-111.052 E32.60944
G1 X-3.718 Y-111.042 E32.69700
G1 X-2.198 Y-110.962 E32.82513
G1 X-0.828 Y-110.842 E32.94091
G1 X0.512 Y-110.672 E33.05462
G1 X1.672 Y-110.482 E33.15358
G1 X3.132 Y-110.182 E33.27906
G1 X4.262 Y-109.912 E33.37686
G1 X5.522 Y-109.562 E33.48695
G1 X6.922 Y-109.112 E33.61075
G1 X7.992 Y-108.722 E33.70663
G1 X9.332 Y-108.192 E33.82794
G1 X10.362 Y-107.732 E33.92290
G1 X11.592 Y-107.132 E34.03811
G1 X12.592 Y-106.612 E34.13300
G1 X13.722 Y-105.952 E34.24317
G1 X15.082 Y-105.112 E34.37774
G1 X16.232 Y-104.352 E34.49378
G1 X17.122 Y-103.712 E34.58607
G1 X18.102 Y-102.952 E34.69047
G1 X19.432 Y-101.852 E34.83577
G1 X20.352 Y-101.032 E34.93952
G1 X21.382 Y-100.052 E35.05921
G1 X22.232 Y-99.182 E35.16160
G1 X23.362 Y-97.942 E35.30283
G1 X24.132 Y-97.042 E35.40255
G1 X24.982 Y-95.972 E35.51759
G1 X25.672 Y-95.042 E35.61507
G1 X26.612 Y-93.672 E35.75495
G1 X27.202 Y-92.732 E35.84838
G1 X27.872 Y-91.602 E35.95897
G1 X28.412 Y-90.582 E36.05613
G1 X29.102 Y-89.192 E36.18677
G1 X29.522 Y-88.252 E36.27345
G1 X29.932 Y-87.222 E36.36677
G1 X30.672 Y-85.062 E36.55899
G1 X31.252 Y-82.962 E36.74240
G1 X47.791 Y-15.816 E42.56402
G1 X47.242 Y-15.602 F12000.000
G1 X47.432 Y-14.782 E42.63489 F900
G1 X47.652 Y-13.642 E42.73263
G1 X47.902 Y-11.932 E42.87811
G1 X48.032 Y-10.592 E42.99145
G1 X48.162 Y-8.232 E43.19043
G1 X48.172 Y-7.032 E43.29146
G1 X48.122 Y-4.822 E43.47755
G1 X48.052 Y-3.522 E43.58715
G1 X47.942 Y-2.052 E43.71125
G1 X47.772 Y-0.402 E43.85089
G1 X47.532 Y1.468 E44.00961
G1 X47.242 Y3.298 E44.16559
G1 X46.912 Y5.038 E44.31468
G1 X46.572 Y6.598 E44.44909
G1 X46.182 Y8.148 E44.58365
G1 X45.642 Y10.068 E44.75155
G1 X45.102 Y11.838 E44.90734
G1 X44.662 Y13.178 E45.02608
G1 X43.912 Y15.288 E45.21459
G1 X43.152 Y17.278 E45.39392
G1 X42.342 Y19.248 E45.57324
G1 X41.532 Y21.058 E45.74018
G1 X40.642 Y22.918 E45.91376
G1 X39.722 Y24.738 E46.08544
G1 X38.732 Y26.588 E46.26209
G1 X37.782 Y28.258 E46.42383
G1 X36.742 Y30.018 E46.59593
G1 X35.742 Y31.628 E46.75549
G1 X34.302 Y33.848 E46.97825
G1 X33.212 Y35.468 E47.14263
G1 X31.772 Y37.518 E47.35353
G1 X30.242 Y39.618 E47.57226
G1 X27.202 Y43.658 E47.99790
G1 X23.062 Y48.998 E48.56673
G1 X22.002 Y50.328 E48.70991
G1 X21.042 Y51.468 E48.83537
G1 X19.822 Y52.828 E48.98918
G1 X18.662 Y54.028 E49.12969
G1 X17.272 Y55.318 E49.28933
G1 X16.172 Y56.208 E49.40845
G1 X15.392 Y56.688 E49.48555
G1 X14.512 Y56.958 E49.56304
G1 X-18.508 Y62.458 E52.38113
G1 X-19.098 Y62.508 E52.43098
G1 X-19.738 Y62.508 E52.48486
G1 X-20.888 Y62.318 E52.58299
G1 X-21.918 Y61.768 E52.68128
G1 X-22.718 Y60.908 E52.78017
G1 X-32.148 Y46.748 E54.21238
G1 X-33.628 Y44.178 E54.46204
G1 X-34.998 Y41.608 E54.70722
G1 X-36.238 Y39.098 E54.94290
G1 X-37.478 Y36.338 E55.19763
G1 X-38.558 Y33.748 E55.43386
G1 X-39.238 Y31.988 E55.59271
G1 X-39.818 Y30.378 E55.73677
G1 X-40.408 Y28.648 E55.89065
G1 X-40.968 Y26.928 E56.04293
G1 X-41.488 Y25.238 E56.19178
G1 X-42.008 Y23.418 E56.35113
G1 X-42.508 Y21.608 E56.50921
G1 X-42.988 Y19.738 E56.67174
G1 X-43.848 Y16.048 E56.99071
G1 X-44.268 Y14.088 E57.15946
G1 X-44.808 Y11.388 E57.39126
G1 X-45.148 Y9.568 E57.54713
G1 X-45.378 Y8.098 E57.67239
G1 X-45.528 Y6.938 E57.77085
G1 X-45.688 Y5.408 E57.90036
G1 X-45.878 Y2.888 E58.11311
G1 X-45.968 Y0.428 E58.32034
G1 X-45.968 Y-2.262 E58.54680
G1 X-45.938 Y-3.482 E58.64954
G1 X-41.978 Y-74.212 E64.61327
G1 X-41.878 Y-75.712 E64.73983
G1 X-41.728 Y-77.042 E64.85251
G1 X-41.458 Y-78.822 E65.00407
G1 X-41.058 Y-80.772 E65.17165
G1 X-40.658 Y-82.352 E65.30886
G1 X-40.098 Y-84.202 E65.47158
G1 X-39.568 Y-85.712 E65.60630
G1 X-38.938 Y-87.302 E65.75028
G1 X-38.028 Y-89.312 E65.93603
G1 X-37.328 Y-90.682 E66.06555
G1 X-36.278 Y-92.532 E66.24462
G1 X-35.488 Y-93.782 E66.36911
G1 X-34.408 Y-95.342 E66.52884
G1 X-33.478 Y-96.582 E66.65933
G1 X-32.198 Y-98.122 E66.82791
G1 X-31.298 Y-99.102 E66.93992
G1 X-29.918 Y-100.462 E67.10303
G1 X-28.798 Y-101.442 E67.22832
G1 X-27.348 Y-102.572 E67.38308
G1 X-25.978 Y-103.552 E67.52488
G1 X-24.638 Y-104.442 E67.66030
G1 X-23.118 Y-105.362 E67.80988
G1 X-21.408 Y-106.302 E67.97415
G1 X-19.748 Y-107.122 E68.13002
G1 X-18.218 Y-107.782 E68.27030
G1 X-16.508 Y-108.432 E68.42430
G1 X-14.968 Y-108.922 E68.56035
G1 X-13.648 Y-109.292 E68.67576
G1 X-11.728 Y-109.732 E68.84158
G1 X-10.118 Y-110.032 E68.97945
G1 X-8.408 Y-110.262 E69.12471
G1 X-6.358 Y-110.422 E69.29781
G1 X-4.548 Y-110.472 E69.45024
G1 X-3.728 Y-110.462 E69.51928
G1 X-2.248 Y-110.392 E69.64401
G1 X-1.048 Y-110.292 E69.74539
G1 X0.292 Y-110.122 E69.85910
G1 X1.582 Y-109.912 E69.96913
G1 X2.992 Y-109.622 E70.09031
G1 X4.252 Y-109.322 E70.19935
G1 X5.362 Y-109.012 E70.29637
G1 X6.732 Y-108.562 E70.41777
G1 X7.892 Y-108.142 E70.52163
G1 X9.092 Y-107.662 E70.63043
G1 X10.122 Y-107.202 E70.72540
G1 X11.232 Y-106.662 E70.82931
G1 X12.472 Y-106.012 E70.94718
G1 X13.432 Y-105.452 E71.04074
G1 X14.882 Y-104.552 E71.18441
G1 X15.892 Y-103.882 E71.28644
G1 X16.782 Y-103.242 E71.37873
G1 X17.742 Y-102.502 E71.48077
G1 X18.952 Y-101.502 E71.61292
G1 X19.952 Y-100.612 E71.72562
G1 X20.982 Y-99.632 E71.84531
G1 X21.812 Y-98.782 E71.94532
G1 X22.922 Y-97.572 E72.08355
G1 X23.602 Y-96.772 E72.17194
G1 X24.592 Y-95.522 E72.30618
G1 X25.202 Y-94.702 E72.39222
G1 X26.122 Y-93.362 E72.52905
G1 X26.702 Y-92.442 E72.62061
G1 X27.372 Y-91.312 E72.73121
G1 X27.952 Y-90.212 E72.83589
G1 X28.572 Y-88.952 E72.95411
G1 X28.992 Y-88.012 E73.04079
G1 X29.392 Y-87.022 E73.13068
G1 X29.662 Y-86.272 E73.19778
G1 X30.112 Y-84.902 E73.31918
G1 X30.682 Y-82.832 E73.49993
G1 X47.221 Y-15.686 E79.32156
G1 F6000.000 E73.92156
G1 Z4.350 F12000.000
G92 E0
G1 X-15.394 Y-63.120 F12000.000
G1 Z0.350 F12000.000
G1 E5.50000 F6000.000
G1 X-15.741 Y-62.739 E5.54335 F900
G1 X-15.981 Y-62.540 E5.56959
G1 X-16.240 Y-62.367 E5.59583
G1 X-16.517 Y-62.223 E5.62208
G1 X-16.761 Y-62.124 E5.64429
G1 X-17.260 Y-61.995 E5.68764
G1 X-17.570 Y-61.960 E5.71388
G1 X-17.881 Y-61.958 E5.74013
G1 X-18.192 Y-61.988 E5.76637
G1 X-18.451 Y-62.040 E5.78861
G1 X-18.938 Y-62.205 E5.83194
G1 X-19.216 Y-62.346 E5.85818
G1 X-19.478 Y-62.515 E5.88443
G1 X-19.721 Y-62.710 E5.91067
G1 X-19.942 Y-62.930 E5.93691
G1 X-20.138 Y-63.172 E5.96315
G1 X-20.284 Y-63.393 E5.98539
G1 X-20.509 Y-63.855 E6.02872
G1 X-20.605 Y-64.152 E6.05498
G1 X-20.669 Y-64.457 E6.08120
G1 X-20.701 Y-64.767 E6.10745
G1 X-20.699 Y-65.079 E6.13370
G1 X-20.665 Y-65.389 E6.15994
G1 X-20.611 Y-65.648 E6.18221
G1 X-20.439 Y-66.135 E6.22567
G1 X-20.295 Y-66.412 E6.25200
G1 X-20.122 Y-66.673 E6.27833
G1 X-19.923 Y-66.914 E6.30464
G1 X-19.700 Y-67.133 E6.33096
G1 X-19.455 Y-67.326 E6.35726
G1 X-19.231 Y-67.469 E6.37958
G1 X-18.764 Y-67.689 E6.42303
G1 X-18.465 Y-67.780 E6.44934
G1 X-18.158 Y-67.840 E6.47567
G1 X-17.847 Y-67.867 E6.50199
G1 X-17.582 Y-67.864 E6.52427
G1 X-17.071 Y-67.791 E6.56773
G1 X-16.771 Y-67.704 E6.59405
G1 X-16.482 Y-67.585 E6.62037
G1 X-16.207 Y-67.436 E6.64669
G1 X-15.987 Y-67.288 E6.66898
G1 X-15.601 Y-66.946 E6.71245
G1 X-15.398 Y-66.708 E6.73877
G1 X-15.221 Y-66.450 E6.76508
G1 X-15.073 Y-66.175 E6.79139
G1 X-14.955 Y-65.886 E6.81770
G1 X-14.867 Y-65.586 E6.84403
G1 X-14.819 Y-65.325 E6.86634
G1 X-14.791 Y-64.810 E6.90977
G1 X-14.818 Y-64.500 E6.93599
G1 X-14.878 Y-64.194 E6.96224
G1 X-14.970 Y-63.896 E6.98848
G1 X-15.071 Y-63.652 E7.01072
G1 X-15.343 Y-63.190 E7.05585
G1 X-15.802 Y-63.543 F12000.000
G1 X-15.957 Y-63.346 E7.07695 F900
G1 X-16.131 Y-63.166 E7.09806
G1 X-16.505 Y-62.883 E7.13751
G1 X-16.870 Y-62.701 E7.17188
G1 X-17.108 Y-62.621 E7.19300
G1 X-17.353 Y-62.566 E7.21410
G1 X-17.820 Y-62.535 E7.25355
G1 X-18.226 Y-62.582 E7.28792
G1 X-18.468 Y-62.645 E7.30903
G1 X-18.703 Y-62.734 E7.33015
G1 X-19.111 Y-62.964 E7.36960
G1 X-19.425 Y-63.226 E7.40396
G1 X-19.593 Y-63.412 E7.42508
G1 X-19.740 Y-63.614 E7.44619
G1 X-19.956 Y-64.031 E7.48563
G1 X-20.074 Y-64.421 E7.52000
G1 X-20.113 Y-64.669 E7.54112
G1 X-20.125 Y-64.906 E7.56106
G1 X-20.077 Y-65.386 E7.60169
G1 X-19.962 Y-65.778 E7.63614
G1 X-19.858 Y-66.007 E7.65730
G1 X-19.731 Y-66.224 E7.67846
G1 X-19.581 Y-66.426 E7.69962
G1 X-19.411 Y-66.611 E7.72079
G1 X-19.045 Y-66.905 E7.76032
G1 X-18.684 Y-67.098 E7.79478
G1 X-18.448 Y-67.185 E7.81595
G1 X-18.204 Y-67.246 E7.83711
G1 X-17.736 Y-67.290 E7.87666
G1 X-17.329 Y-67.253 E7.91110
G1 X-17.084 Y-67.196 E7.93227
G1 X-16.847 Y-67.114 E7.95343
G1 X-16.432 Y-66.894 E7.99297
G1 X-16.111 Y-66.639 E8.02742
G1 X-15.938 Y-66.457 E8.04859
G1 X-15.785 Y-66.257 E8.06976
G1 X-15.654 Y-66.043 E8.09092
G1 X-15.546 Y-65.815 E8.11207
G1 X-15.412 Y-65.365 E8.15161
G1 X-15.369 Y-64.959 E8.18606
G1 X-15.377 Y-64.708 E8.20719
G1 X-15.412 Y-64.459 E8.22830
G1 X-15.546 Y-64.010 E8.26775
G1 X-15.753 Y-63.615 E8.30536
G1 X-16.220 Y-63.958 F12000.000
G1 X-16.454 Y-63.659 E8.33728 F900
G1 X-16.731 Y-63.426 E8.36776
G1 X-16.994 Y-63.277 E8.39316
G1 X-17.353 Y-63.156 E8.42508
G1 X-17.712 Y-63.112 E8.45556
G1 X-18.013 Y-63.132 E8.48096
G1 X-18.380 Y-63.227 E8.51288
G1 X-18.705 Y-63.388 E8.54336
G1 X-18.946 Y-63.569 E8.56875
G1 X-19.200 Y-63.850 E8.60067
G1 X-19.383 Y-64.163 E8.63115
G1 X-19.486 Y-64.446 E8.65656
G1 X-19.544 Y-64.821 E8.68847
G1 X-19.526 Y-65.183 E8.71895
G1 X-19.456 Y-65.477 E8.74439
G1 X-19.299 Y-65.823 E8.77636
G1 X-19.074 Y-66.128 E8.80834
G1 X-18.803 Y-66.369 E8.83886
G1 X-18.544 Y-66.526 E8.86431
G1 X-18.188 Y-66.657 E8.89628
G1 X-17.829 Y-66.710 E8.92681
G1 X-17.527 Y-66.698 E8.95226
G1 X-17.157 Y-66.613 E8.98423
G1 X-16.828 Y-66.460 E9.01476
G1 X-16.582 Y-66.284 E9.04020
G1 X-16.320 Y-66.009 E9.07218
G1 X-16.122 Y-65.686 E9.10415
G1 X-15.999 Y-65.344 E9.13467
G1 X-15.952 Y-65.046 E9.16012
G1 X-15.964 Y-64.667 E9.19205
G1 X-16.049 Y-64.315 E9.22253
G1 X-16.176 Y-64.032 E9.24862
G1 X-16.054 Y-63.617 F12000.000
G1 X6.863 Y-64.756 F12000.000
G1 X6.863 Y-65.067 E9.27483 F900
G1 X6.896 Y-65.377 E9.30106
G1 X7.021 Y-65.876 E9.34434
G1 X7.117 Y-66.121 E9.36654
G1 X7.260 Y-66.398 E9.39275
G1 X7.430 Y-66.659 E9.41898
G1 X7.627 Y-66.900 E9.44517
G1 X8.005 Y-67.249 E9.48847
G1 X8.220 Y-67.401 E9.51067
G1 X8.491 Y-67.555 E9.53688
G1 X8.776 Y-67.680 E9.56309
G1 X9.073 Y-67.774 E9.58930
G1 X9.580 Y-67.859 E9.63259
G1 X9.843 Y-67.869 E9.65479
G1 X10.154 Y-67.850 E9.68102
G1 X10.461 Y-67.798 E9.70721
G1 X10.761 Y-67.714 E9.73344
G1 X11.232 Y-67.508 E9.77673
G1 X11.458 Y-67.372 E9.79892
G1 X11.707 Y-67.186 E9.82514
G1 X11.936 Y-66.974 E9.85135
G1 X12.141 Y-66.740 E9.87755
G1 X12.422 Y-66.309 E9.92085
G1 X12.537 Y-66.072 E9.94305
G1 X12.644 Y-65.779 E9.96926
G1 X12.719 Y-65.477 E9.99546
G1 X12.762 Y-65.169 E10.02169
G1 X12.762 Y-64.655 E10.06496
G1 X12.719 Y-64.346 E10.09118
G1 X12.644 Y-64.044 E10.11739
G1 X12.537 Y-63.752 E10.14360
G1 X12.400 Y-63.473 E10.16980
G1 X12.234 Y-63.209 E10.19602
G1 X12.073 Y-63.000 E10.21821
G1 X11.707 Y-62.638 E10.26151
G1 X11.458 Y-62.452 E10.28773
G1 X11.190 Y-62.293 E10.31394
G1 X10.907 Y-62.163 E10.34014
G1 X10.612 Y-62.064 E10.36635
G1 X10.308 Y-61.996 E10.39256
G1 X10.047 Y-61.964 E10.41476
G1 X9.532 Y-61.968 E10.45806
G1 X9.224 Y-62.014 E10.48426
G1 X8.923 Y-62.093 E10.51048
G1 X8.632 Y-62.202 E10.53669
G1 X8.353 Y-62.342 E10.56290
G1 X8.091 Y-62.510 E10.58911
G1 X7.884 Y-62.674 E10.61132
G1 X7.525 Y-63.042 E10.65461
G1 X7.341 Y-63.293 E10.68083
G1 X7.185 Y-63.562 E10.70704
G1 X7.058 Y-63.846 E10.73324
G1 X6.961 Y-64.142 E10.75946
G1 X6.870 Y-64.669 E10.80451
G1 X7.448 Y-64.694 F12000.000
G1 X7.451 Y-65.162 E10.84389 F900
G1 X7.490 Y-65.409 E10.86499
G1 X7.555 Y-65.651 E10.88608
G1 X7.716 Y-66.026 E10.92041
G1 X7.974 Y-66.417 E10.95982
G1 X8.143 Y-66.602 E10.98092
G1 X8.330 Y-66.769 E11.00200
G1 X8.669 Y-66.995 E11.03634
G1 X9.099 Y-67.180 E11.07575
G1 X9.342 Y-67.243 E11.09685
G1 X9.589 Y-67.280 E11.11793
G1 X9.840 Y-67.290 E11.13902
G1 X10.090 Y-67.275 E11.16012
G1 X10.489 Y-67.193 E11.19445
G1 X10.923 Y-67.017 E11.23386
G1 X11.138 Y-66.889 E11.25494
G1 X11.339 Y-66.739 E11.27604
