; generated by Slic3r 1.0.0RC2 on 2014-05-03 at 19:20:25

; layer_height = .2
; perimeters = 3
; top_solid_layers = 5
; bottom_solid_layers = 3
; fill_density = .3
; perimeter_speed = 30
; infill_speed = 30
; travel_speed = 200
; nozzle_diameter = 0.5
; filament_diameter = 1.75
; extrusion_multiplier = 1
; perimeters extrusion width = 0.45mm
; infill extrusion width = 0.45mm
; solid infill extrusion width = 0.45mm
; top infill extrusion width = 0.40mm
; first layer extrusion width = 0.60mm

G21 ; set units to millimeters
M107
G28
M104 S210,0
M190 S60
M109 S210,0
; BEGINNING OF HEAD MOVEMENT WARNING TONES
M120 S4 P10
G4 P40
M120 S4 P10
G4 P40
M120 S4 P10
G4 P40
M120 S4 P10
G4 P40
M120 S4 P10
G4 P40
M117 KEEP HANDS AWAY
G4 S3
; END OF HEAD WARNING TONES
G90 ; use absolute coordinates
G92 E0
M82 ; use absolute distances for extrusion
T0
G92 E0
G1 F6000.000 E-5.40000
G1 Z4.350 F12000.000
G92 E0
G1 X-37.820 Y-36.000 F12000.000
G1 Z0.350 F12000.000
G1 E5.50000 F6000.000
G1 X-37.680 Y-37.080 E5.59168 F900
G1 X-37.260 Y-38.080 E5.68299
G1 X-36.600 Y-38.940 E5.77425
G1 X-35.740 Y-39.600 E5.86551
G1 X-34.740 Y-40.020 E5.95682
G1 X-33.660 Y-40.160 E6.04850
G1 X33.660 Y-40.160 E11.71585
G1 X34.740 Y-40.020 E11.80753
G1 X35.740 Y-39.600 E11.89884
G1 X36.600 Y-38.940 E11.99010
G1 X37.260 Y-38.080 E12.08136
G1 X37.680 Y-37.080 E12.17267
G1 X37.820 Y-36.000 E12.26435
G1 X37.820 Y36.000 E18.32568
G1 X37.680 Y37.080 E18.41736
G1 X37.260 Y38.080 E18.50867
G1 X36.600 Y38.940 E18.59993
G1 X35.740 Y39.600 E18.69119
G1 X34.740 Y40.020 E18.78250
G1 X33.660 Y40.160 E18.87418
G1 X-33.660 Y40.160 E24.54152
G1 X-34.740 Y40.020 E24.63320
G1 X-35.740 Y39.600 E24.72451
G1 X-36.600 Y38.940 E24.81577
G1 X-37.260 Y38.080 E24.90704
G1 X-37.680 Y37.080 E24.99835
G1 X-37.820 Y36.000 E25.09003
G1 X-37.820 Y-35.913 E31.14405
G1 X-37.240 Y-36.000 F12000.000
G1 X-37.120 Y-36.930 E31.22299 F900
G1 X-36.760 Y-37.790 E31.30148
G1 X-36.190 Y-38.530 E31.38011
G1 X-35.450 Y-39.100 E31.45875
G1 X-34.590 Y-39.460 E31.53723
G1 X-33.660 Y-39.580 E31.61618
G1 X33.660 Y-39.580 E37.28352
G1 X34.590 Y-39.460 E37.36246
G1 X35.450 Y-39.100 E37.44095
G1 X36.190 Y-38.530 E37.51958
G1 X36.760 Y-37.790 E37.59822
G1 X37.120 Y-36.930 E37.67670
G1 X37.240 Y-36.000 E37.75564
G1 X37.240 Y36.000 E43.81697
G1 X37.120 Y36.930 E43.89591
G1 X36.760 Y37.790 E43.97440
G1 X36.190 Y38.530 E44.05304
G1 X35.450 Y39.100 E44.13167
G1 X34.590 Y39.460 E44.21016
G1 X33.660 Y39.580 E44.28910
G1 X-33.660 Y39.580 E49.95644
G1 X-34.590 Y39.460 E50.03538
G1 X-35.450 Y39.100 E50.11387
G1 X-36.190 Y38.530 E50.19250
G1 X-36.760 Y37.790 E50.27114
G1 X-37.120 Y36.930 E50.34963
G1 X-37.240 Y36.000 E50.42857
G1 X-37.240 Y-35.913 E56.48259
G1 F6000.000 E51.08259
G1 Z4.350 F12000.000
G92 E0
G1 X6.876 Y-10.909 F12000.000
G1 Z0.350 F12000.000
G1 E5.50000 F6000.000
G1 X7.193 Y-11.366 E5.54682 F900
G1 X7.423 Y-11.615 E5.57530
G1 X7.677 Y-11.838 E5.60378
G1 X7.953 Y-12.032 E5.63225
G1 X8.205 Y-12.175 E5.65659
G1 X8.721 Y-12.384 E5.70340
G1 X9.053 Y-12.466 E5.73222
G1 X9.330 Y-12.507 E5.75578
G1 X9.886 Y-12.516 E5.80263
G1 X10.383 Y-12.442 E5.84496
G1 X11.127 Y-12.251 E5.90958
G1 X10.730 Y-13.013 E5.98189
G1 X10.608 Y-13.330 E6.01044
G1 X10.521 Y-13.657 E6.03898
G1 X10.469 Y-13.992 E6.06754
G1 X10.453 Y-14.331 E6.09608
G1 X10.472 Y-14.670 E6.12463
G1 X10.527 Y-15.004 E6.15319
G1 X10.617 Y-15.331 E6.18173
G1 X10.741 Y-15.647 E6.21028
G1 X10.898 Y-15.948 E6.23883
G1 X11.160 Y-16.325 E6.27748
G1 X11.420 Y-16.613 E6.31018
G1 X11.675 Y-16.836 E6.33873
G1 X11.956 Y-17.034 E6.36761
G1 X12.247 Y-17.196 E6.39564
G1 X12.554 Y-17.327 E6.42375
G1 X12.873 Y-17.426 E6.45186
G1 X13.418 Y-17.515 E6.49839
G1 X13.698 Y-17.524 E6.52196
G1 X14.031 Y-17.503 E6.55008
G1 X14.360 Y-17.447 E6.57818
G1 X14.682 Y-17.357 E6.60629
G1 X14.991 Y-17.235 E6.63430
G1 X15.295 Y-17.076 E6.66310
G1 X15.746 Y-16.753 E6.70988
G1 X15.957 Y-16.555 E6.73420
G1 X16.180 Y-16.301 E6.76265
G1 X16.375 Y-16.025 E6.79111
G1 X16.539 Y-15.730 E6.81956
G1 X16.726 Y-15.258 E6.86222
G1 X16.817 Y-14.882 E6.89480
G1 X16.867 Y-14.378 E6.93745
G1 X16.836 Y-13.872 E6.98012
G1 X16.726 Y-13.377 E7.02277
G1 X16.540 Y-12.906 E7.06542
G1 X16.282 Y-12.470 E7.10808
G1 X15.959 Y-12.080 E7.15074
G1 X15.578 Y-11.746 E7.19340
G1 X15.147 Y-11.475 E7.23620
G1 X14.682 Y-11.277 E7.27876
G1 X14.192 Y-11.154 E7.32132
G1 X13.688 Y-11.110 E7.36388
G1 X13.238 Y-11.138 E7.40187
G1 X12.853 Y-11.213 E7.43483
G1 X12.194 Y-11.400 E7.49254
G1 X12.617 Y-10.560 E7.57173
G1 X12.731 Y-10.242 E7.60019
G1 X12.811 Y-9.914 E7.62864
G1 X12.857 Y-9.579 E7.65709
G1 X12.866 Y-9.235 E7.68608
G1 X12.841 Y-8.904 E7.71399
G1 X12.780 Y-8.572 E7.74244
G1 X12.684 Y-8.247 E7.77089
G1 X12.554 Y-7.935 E7.79934
G1 X12.393 Y-7.638 E7.82779
G1 X12.201 Y-7.360 E7.85624
G1 X11.981 Y-7.104 E7.88470
G1 X11.735 Y-6.872 E7.91315
G1 X11.466 Y-6.667 E7.94160
G1 X11.134 Y-6.469 E7.97418
G1 X10.667 Y-6.272 E8.01683
G1 X10.172 Y-6.151 E8.05976
G1 X9.667 Y-6.110 E8.10237
G1 X9.163 Y-6.149 E8.14498
G1 X8.670 Y-6.267 E8.18758
G1 X8.203 Y-6.460 E8.23018
G1 X7.772 Y-6.725 E8.27278
G1 X7.390 Y-7.051 E8.31501
G1 X7.061 Y-7.439 E8.35786
G1 X6.797 Y-7.872 E8.40055
G1 X6.605 Y-8.341 E8.44324
G1 X6.489 Y-8.835 E8.48592
G1 X6.453 Y-9.341 E8.52860
G1 X6.497 Y-9.846 E8.57129
G1 X6.620 Y-10.338 E8.61398
G1 X6.834 Y-10.833 E8.65944
G1 X11.319 Y-13.121 F12000.000
G1 X11.206 Y-13.375 E8.68284 F900
G1 X11.120 Y-13.640 E8.70623
G1 X11.063 Y-13.911 E8.72962
G1 X11.037 Y-14.154 E8.75015
G1 X11.047 Y-14.604 E8.78807
G1 X11.092 Y-14.878 E8.81147
G1 X11.166 Y-15.146 E8.83486
G1 X11.267 Y-15.405 E8.85825
G1 X11.378 Y-15.622 E8.87878
G1 X11.635 Y-15.992 E8.91670
G1 X11.823 Y-16.197 E8.94009
G1 X12.031 Y-16.380 E8.96348
G1 X12.261 Y-16.542 E8.98715
G1 X12.465 Y-16.658 E9.00692
G1 X12.882 Y-16.828 E9.04476
G1 X13.147 Y-16.895 E9.06784
G1 X13.419 Y-16.935 E9.09092
G1 X13.692 Y-16.946 E9.11392
G1 X13.965 Y-16.928 E9.13700
G1 X14.406 Y-16.837 E9.17483
G1 X14.628 Y-16.761 E9.19466
G1 X14.881 Y-16.645 E9.21808
G1 X15.119 Y-16.503 E9.24141
G1 X15.341 Y-16.338 E9.26473
G1 X15.545 Y-16.149 E9.28806
G1 X15.727 Y-15.941 E9.31138
G1 X15.973 Y-15.565 E9.34920
G1 X16.079 Y-15.346 E9.36967
G1 X16.174 Y-15.086 E9.39300
G1 X16.241 Y-14.817 E9.41632
G1 X16.279 Y-14.542 E9.43965
G1 X16.279 Y-14.093 E9.47747
G1 X16.241 Y-13.819 E9.50079
G1 X16.174 Y-13.550 E9.52412
G1 X16.079 Y-13.289 E9.54744
G1 X15.974 Y-13.070 E9.56792
G1 X15.728 Y-12.694 E9.60573
G1 X15.546 Y-12.486 E9.62906
G1 X15.342 Y-12.297 E9.65238
G1 X15.120 Y-12.131 E9.67571
G1 X14.915 Y-12.008 E9.69590
G1 X14.500 Y-11.826 E9.73408
G1 X14.233 Y-11.752 E9.75736
G1 X13.961 Y-11.706 E9.78064
G1 X13.685 Y-11.688 E9.80392
G1 X13.408 Y-11.700 E9.82720
G1 X13.135 Y-11.741 E9.85047
G1 X12.905 Y-11.800 E9.87046
G1 X12.484 Y-11.966 E9.90856
G1 X12.242 Y-12.104 E9.93200
G1 X12.016 Y-12.266 E9.95540
G1 X11.809 Y-12.451 E9.97878
G1 X11.622 Y-12.657 E10.00218
G1 X11.360 Y-13.045 E10.04162
G1 X11.887 Y-13.288 F12000.000
G1 X11.711 Y-13.683 E10.07803 F900
G1 X11.623 Y-14.087 E10.11288
G1 X11.613 Y-14.431 E10.14179
G1 X11.683 Y-14.858 E10.17821
G1 X11.832 Y-15.244 E10.21305
G1 X12.012 Y-15.536 E10.24196
G1 X12.304 Y-15.855 E10.27838
G1 X12.638 Y-16.094 E10.31294
G1 X12.950 Y-16.240 E10.34196
G1 X13.365 Y-16.346 E10.37799
G1 X13.792 Y-16.363 E10.41401
G1 X14.133 Y-16.311 E10.44302
G1 X14.516 Y-16.180 E10.47708
G1 X14.889 Y-15.958 E10.51364
G1 X15.205 Y-15.664 E10.54999
G1 X15.408 Y-15.388 E10.57883
G1 X15.587 Y-15.015 E10.61362
G1 X15.691 Y-14.596 E10.64997
G1 X15.709 Y-14.254 E10.67881
G1 X15.650 Y-13.826 E10.71516
G1 X15.511 Y-13.437 E10.74994
G1 X15.339 Y-13.141 E10.77879
G1 X15.056 Y-12.815 E10.81514
G1 X14.726 Y-12.566 E10.84996
G1 X14.418 Y-12.412 E10.87889
G1 X14.003 Y-12.296 E10.91518
G1 X13.573 Y-12.269 E10.95147
G1 X13.170 Y-12.327 E10.98575
G1 X12.841 Y-12.438 E11.01499
G1 X12.465 Y-12.651 E11.05133
G1 X12.155 Y-12.925 E11.08618
G1 X11.932 Y-13.214 E11.11689
G1 X11.455 Y-13.301 F12000.000
G1 X10.771 Y-11.699 F12000.000
G1 X11.014 Y-11.570 E11.13999 F900
G1 X11.242 Y-11.417 E11.16315
G1 X11.576 Y-11.116 E11.20102
G1 X11.735 Y-10.931 E11.22149
G1 X11.893 Y-10.704 E11.24482
G1 X12.027 Y-10.461 E11.26814
G1 X12.134 Y-10.206 E11.29147
G1 X12.249 Y-9.772 E11.32928
G1 X12.280 Y-9.530 E11.34975
G1 X12.288 Y-9.250 E11.37340
G1 X12.267 Y-8.977 E11.39640
G1 X12.216 Y-8.705 E11.41972
G1 X12.075 Y-8.279 E11.45753
G1 X11.969 Y-8.060 E11.47800
G1 X11.823 Y-7.824 E11.50133
G1 X11.654 Y-7.604 E11.52465
G1 X11.463 Y-7.404 E11.54798
G1 X11.111 Y-7.125 E11.58579
G1 X10.902 Y-7.000 E11.60626
G1 X10.651 Y-6.882 E11.62958
G1 X10.390 Y-6.792 E11.65291
G1 X10.122 Y-6.729 E11.67608
G1 X9.669 Y-6.689 E11.71430
G1 X9.432 Y-6.698 E11.73430
G1 X9.158 Y-6.737 E11.75760
G1 X8.889 Y-6.804 E11.78091
G1 X8.629 Y-6.899 E11.80421
G1 X8.381 Y-7.021 E11.82751
G1 X8.146 Y-7.168 E11.85081
G1 X7.802 Y-7.458 E11.88871
G1 X7.637 Y-7.638 E11.90930
G1 X7.472 Y-7.861 E11.93264
G1 X7.330 Y-8.099 E11.95598
G1 X7.215 Y-8.352 E11.97932
G1 X7.086 Y-8.782 E12.01716
G1 X7.044 Y-9.056 E12.04050
G1 X7.032 Y-9.333 E12.06383
G1 X7.048 Y-9.610 E12.08718
G1 X7.093 Y-9.884 E12.11052
G1 X7.167 Y-10.151 E12.13386
G1 X7.255 Y-10.378 E12.15434
G1 X7.471 Y-10.772 E12.19218
G1 X7.636 Y-10.994 E12.21552
G1 X7.824 Y-11.198 E12.23887
G1 X8.033 Y-11.381 E12.26221
G1 X8.259 Y-11.541 E12.28555
G1 X8.501 Y-11.676 E12.30889
G1 X8.724 Y-11.773 E12.32938
G1 X9.160 Y-11.898 E12.36749
G1 X9.431 Y-11.936 E12.39058
G1 X9.706 Y-11.945 E12.41374
G1 X9.981 Y-11.926 E12.43691
G1 X10.252 Y-11.878 E12.46007
G1 X10.692 Y-11.734 E12.49906
G1 X10.428 Y-11.218 F12000.000
G1 X10.807 Y-11.016 E12.53519 F900
G1 X11.073 Y-10.802 E12.56401
G1 X11.343 Y-10.488 E12.59880
G1 X11.551 Y-10.110 E12.63514
G1 X11.656 Y-9.784 E12.66398
G1 X11.709 Y-9.376 E12.69866
G1 X11.676 Y-8.944 E12.73511
G1 X11.585 Y-8.613 E12.76396
G1 X11.405 Y-8.241 E12.79874
G1 X11.141 Y-7.900 E12.83508
G1 X10.884 Y-7.673 E12.86393
G1 X10.530 Y-7.461 E12.89871
G1 X10.122 Y-7.320 E12.93508
G1 X9.780 Y-7.271 E12.96418
G1 X9.372 Y-7.287 E12.99849
G1 X8.954 Y-7.392 E13.03480
G1 X8.567 Y-7.583 E13.07111
G1 X8.290 Y-7.792 E13.10037
G1 X8.002 Y-8.111 E13.13650
G1 X7.794 Y-8.468 E13.17130
G1 X7.679 Y-8.791 E13.20016
G1 X7.612 Y-9.218 E13.23652
G1 X7.637 Y-9.649 E13.27288
G1 X7.745 Y-10.048 E13.30768
G1 X7.893 Y-10.357 E13.33654
G1 X8.151 Y-10.704 E13.37291
G1 X8.475 Y-10.990 E13.40927
G1 X8.834 Y-11.193 E13.44407
G1 X9.159 Y-11.305 E13.47293
G1 X9.587 Y-11.366 E13.50932
G1 X9.992 Y-11.340 E13.54348
G1 X10.346 Y-11.248 E13.57433
G1 X10.774 Y-11.471 F12000.000
G1 X-4.265 Y-7.230 F12000.000
G1 X-4.187 Y-6.905 E13.60244 F900
G1 X-4.143 Y-6.575 E13.63046
G1 X-4.147 Y-6.021 E13.67715
G1 X-4.185 Y-5.743 E13.70074
G1 X-4.261 Y-5.418 E13.72887
G1 X-4.372 Y-5.102 E13.75699
G1 X-4.514 Y-4.800 E13.78512
G1 X-4.816 Y-4.338 E13.83162
G1 X-5.040 Y-4.082 E13.86022
G1 X-5.288 Y-3.852 E13.88868
G1 X-5.559 Y-3.650 E13.91713
G1 X-5.849 Y-3.477 E13.94560
G1 X-6.157 Y-3.336 E13.97406
G1 X-6.430 Y-3.242 E13.99838
G1 X-6.974 Y-3.131 E14.04517
G1 X-7.312 Y-3.110 E14.07362
G1 X-7.649 Y-3.125 E14.10209
G1 X-7.984 Y-3.175 E14.13054
G1 X-8.264 Y-3.246 E14.15487
G1 X-8.780 Y-3.451 E14.20165
G1 X-9.074 Y-3.619 E14.23012
G1 X-9.348 Y-3.816 E14.25858
G1 X-9.600 Y-4.041 E14.28704
G1 X-9.796 Y-4.254 E14.31136
G1 X-10.115 Y-4.709 E14.35816
G1 X-10.269 Y-5.009 E14.38654
G1 X-10.388 Y-5.319 E14.41448
G1 X-10.475 Y-5.638 E14.44233
G1 X-10.528 Y-5.966 E14.47032
G1 X-10.541 Y-6.515 E14.51649
G1 X-10.510 Y-6.804 E14.54094
G1 X-10.441 Y-7.134 E14.56936
G1 X-10.338 Y-7.456 E14.59779
G1 X-10.202 Y-7.765 E14.62622
G1 X-10.034 Y-8.057 E14.65465
G1 X-9.836 Y-8.331 E14.68307
G1 X-9.451 Y-8.731 E14.72981
G1 X-9.186 Y-8.940 E14.75823
G1 X-8.900 Y-9.119 E14.78666
G1 X-8.596 Y-9.268 E14.81509
G1 X-8.326 Y-9.369 E14.83939
G1 X-7.785 Y-9.493 E14.88612
G1 X-7.448 Y-9.522 E14.91456
G1 X-7.111 Y-9.516 E14.94298
G1 X-6.776 Y-9.474 E14.97141
G1 X-6.447 Y-9.397 E14.99984
G1 X-6.128 Y-9.286 E15.02826
G1 X-5.866 Y-9.165 E15.05256
G1 X-5.397 Y-8.869 E15.09930
G1 X-5.139 Y-8.650 E15.12772
G1 X-4.906 Y-8.406 E15.15616
G1 X-4.700 Y-8.138 E15.18459
G1 X-4.523 Y-7.851 E15.21301
G1 X-4.377 Y-7.544 E15.24163
G1 X-4.292 Y-7.312 E15.26241
G1 X-4.832 Y-7.103 F12000.000
G1 X-4.734 Y-6.665 E15.30018 F900
G1 X-4.712 Y-6.391 E15.32328
G1 X-4.719 Y-6.117 E15.34637
G1 X-4.754 Y-5.845 E15.36946
G1 X-4.817 Y-5.578 E15.39255
G1 X-4.980 Y-5.159 E15.43041
G1 X-5.114 Y-4.919 E15.45350
G1 X-5.270 Y-4.696 E15.47643
G1 X-5.453 Y-4.487 E15.49984
G1 X-5.631 Y-4.320 E15.52032
G1 X-5.995 Y-4.058 E15.55813
G1 X-6.241 Y-3.929 E15.58146
G1 X-6.498 Y-3.827 E15.60480
G1 X-6.765 Y-3.752 E15.62813
G1 X-7.038 Y-3.706 E15.65146
G1 X-7.315 Y-3.688 E15.67479
G1 X-7.558 Y-3.698 E15.69527
G1 X-8.001 Y-3.773 E15.73309
G1 X-8.265 Y-3.856 E15.75642
G1 X-8.519 Y-3.968 E15.77974
G1 X-8.760 Y-4.105 E15.80308
G1 X-8.985 Y-4.266 E15.82641
G1 X-9.192 Y-4.451 E15.84974
G1 X-9.356 Y-4.630 E15.87022
G1 X-9.614 Y-4.998 E15.90804
G1 X-9.740 Y-5.244 E15.93133
G1 X-9.838 Y-5.499 E15.95429
G1 X-9.909 Y-5.761 E15.97720
G1 X-9.953 Y-6.031 E16.00018
G1 X-9.964 Y-6.475 E16.03761
G1 X-9.938 Y-6.718 E16.05817
G1 X-9.881 Y-6.989 E16.08147
G1 X-9.796 Y-7.253 E16.10478
G1 X-9.684 Y-7.506 E16.12809
G1 X-9.546 Y-7.746 E16.15139
G1 X-9.384 Y-7.970 E16.17470
G1 X-9.073 Y-8.294 E16.21248
G1 X-8.855 Y-8.465 E16.23579
G1 X-8.621 Y-8.612 E16.25910
G1 X-8.372 Y-8.734 E16.28241
G1 X-8.145 Y-8.819 E16.30287
G1 X-7.707 Y-8.920 E16.34065
G1 X-7.431 Y-8.944 E16.36396
G1 X-7.155 Y-8.939 E16.38727
G1 X-6.880 Y-8.905 E16.41058
G1 X-6.643 Y-8.851 E16.43104
G1 X-6.222 Y-8.696 E16.46882
G1 X-5.978 Y-8.565 E16.49213
G1 X-5.749 Y-8.409 E16.51544
G1 X-5.537 Y-8.230 E16.53874
G1 X-5.369 Y-8.055 E16.55921
G1 X-5.101 Y-7.695 E16.59699
G1 X-4.969 Y-7.452 E16.62030
G1 X-4.859 Y-7.185 E16.64459
G1 X-5.408 Y-7.004 F12000.000
G1 X-5.308 Y-6.588 E16.68062 F900
G1 X-5.292 Y-6.243 E16.70965
G1 X-5.346 Y-5.842 E16.74374
G1 X-5.488 Y-5.438 E16.77979
G1 X-5.662 Y-5.140 E16.80882
G1 X-5.944 Y-4.816 E16.84500
G1 X-6.289 Y-4.557 E16.88135
G1 X-6.664 Y-4.382 E16.91614
G1 X-6.995 Y-4.296 E16.94499
G1 X-7.426 Y-4.269 E16.98134
G1 X-7.835 Y-4.328 E17.01613
G1 X-8.160 Y-4.438 E17.04498
G1 X-8.535 Y-4.651 E17.08133
G1 X-8.845 Y-4.925 E17.11612
G1 X-9.056 Y-5.195 E17.14497
G1 X-9.252 Y-5.578 E17.18121
G1 X-9.364 Y-5.990 E17.21710
G1 X-9.390 Y-6.332 E17.24601
G1 X-9.346 Y-6.739 E17.28048
G1 X-9.213 Y-7.150 E17.31681
G1 X-8.997 Y-7.524 E17.35314
G1 X-8.773 Y-7.783 E17.38197
G1 X-8.435 Y-8.050 E17.41829
G1 X-8.065 Y-8.234 E17.45306
G1 X-7.736 Y-8.328 E17.48189
G1 X-7.306 Y-8.367 E17.51822
G1 X-6.878 Y-8.314 E17.55454
G1 X-6.487 Y-8.181 E17.58931
G1 X-6.188 Y-8.013 E17.61814
G1 X-5.859 Y-7.734 E17.65447
G1 X-5.605 Y-7.409 E17.68924
G1 X-5.440 Y-7.085 E17.71987
G1 X-4.990 Y-6.912 F12000.000
G1 F6000.000 E12.31987
G1 Z4.350 F12000.000
G92 E0
G1 X-19.965 Y-5.600 F12000.000
G1 Z0.350 F12000.000
G1 E5.50000 F6000.000
G1 X-19.964 Y-5.052 E5.54607 F900
G1 X-20.008 Y-4.724 E5.57397
G1 X-20.088 Y-4.394 E5.60256
G1 X-20.203 Y-4.075 E5.63108
G1 X-20.328 Y-3.814 E5.65549
G1 X-20.630 Y-3.346 E5.70239
G1 X-20.852 Y-3.090 E5.73093
G1 X-21.100 Y-2.858 E5.75947
G1 X-21.371 Y-2.655 E5.78801
G1 X-21.619 Y-2.505 E5.81239
G1 X-22.129 Y-2.280 E5.85931
G1 X-22.455 Y-2.188 E5.88784
G1 X-22.789 Y-2.131 E5.91637
G1 X-23.128 Y-2.110 E5.94491
G1 X-23.466 Y-2.124 E5.97346
G1 X-23.801 Y-2.174 E6.00199
G1 X-24.082 Y-2.246 E6.02638
G1 X-24.600 Y-2.451 E6.07329
G1 X-24.895 Y-2.619 E6.10183
G1 X-25.170 Y-2.817 E6.13037
G1 X-25.422 Y-3.043 E6.15890
G1 X-25.650 Y-3.295 E6.18743
G1 X-25.849 Y-3.569 E6.21597
G1 X-25.996 Y-3.819 E6.24036
G1 X-26.212 Y-4.332 E6.28727
G1 X-26.300 Y-4.663 E6.31609
G1 X-26.351 Y-4.992 E6.34410
G1 X-26.367 Y-5.325 E6.37217
G1 X-26.349 Y-5.658 E6.40028
G1 X-26.297 Y-5.985 E6.42816
G1 X-26.211 Y-6.307 E6.45620
G1 X-25.992 Y-6.822 E6.50327
G1 X-25.845 Y-7.071 E6.52766
G1 X-25.645 Y-7.345 E6.55618
G1 X-25.417 Y-7.596 E6.58471
G1 X-25.164 Y-7.821 E6.61324
G1 X-24.700 Y-8.130 E6.66014
G1 X-24.441 Y-8.258 E6.68452
