; generated by Slic3r 1.0.0RC2 on 2014-05-03 at 12:10:29

; layer_height = .2
; perimeters = 3
; top_solid_layers = 5
; bottom_solid_layers = 3
; fill_density = .3
; perimeter_speed = 30
; infill_speed = 30
; travel_speed = 200
; nozzle_diameter = 0.5
; filament_diameter = 1.75
; extrusion_multiplier = 1
; perimeters extrusion width = 0.45mm
; infill extrusion width = 0.45mm
; solid infill extrusion width = 0.45mm
; top infill extrusion width = 0.40mm
; first layer extrusion width = 0.60mm

G21 ; set units to millimeters
M107
G28
M104 S210,0
M190 S60
M109 S210,0
; BEGINNING OF HEAD MOVEMENT WARNING TONES
M120 S4 P10
G4 P40
M120 S4 P10
G4 P40
M120 S4 P10
G4 P40
M120 S4 P10
G4 P40
M120 S4 P10
G4 P40
M117 KEEP HANDS AWAY
G4 S3
; END OF HEAD WARNING TONES
G90 ; use absolute coordinates
G92 E0
M82 ; use absolute distances for extrusion
G1 F6000.000 E-5.40000
G1 Z4.350 F12000.000
G92 E0
G1 X-70.705 Y-40.160 F12000.000
G1 Z0.350 F12000.000
G1 E5.50000 F6000.000
G1 X70.705 Y-40.160 E17.40462 F900
G1 X71.785 Y-40.020 E17.49630
G1 X72.785 Y-39.600 E17.58761
G1 X73.645 Y-38.940 E17.67887
G1 X74.305 Y-38.080 E17.77013
G1 X74.725 Y-37.080 E17.86144
G1 X74.865 Y-36.000 E17.95312
G1 X74.865 Y36.000 E24.01445
G1 X74.725 Y37.080 E24.10613
G1 X74.305 Y38.080 E24.19744
G1 X73.645 Y38.940 E24.28870
G1 X72.785 Y39.600 E24.37996
G1 X71.785 Y40.020 E24.47127
G1 X70.705 Y40.160 E24.56295
G1 X-70.705 Y40.160 E36.46757
G1 X-71.785 Y40.020 E36.55925
G1 X-72.785 Y39.600 E36.65056
G1 X-73.645 Y38.940 E36.74182
G1 X-74.305 Y38.080 E36.83308
G1 X-74.725 Y37.080 E36.92439
G1 X-74.865 Y36.000 E37.01607
G1 X-74.865 Y-36.000 E43.07740
G1 X-74.725 Y-37.080 E43.16908
G1 X-74.305 Y-38.080 E43.26039
G1 X-73.645 Y-38.940 E43.35165
G1 X-72.785 Y-39.600 E43.44292
G1 X-71.785 Y-40.020 E43.53422
G1 X-70.791 Y-40.149 E43.61860
G1 X-70.705 Y-39.580 F12000.000
G1 X70.705 Y-39.580 E55.52322 F900
G1 X71.635 Y-39.460 E55.60216
G1 X72.495 Y-39.100 E55.68065
G1 X73.235 Y-38.530 E55.75928
G1 X73.805 Y-37.790 E55.83792
G1 X74.165 Y-36.930 E55.91640
G1 X74.285 Y-36.000 E55.99534
G1 X74.285 Y36.000 E62.05667
G1 X74.165 Y36.930 E62.13561
G1 X73.805 Y37.790 E62.21410
G1 X73.235 Y38.530 E62.29274
G1 X72.495 Y39.100 E62.37137
G1 X71.635 Y39.460 E62.44986
G1 X70.705 Y39.580 E62.52880
G1 X-70.705 Y39.580 E74.43342
G1 X-71.635 Y39.460 E74.51236
G1 X-72.495 Y39.100 E74.59084
G1 X-73.235 Y38.530 E74.66948
G1 X-73.805 Y37.790 E74.74811
G1 X-74.165 Y36.930 E74.82660
G1 X-74.285 Y36.000 E74.90554
G1 X-74.285 Y-36.000 E80.96687
G1 X-74.165 Y-36.930 E81.04581
G1 X-73.805 Y-37.790 E81.12430
G1 X-73.235 Y-38.530 E81.20293
G1 X-72.495 Y-39.100 E81.28157
G1 X-71.635 Y-39.460 E81.36006
G1 X-70.791 Y-39.569 E81.43169
G1 F6000.000 E76.03169
G1 Z4.350 F12000.000
G92 E0
G1 X-52.659 Y-16.860 F12000.000
G1 Z0.350 F12000.000
G1 E5.50000 F6000.000
G1 X-52.341 Y-17.076 E5.53238 F900
G1 X-51.886 Y-17.299 E5.57503
G1 X-51.407 Y-17.447 E5.61723
G1 X-50.911 Y-17.518 E5.65943
G1 X-50.411 Y-17.511 E5.70149
G1 X-49.917 Y-17.426 E5.74369
G1 X-49.442 Y-17.265 E5.78589
G1 X-48.958 Y-17.007 E5.83206
G1 X-48.720 Y-16.836 E5.85679
G1 X-48.465 Y-16.612 E5.88534
G1 X-48.235 Y-16.363 E5.91389
G1 X-48.033 Y-16.091 E5.94243
G1 X-47.860 Y-15.798 E5.97098
G1 X-47.720 Y-15.490 E5.99953
G1 X-47.613 Y-15.168 E6.02808
G1 X-47.540 Y-14.837 E6.05661
G1 X-47.503 Y-14.500 E6.08516
G1 X-47.501 Y-14.161 E6.11370
G1 X-47.536 Y-13.823 E6.14226
G1 X-47.606 Y-13.492 E6.17080
G1 X-47.775 Y-13.012 E6.21360
G1 X-48.172 Y-12.251 E6.28585
G1 X-47.427 Y-12.442 E6.35054
G1 X-46.930 Y-12.516 E6.39290
G1 X-46.427 Y-12.512 E6.43526
G1 X-45.927 Y-12.429 E6.47786
G1 X-45.447 Y-12.267 E6.52055
G1 X-44.997 Y-12.032 E6.56325
G1 X-44.591 Y-11.729 E6.60593
G1 X-44.208 Y-11.329 E6.65252
G1 X-44.035 Y-11.094 E6.67708
G1 X-43.863 Y-10.803 E6.70556
G1 X-43.722 Y-10.495 E6.73404
G1 X-43.615 Y-10.175 E6.76252
G1 X-43.542 Y-9.845 E6.79098
G1 X-43.504 Y-9.508 E6.81947
G1 X-43.518 Y-8.955 E6.86606
G1 X-43.564 Y-8.667 E6.89062
G1 X-43.650 Y-8.340 E6.91910
G1 X-43.770 Y-8.023 E6.94758
G1 X-43.923 Y-7.722 E6.97605
G1 X-44.239 Y-7.267 E7.02265
G1 X-44.470 Y-7.017 E7.05135
G1 X-44.723 Y-6.795 E7.07967
G1 X-45.145 Y-6.515 E7.12228
G1 X-45.605 Y-6.304 E7.16489
G1 X-46.093 Y-6.169 E7.20751
G1 X-46.596 Y-6.112 E7.25013
G1 X-47.102 Y-6.134 E7.29275
G1 X-47.597 Y-6.236 E7.33532
G1 X-48.071 Y-6.415 E7.37797
G1 X-48.472 Y-6.641 E7.41673
G1 X-48.906 Y-6.984 E7.46327
G1 X-49.139 Y-7.228 E7.49172
G1 X-49.345 Y-7.496 E7.52018
G1 X-49.522 Y-7.784 E7.54864
G1 X-49.668 Y-8.089 E7.57710
G1 X-49.781 Y-8.408 E7.60555
G1 X-49.859 Y-8.736 E7.63399
G1 X-49.903 Y-9.072 E7.66246
G1 X-49.911 Y-9.416 E7.69144
G1 X-49.884 Y-9.746 E7.71935
G1 X-49.821 Y-10.079 E7.74782
G1 X-49.662 Y-10.560 E7.79047
G1 X-49.239 Y-11.400 E7.86969
G1 X-49.947 Y-11.201 E7.93161
G1 X-50.398 Y-11.124 E7.97006
G1 X-50.903 Y-11.116 E8.01264
G1 X-51.404 Y-11.187 E8.05522
G1 X-51.887 Y-11.336 E8.09779
G1 X-52.381 Y-11.583 E8.14425
G1 X-52.623 Y-11.747 E8.16892
G1 X-52.883 Y-11.963 E8.19737
G1 X-53.227 Y-12.336 E8.24004
G1 X-53.421 Y-12.612 E8.26849
G1 X-53.586 Y-12.907 E8.29695
G1 X-53.785 Y-13.423 E8.34351
G1 X-53.854 Y-13.707 E8.36806
G1 X-53.900 Y-14.041 E8.39649
G1 X-53.911 Y-14.389 E8.42577
G1 X-53.887 Y-14.717 E8.45343
G1 X-53.771 Y-15.257 E8.49998
G1 X-53.655 Y-15.575 E8.52844
G1 X-53.506 Y-15.878 E8.55690
G1 X-53.327 Y-16.164 E8.58536
G1 X-53.148 Y-16.395 E8.60988
G1 X-52.916 Y-16.640 E8.63835
G1 X-52.727 Y-16.806 E8.65950
G1 X-52.387 Y-16.337 F12000.000
G1 X-52.165 Y-16.503 E8.68282 F900
G1 X-51.927 Y-16.644 E8.70615
G1 X-51.675 Y-16.760 E8.72950
G1 X-51.447 Y-16.838 E8.74980
G1 X-51.011 Y-16.928 E8.78726
G1 X-50.737 Y-16.946 E8.81038
G1 X-50.464 Y-16.935 E8.83341
G1 X-50.192 Y-16.895 E8.85653
G1 X-49.926 Y-16.828 E8.87965
G1 X-49.514 Y-16.660 E8.91711
G1 X-49.304 Y-16.541 E8.93739
G1 X-49.076 Y-16.380 E8.96093
G1 X-48.867 Y-16.196 E8.98432
G1 X-48.679 Y-15.992 E9.00771
G1 X-48.424 Y-15.623 E9.04540
G1 X-48.312 Y-15.404 E9.06616
G1 X-48.210 Y-15.145 E9.08955
G1 X-48.137 Y-14.878 E9.11293
G1 X-48.092 Y-14.603 E9.13632
G1 X-48.082 Y-14.156 E9.17401
G1 X-48.108 Y-13.911 E9.19477
G1 X-48.165 Y-13.639 E9.21815
G1 X-48.251 Y-13.375 E9.24154
G1 X-48.364 Y-13.121 E9.26493
G1 X-48.601 Y-12.741 E9.30262
G1 X-48.758 Y-12.551 E9.32337
G1 X-48.955 Y-12.355 E9.34677
G1 X-49.172 Y-12.181 E9.37015
G1 X-49.406 Y-12.032 E9.39354
G1 X-49.814 Y-11.844 E9.43134
G1 X-50.046 Y-11.772 E9.45178
G1 X-50.317 Y-11.717 E9.47507
G1 X-50.593 Y-11.691 E9.49837
G1 X-50.869 Y-11.693 E9.52165
G1 X-51.144 Y-11.725 E9.54495
G1 X-51.414 Y-11.786 E9.56824
G1 X-51.834 Y-11.943 E9.60599
G1 X-52.048 Y-12.057 E9.62637
G1 X-52.279 Y-12.212 E9.64985
G1 X-52.492 Y-12.390 E9.67318
G1 X-52.685 Y-12.588 E9.69651
G1 X-52.856 Y-12.806 E9.71984
G1 X-53.003 Y-13.041 E9.74317
G1 X-53.186 Y-13.449 E9.78076
G1 X-53.256 Y-13.684 E9.80146
G1 X-53.309 Y-13.957 E9.82479
G1 X-53.332 Y-14.233 E9.84812
G1 X-53.326 Y-14.510 E9.87145
G1 X-53.256 Y-14.951 E9.90904
G1 X-53.175 Y-15.216 E9.93237
G1 X-53.067 Y-15.471 E9.95569
G1 X-52.932 Y-15.713 E9.97903
G1 X-52.792 Y-15.915 E9.99973
G1 X-52.453 Y-16.280 E10.04167
G1 X-52.101 Y-15.818 F12000.000
G1 X-51.755 Y-16.077 E10.07802 F900
G1 X-51.381 Y-16.252 E10.11283
G1 X-51.051 Y-16.338 E10.14147
G1 X-50.623 Y-16.365 E10.17758
G1 X-50.199 Y-16.304 E10.21367
G1 X-49.878 Y-16.192 E10.24231
G1 X-49.518 Y-15.989 E10.27708
G1 X-49.194 Y-15.702 E10.31349
G1 X-48.986 Y-15.433 E10.34217
G1 X-48.795 Y-15.062 E10.37724
G1 X-48.681 Y-14.645 E10.41365
G1 X-48.655 Y-14.306 E10.44233
G1 X-48.700 Y-13.891 E10.47740
G1 X-48.834 Y-13.480 E10.51381
G1 X-48.998 Y-13.182 E10.54249
G1 X-49.263 Y-12.860 E10.57756
G1 X-49.600 Y-12.590 E10.61397
G1 X-49.904 Y-12.430 E10.64282
G1 X-50.298 Y-12.308 E10.67757
G1 X-50.727 Y-12.267 E10.71387
G1 X-51.156 Y-12.317 E10.75018
G1 X-51.482 Y-12.420 E10.77899
G1 X-51.847 Y-12.615 E10.81384
G1 X-52.179 Y-12.892 E10.85019
G1 X-52.444 Y-13.232 E10.88655
G1 X-52.600 Y-13.535 E10.91517
G1 X-52.719 Y-13.933 E10.95019
G1 X-52.755 Y-14.317 E10.98266
G1 X-52.719 Y-14.702 E11.01517
G1 X-52.599 Y-15.100 E11.05018
G1 X-52.393 Y-15.480 E11.08653
G1 X-52.163 Y-15.758 E11.11695
G1 X-52.183 Y-16.242 F12000.000
G1 F6000.000 E5.71695
G1 Z4.350 F12000.000
G92 E0
G1 X-48.312 Y-11.397 F12000.000
G1 Z0.350 F12000.000
G1 E5.50000 F6000.000
G1 X-47.939 Y-11.638 E5.53735 F900
G1 X-47.690 Y-11.754 E5.56054
G1 X-47.429 Y-11.844 E5.58373
G1 X-47.161 Y-11.906 E5.60692
G1 X-46.887 Y-11.939 E5.63011
G1 X-46.441 Y-11.932 E5.66770
G1 X-46.202 Y-11.897 E5.68802
G1 X-45.931 Y-11.829 E5.71152
G1 X-45.671 Y-11.734 E5.73486
G1 X-45.422 Y-11.611 E5.75820
G1 X-45.188 Y-11.463 E5.78154
G1 X-44.970 Y-11.292 E5.80489
G1 X-44.661 Y-10.969 E5.84250
G1 X-44.515 Y-10.771 E5.86321
G1 X-44.374 Y-10.532 E5.88656
G1 X-44.259 Y-10.280 E5.90990
G1 X-44.171 Y-10.017 E5.93324
G1 X-44.112 Y-9.746 E5.95658
G1 X-44.081 Y-9.471 E5.97993
G1 X-44.093 Y-9.024 E6.01754
G1 X-44.132 Y-8.781 E6.03825
G1 X-44.202 Y-8.513 E6.06160
G1 X-44.301 Y-8.254 E6.08494
G1 X-44.426 Y-8.006 E6.10828
G1 X-44.681 Y-7.639 E6.14590
G1 X-44.871 Y-7.434 E6.16942
G1 X-45.078 Y-7.252 E6.19266
G1 X-45.305 Y-7.093 E6.21596
G1 X-45.546 Y-6.958 E6.23927
G1 X-45.801 Y-6.849 E6.26258
G1 X-46.033 Y-6.776 E6.28304
G1 X-46.475 Y-6.698 E6.32083
G1 X-46.752 Y-6.689 E6.34413
G1 X-47.028 Y-6.708 E6.36745
G1 X-47.299 Y-6.756 E6.39063
G1 X-47.536 Y-6.824 E6.41138
G1 X-47.946 Y-7.000 E6.44897
G1 X-48.183 Y-7.144 E6.47230
G1 X-48.404 Y-7.311 E6.49563
G1 X-48.606 Y-7.501 E6.51896
G1 X-48.767 Y-7.687 E6.53966
G1 X-49.013 Y-8.059 E6.57724
G1 X-49.133 Y-8.309 E6.60057
G1 X-49.225 Y-8.570 E6.62390
G1 X-49.290 Y-8.840 E6.64722
G1 X-49.323 Y-9.084 E6.66793
G1 X-49.325 Y-9.530 E6.70552
G1 X-49.288 Y-9.805 E6.72884
G1 X-49.222 Y-10.074 E6.75217
G1 X-49.129 Y-10.335 E6.77550
G1 X-49.023 Y-10.556 E6.79619
G1 X-48.780 Y-10.931 E6.83378
G1 X-48.598 Y-11.141 E6.85711
G1 X-48.380 Y-11.343 E6.88219
G1 X-48.024 Y-10.886 F12000.000
G1 X-47.667 Y-11.127 E6.91843 F900
G1 X-47.354 Y-11.261 E6.94714
G1 X-46.952 Y-11.352 E6.98179
G1 X-46.522 Y-11.359 E7.01799
G1 X-46.098 Y-11.275 E7.05437
G1 X-45.783 Y-11.148 E7.08301
G1 X-45.432 Y-10.924 E7.11804
G1 X-45.124 Y-10.622 E7.15440
G1 X-44.885 Y-10.261 E7.19077
G1 X-44.754 Y-9.947 E7.21940
G1 X-44.667 Y-9.541 E7.25443
G1 X-44.666 Y-9.109 E7.29080
G1 X-44.755 Y-8.686 E7.32716
G1 X-44.886 Y-8.372 E7.35580
G1 X-45.114 Y-8.024 E7.39083
G1 X-45.351 Y-7.778 E7.41956
G1 X-45.703 Y-7.529 E7.45589
G1 X-46.082 Y-7.364 E7.49066
G1 X-46.415 Y-7.288 E7.51949
G1 X-46.847 Y-7.272 E7.55582
G1 X-47.255 Y-7.342 E7.59074
G1 X-47.574 Y-7.460 E7.61936
G1 X-47.944 Y-7.684 E7.65572
G1 X-48.248 Y-7.967 E7.69073
G1 X-48.450 Y-8.241 E7.71935
G1 X-48.637 Y-8.630 E7.75570
G1 X-48.738 Y-9.050 E7.79205
G1 X-48.749 Y-9.466 E7.82707
G1 X-48.697 Y-9.802 E7.85569
G1 X-48.551 Y-10.208 E7.89204
G1 X-48.324 Y-10.575 E7.92839
G1 X-48.089 Y-10.829 E7.95746
G1 X-48.084 Y-11.313 F12000.000
G1 X30.096 Y-6.538 F12000.000
G1 X30.181 Y-7.085 E8.00407 F900
G1 X30.279 Y-7.407 E8.03241
G1 X30.410 Y-7.718 E8.06075
G1 X30.572 Y-8.012 E8.08902
G1 X30.765 Y-8.289 E8.11747
G1 X30.986 Y-8.543 E8.14586
G1 X31.198 Y-8.743 E8.17034
G1 X31.645 Y-9.068 E8.21689
G1 X31.942 Y-9.225 E8.24514
G1 X32.254 Y-9.351 E8.27352
G1 X32.579 Y-9.444 E8.30192
G1 X32.911 Y-9.501 E8.33031
G1 X33.462 Y-9.519 E8.37676
G1 X33.752 Y-9.492 E8.40125
G1 X34.083 Y-9.426 E8.42963
G1 X34.405 Y-9.326 E8.45801
G1 X34.715 Y-9.193 E8.48641
G1 X35.009 Y-9.028 E8.51480
G1 X35.284 Y-8.833 E8.54318
G1 X35.685 Y-8.455 E8.58963
G1 X35.870 Y-8.230 E8.61412
G1 X36.056 Y-7.949 E8.64250
G1 X36.212 Y-7.650 E8.67089
G1 X36.336 Y-7.336 E8.69928
G1 X36.426 Y-7.011 E8.72765
G1 X36.481 Y-6.680 E8.75594
G1 X36.496 Y-6.125 E8.80270
G1 X36.458 Y-5.789 E8.83111
G1 X36.385 Y-5.460 E8.85955
G1 X36.278 Y-5.139 E8.88798
G1 X36.161 Y-4.877 E8.91219
G1 X35.868 Y-4.403 E8.95905
G1 X35.653 Y-4.143 E8.98754
G1 X35.410 Y-3.906 E9.01604
G1 X35.144 Y-3.697 E9.04454
G1 X34.898 Y-3.539 E9.06912
G1 X34.397 Y-3.305 E9.11574
G1 X34.073 Y-3.206 E9.14425
G1 X33.741 Y-3.141 E9.17274
G1 X33.403 Y-3.112 E9.20123
G1 X33.111 Y-3.115 E9.22582
G1 X32.563 Y-3.194 E9.27245
G1 X32.238 Y-3.289 E9.30094
G1 X31.925 Y-3.417 E9.32944
G1 X31.627 Y-3.578 E9.35794
G1 X31.347 Y-3.769 E9.38644
G1 X31.090 Y-3.988 E9.41493
G1 X30.887 Y-4.199 E9.43951
G1 X30.558 Y-4.644 E9.48615
G1 X30.397 Y-4.942 E9.51464
G1 X30.269 Y-5.255 E9.54313
G1 X30.174 Y-5.580 E9.57164
G1 X30.119 Y-5.869 E9.59635
G1 X30.090 Y-6.201 E9.62447
G1 X30.091 Y-6.452 E9.64553
G1 X30.668 Y-6.400 F12000.000
G1 X30.691 Y-6.673 E9.66864 F900
G1 X30.742 Y-6.945 E9.69190
G1 X30.822 Y-7.209 E9.71516
G1 X30.915 Y-7.433 E9.73557
G1 X31.139 Y-7.821 E9.77324
G1 X31.309 Y-8.039 E9.79653
G1 X31.501 Y-8.238 E9.81981
G1 X31.713 Y-8.416 E9.84309
G1 X31.942 Y-8.571 E9.86644
G1 X32.342 Y-8.766 E9.90387
G1 X32.574 Y-8.845 E9.92453
G1 X32.844 Y-8.907 E9.94781
G1 X33.119 Y-8.940 E9.97110
G1 X33.395 Y-8.944 E9.99438
G1 X33.671 Y-8.919 E10.01767
G1 X33.942 Y-8.865 E10.04095
G1 X34.363 Y-8.719 E10.07846
G1 X34.582 Y-8.609 E10.09913
G1 X34.816 Y-8.461 E10.12241
G1 X35.033 Y-8.289 E10.14570
G1 X35.230 Y-8.096 E10.16898
G1 X35.503 Y-7.743 E10.20649
G1 X35.626 Y-7.531 E10.22716
G1 X35.741 Y-7.279 E10.25044
G1 X35.829 Y-7.017 E10.27373
G1 X35.888 Y-6.746 E10.29708
G1 X35.923 Y-6.301 E10.33466
G1 X35.907 Y-6.024 E10.35798
G1 X35.862 Y-5.751 E10.38128
G1 X35.788 Y-5.485 E10.40459
G1 X35.701 Y-5.258 E10.42505
G1 X35.486 Y-4.864 E10.46281
G1 X35.320 Y-4.641 E10.48616
G1 X35.132 Y-4.437 E10.50953
G1 X34.924 Y-4.254 E10.53288
G1 X34.724 Y-4.111 E10.55361
G1 X34.329 Y-3.900 E10.59124
G1 X34.069 Y-3.805 E10.61460
G1 X33.800 Y-3.737 E10.63796
G1 X33.525 Y-3.698 E10.66132
G1 X33.279 Y-3.689 E10.68205
G1 X32.834 Y-3.729 E10.71968
G1 X32.564 Y-3.792 E10.74303
G1 X32.302 Y-3.883 E10.76639
G1 X32.051 Y-4.002 E10.78975
G1 X31.814 Y-4.146 E10.81310
G1 X31.593 Y-4.314 E10.83646
G1 X31.413 Y-4.482 E10.85718
G1 X31.129 Y-4.827 E10.89482
G1 X30.984 Y-5.064 E10.91819
G1 X30.865 Y-5.315 E10.94154
G1 X30.773 Y-5.576 E10.96490
G1 X30.715 Y-5.816 E10.98562
G1 X30.666 Y-6.313 E11.02771
G1 X31.245 Y-6.313 F12000.000
G1 X31.281 Y-6.699 E11.06035 F900
G1 X31.405 Y-7.112 E11.09662
G1 X31.604 Y-7.476 E11.13153
G1 X31.818 Y-7.739 E11.16012
G1 X32.135 Y-8.007 E11.19509
G1 X32.430 Y-8.176 E11.22367
G1 X32.838 Y-8.316 E11.25997
G1 X33.266 Y-8.367 E11.29628
G1 X33.696 Y-8.328 E11.33258
G1 X34.022 Y-8.234 E11.36117
G1 X34.394 Y-8.048 E11.39614
G1 X34.731 Y-7.780 E11.43244
G1 X34.953 Y-7.523 E11.46103
G1 X35.162 Y-7.164 E11.49600
G1 X35.298 Y-6.754 E11.53230
G1 X35.343 Y-6.416 E11.56101
G1 X35.318 Y-5.985 E11.59734
G1 X35.210 Y-5.587 E11.63211
G1 X35.063 Y-5.279 E11.66087
G1 X34.806 Y-4.931 E11.69725
G1 X34.495 Y-4.655 E11.73229
G1 X34.203 Y-4.479 E11.76094
G1 X33.798 Y-4.330 E11.79732
G1 X33.386 Y-4.269 E11.83236
G1 X33.046 Y-4.282 E11.86101
G1 X32.625 Y-4.380 E11.89739
G1 X32.233 Y-4.563 E11.93377
G1 X31.901 Y-4.814 E11.96881
G1 X31.672 Y-5.065 E11.99746
G1 X31.445 Y-5.433 E12.03384
G1 X31.305 Y-5.825 E12.06888
G1 X31.247 Y-6.226 E12.10299
G1 X30.913 Y-6.514 F12000.000
G1 F6000.000 E6.70299
G1 Z4.350 F12000.000
G92 E0
G1 X-26.498 Y-6.300 F12000.000
G1 Z0.350 F12000.000
G1 E5.50000 F6000.000
G1 X-26.517 Y-5.968 E5.52803 F900
G1 X-26.570 Y-5.639 E5.55607
G1 X-26.657 Y-5.319 E5.58393
G1 X-26.777 Y-5.009 E5.61197
G1 X-27.045 Y-4.526 E5.65845
G1 X-27.218 Y-4.292 E5.68301
G1 X-27.445 Y-4.041 E5.71146
G1 X-27.697 Y-3.816 E5.73992
G1 X-27.972 Y-3.618 E5.76839
G1 X-28.461 Y-3.361 E5.81495
G1 X-28.735 Y-3.260 E5.83951
G1 X-29.062 Y-3.175 E5.86797
G1 X-29.396 Y-3.125 E5.89643
G1 X-29.734 Y-3.110 E5.92489
G1 X-30.285 Y-3.163 E5.97146
G1 X-30.569 Y-3.228 E5.99601
G1 X-30.889 Y-3.336 E6.02448
G1 X-31.197 Y-3.478 E6.05294
G1 X-31.487 Y-3.650 E6.08139
G1 X-31.919 Y-3.997 E6.12797
G1 X-32.120 Y-4.207 E6.15252
G1 X-32.328 Y-4.472 E6.18083
G1 X-32.506 Y-4.755 E6.20900
G1 X-32.653 Y-5.055 E6.23716
G1 X-32.826 Y-5.578 E6.28348
G1 X-32.886 Y-5.907 E6.31165
G1 X-32.911 Y-6.231 E6.33900
G1 X-32.902 Y-6.575 E6.36798
