; generated by Slic3r 1.0.0RC2 on 2014-05-03 at 12:11:41

; layer_height = .2
; perimeters = 3
; top_solid_layers = 5
; bottom_solid_layers = 3
; fill_density = .3
; perimeter_speed = 30
; infill_speed = 30
; travel_speed = 200
; nozzle_diameter = 0.5
; filament_diameter = 1.75
; extrusion_multiplier = 1
; perimeters extrusion width = 0.45mm
; infill extrusion width = 0.45mm
; solid infill extrusion width = 0.45mm
; top infill extrusion width = 0.40mm
; first layer extrusion width = 0.60mm

G21 ; set units to millimeters
M107
G28
M104 S210,0
M190 S60
M109 S210,0
; BEGINNING OF HEAD MOVEMENT WARNING TONES
M120 S4 P10
G4 P40
M120 S4 P10
G4 P40
M120 S4 P10
G4 P40
M120 S4 P10
G4 P40
M120 S4 P10
G4 P40
M117 KEEP HANDS AWAY
G4 S3
; END OF HEAD WARNING TONES
G90 ; use absolute coordinates
G92 E0
M82 ; use absolute distances for extrusion
T0
G92 E0
G1 F6000.000 E-5.40000
G1 Z4.350 F12000.000
G92 E0
G1 X70.464 Y40.160 F12000.000
G1 Z0.350 F12000.000
G1 E5.50000 F6000.000
G1 X-70.946 Y40.160 E17.40462 F900
G1 X-72.026 Y40.020 E17.49630
G1 X-73.026 Y39.600 E17.58761
G1 X-73.886 Y38.940 E17.67887
G1 X-74.546 Y38.080 E17.77013
G1 X-74.966 Y37.080 E17.86144
G1 X-75.106 Y36.000 E17.95312
G1 X-75.106 Y-36.000 E24.01445
G1 X-74.966 Y-37.080 E24.10613
G1 X-74.546 Y-38.080 E24.19744
G1 X-73.886 Y-38.940 E24.28870
G1 X-73.026 Y-39.600 E24.37996
G1 X-72.026 Y-40.020 E24.47127
G1 X-70.946 Y-40.160 E24.56295
G1 X70.464 Y-40.160 E36.46757
G1 X71.544 Y-40.020 E36.55925
G1 X72.544 Y-39.600 E36.65056
G1 X73.404 Y-38.940 E36.74182
G1 X74.064 Y-38.080 E36.83308
G1 X74.484 Y-37.080 E36.92439
G1 X74.624 Y-36.000 E37.01607
G1 X74.624 Y36.000 E43.07740
G1 X74.484 Y37.080 E43.16908
G1 X74.064 Y38.080 E43.26039
G1 X73.404 Y38.940 E43.35165
G1 X72.544 Y39.600 E43.44292
G1 X71.544 Y40.020 E43.53422
G1 X70.550 Y40.149 E43.61860
G1 X70.464 Y39.580 F12000.000
G1 X-70.946 Y39.580 E55.52322 F900
G1 X-71.876 Y39.460 E55.60216
G1 X-72.736 Y39.100 E55.68065
G1 X-73.476 Y38.530 E55.75928
G1 X-74.046 Y37.790 E55.83792
G1 X-74.406 Y36.930 E55.91640
G1 X-74.526 Y36.000 E55.99534
G1 X-74.526 Y-36.000 E62.05667
G1 X-74.406 Y-36.930 E62.13561
G1 X-74.046 Y-37.790 E62.21410
G1 X-73.476 Y-38.530 E62.29274
G1 X-72.736 Y-39.100 E62.37137
G1 X-71.876 Y-39.460 E62.44986
G1 X-70.946 Y-39.580 E62.52880
G1 X70.464 Y-39.580 E74.43342
G1 X71.394 Y-39.460 E74.51236
G1 X72.254 Y-39.100 E74.59084
G1 X72.994 Y-38.530 E74.66948
G1 X73.564 Y-37.790 E74.74811
G1 X73.924 Y-36.930 E74.82660
G1 X74.044 Y-36.000 E74.90554
G1 X74.044 Y36.000 E80.96687
G1 X73.924 Y36.930 E81.04581
G1 X73.564 Y37.790 E81.12430
G1 X72.994 Y38.530 E81.20293
G1 X72.254 Y39.100 E81.28157
G1 X71.394 Y39.460 E81.36006
G1 X70.550 Y39.569 E81.43169
G1 F6000.000 E76.03169
G1 Z4.350 F12000.000
G92 E0
G1 X-43.964 Y-8.137 F12000.000
G1 Z0.350 F12000.000
G1 E5.50000 F6000.000
G1 X-44.105 Y-7.829 E5.52848 F900
G1 X-44.347 Y-7.438 E5.56726
G1 X-44.591 Y-7.140 E5.59964
G1 X-44.834 Y-6.903 E5.62822
G1 X-45.100 Y-6.695 E5.65665
G1 X-45.491 Y-6.459 E5.69514
G1 X-45.846 Y-6.304 E5.72769
G1 X-46.169 Y-6.205 E5.75612
G1 X-46.500 Y-6.141 E5.78455
G1 X-46.956 Y-6.110 E5.82304
G1 X-47.342 Y-6.134 E5.85561
G1 X-47.673 Y-6.193 E5.88387
G1 X-47.999 Y-6.287 E5.91242
G1 X-48.421 Y-6.470 E5.95116
G1 X-48.752 Y-6.666 E5.98353
G1 X-49.020 Y-6.871 E6.01198
G1 X-49.266 Y-7.103 E6.04044
G1 X-49.458 Y-7.323 E6.06498
G1 X-49.763 Y-7.784 E6.11153
G1 X-49.909 Y-8.089 E6.13999
G1 X-50.022 Y-8.408 E6.16845
G1 X-50.100 Y-8.736 E6.19689
G1 X-50.139 Y-9.025 E6.22144
G1 X-50.142 Y-9.578 E6.26800
G1 X-50.097 Y-9.913 E6.29644
G1 X-50.030 Y-10.197 E6.32098
G1 X-49.852 Y-10.671 E6.36363
G1 X-49.480 Y-11.400 E6.43254
G1 X-50.305 Y-11.174 E6.50454
G1 X-50.807 Y-11.113 E6.54711
G1 X-51.144 Y-11.116 E6.57551
G1 X-51.479 Y-11.154 E6.60391
G1 X-52.016 Y-11.294 E6.65060
G1 X-52.283 Y-11.402 E6.67487
G1 X-52.581 Y-11.558 E6.70317
G1 X-52.864 Y-11.747 E6.73183
G1 X-53.124 Y-11.963 E6.76028
G1 X-53.360 Y-12.205 E6.78874
G1 X-53.568 Y-12.471 E6.81719
G1 X-53.846 Y-12.949 E6.86376
G1 X-54.013 Y-13.379 E6.90251
G1 X-54.122 Y-13.873 E6.94517
G1 X-54.153 Y-14.317 E6.98262
G1 X-54.122 Y-14.763 E7.02021
G1 X-54.012 Y-15.257 E7.06286
G1 X-53.846 Y-15.686 E7.10161
G1 X-53.661 Y-16.024 E7.13398
G1 X-53.358 Y-16.430 E7.17663
G1 X-53.123 Y-16.672 E7.20509
G1 X-52.863 Y-16.888 E7.23355
G1 X-52.581 Y-17.076 E7.26202
G1 X-52.323 Y-17.213 E7.28667
G1 X-51.810 Y-17.406 E7.33280
G1 X-51.483 Y-17.479 E7.36096
G1 X-51.151 Y-17.518 E7.38910
G1 X-50.817 Y-17.522 E7.41726
G1 X-50.485 Y-17.491 E7.44527
G1 X-49.950 Y-17.365 E7.49156
G1 X-49.683 Y-17.265 E7.51560
G1 X-49.383 Y-17.118 E7.54375
G1 X-49.096 Y-16.937 E7.57227
G1 X-48.830 Y-16.727 E7.60081
G1 X-48.446 Y-16.326 E7.64751
G1 X-48.273 Y-16.091 E7.67213
G1 X-48.101 Y-15.798 E7.70069
G1 X-47.961 Y-15.490 E7.72923
G1 X-47.853 Y-15.168 E7.75778
G1 X-47.753 Y-14.623 E7.80447
G1 X-47.738 Y-14.330 E7.82910
G1 X-47.755 Y-13.992 E7.85765
G1 X-47.846 Y-13.492 E7.90044
G1 X-48.016 Y-13.012 E7.94324
G1 X-48.413 Y-12.251 E8.01549
G1 X-47.668 Y-12.442 E8.08018
G1 X-47.338 Y-12.500 E8.10844
G1 X-46.835 Y-12.522 E8.15079
G1 X-46.452 Y-12.486 E8.18316
G1 X-46.005 Y-12.383 E8.22177
G1 X-45.534 Y-12.197 E8.26445
G1 X-45.097 Y-11.938 E8.30715
G1 X-44.797 Y-11.698 E8.33954
G1 X-44.478 Y-11.365 E8.37832
G1 X-44.186 Y-10.951 E8.42101
G1 X-43.963 Y-10.495 E8.46370
G1 X-43.843 Y-10.130 E8.49609
G1 X-43.759 Y-9.677 E8.53487
G1 X-43.742 Y-9.170 E8.57756
G1 X-43.805 Y-8.667 E8.62025
G1 X-43.933 Y-8.218 E8.65955
G1 F6000.000 E3.25955
G1 Z4.350 F12000.000
G92 E0
G1 X-48.999 Y-12.551 F12000.000
G1 Z0.350 F12000.000
G1 E5.50000 F6000.000
G1 X-49.196 Y-12.355 E5.52339 F900
G1 X-49.413 Y-12.181 E5.54678
G1 X-49.800 Y-11.952 E5.58470
G1 X-50.023 Y-11.856 E5.60512
G1 X-50.287 Y-11.772 E5.62841
G1 X-50.558 Y-11.717 E5.65170
G1 X-50.833 Y-11.691 E5.67499
G1 X-51.110 Y-11.693 E5.69828
G1 X-51.385 Y-11.725 E5.72157
G1 X-51.819 Y-11.838 E5.75932
G1 X-52.044 Y-11.929 E5.77977
G1 X-52.288 Y-12.057 E5.80299
G1 X-52.520 Y-12.212 E5.82648
G1 X-52.733 Y-12.390 E5.84980
G1 X-52.926 Y-12.588 E5.87313
G1 X-53.097 Y-12.806 E5.89646
G1 X-53.322 Y-13.192 E5.93406
G1 X-53.416 Y-13.419 E5.95476
G1 X-53.497 Y-13.684 E5.97808
G1 X-53.549 Y-13.957 E6.00142
G1 X-53.573 Y-14.233 E6.02474
G1 X-53.567 Y-14.510 E6.04807
G1 X-53.532 Y-14.785 E6.07141
G1 X-53.416 Y-15.216 E6.10899
G1 X-53.308 Y-15.471 E6.13232
G1 X-53.189 Y-15.687 E6.15303
G1 X-52.925 Y-16.046 E6.19062
G1 X-52.732 Y-16.245 E6.21395
G1 X-52.519 Y-16.423 E6.23728
G1 X-52.289 Y-16.577 E6.26061
G1 X-52.071 Y-16.692 E6.28138
G1 X-51.656 Y-16.848 E6.31871
G1 X-51.388 Y-16.908 E6.34183
G1 X-51.115 Y-16.940 E6.36494
G1 X-50.840 Y-16.944 E6.38806
G1 X-50.568 Y-16.919 E6.41110
G1 X-50.135 Y-16.817 E6.44856
G1 X-49.909 Y-16.733 E6.46886
G1 X-49.663 Y-16.611 E6.49197
G1 X-49.428 Y-16.463 E6.51536
G1 X-49.210 Y-16.291 E6.53875
G1 X-49.011 Y-16.096 E6.56214
G1 X-48.834 Y-15.882 E6.58552
G1 X-48.599 Y-15.501 E6.62322
G1 X-48.498 Y-15.276 E6.64397
G1 X-48.411 Y-15.012 E6.66736
G1 X-48.352 Y-14.741 E6.69075
G1 X-48.321 Y-14.465 E6.71414
G1 X-48.334 Y-14.017 E6.75182
G1 X-48.374 Y-13.774 E6.77258
G1 X-48.445 Y-13.506 E6.79597
G1 X-48.545 Y-13.246 E6.81936
G1 X-48.671 Y-12.999 E6.84275
G1 X-48.942 Y-12.616 E6.88218
G1 X-49.368 Y-13.008 F12000.000
G1 X-49.665 Y-12.716 E6.91725 F900
G1 X-50.030 Y-12.483 E6.95367
G1 X-50.347 Y-12.356 E6.98246
G1 X-50.752 Y-12.276 E7.01721
G1 X-51.184 Y-12.281 E7.05352
G1 X-51.519 Y-12.349 E7.08232
G1 X-51.902 Y-12.504 E7.11708
G1 X-52.261 Y-12.745 E7.15350
G1 X-52.561 Y-13.055 E7.18986
G1 X-52.748 Y-13.339 E7.21848
G1 X-52.908 Y-13.723 E7.25350
G1 X-52.989 Y-14.147 E7.28984
G1 X-52.979 Y-14.579 E7.32620
G1 X-52.908 Y-14.911 E7.35482
G1 X-52.747 Y-15.295 E7.38984
G1 X-52.561 Y-15.580 E7.41846
G1 X-52.260 Y-15.890 E7.45482
G1 X-51.916 Y-16.123 E7.48983
G1 X-51.604 Y-16.258 E7.51844
G1 X-51.186 Y-16.353 E7.55456
G1 X-50.757 Y-16.358 E7.59065
G1 X-50.422 Y-16.299 E7.61928
G1 X-50.037 Y-16.155 E7.65387
G1 X-49.672 Y-15.924 E7.69024
G1 X-49.364 Y-15.621 E7.72666
G1 X-49.170 Y-15.341 E7.75534
G1 X-48.999 Y-14.961 E7.79040
G1 X-48.908 Y-14.538 E7.82682
G1 X-48.899 Y-14.197 E7.85549
G1 X-48.966 Y-13.786 E7.89056
G1 X-49.121 Y-13.382 E7.92697
G1 X-49.314 Y-13.076 E7.95746
G1 X-49.236 Y-12.613 F12000.000
G1 X-48.443 Y-11.477 F12000.000
G1 X-48.057 Y-11.699 E7.99498 F900
G1 X-47.801 Y-11.803 E8.01818
G1 X-47.537 Y-11.878 E8.04137
G1 X-47.265 Y-11.926 E8.06456
G1 X-46.990 Y-11.945 E8.08775
G1 X-46.545 Y-11.915 E8.12533
G1 X-46.306 Y-11.866 E8.14589
G1 X-46.041 Y-11.785 E8.16923
G1 X-45.786 Y-11.676 E8.19257
G1 X-45.544 Y-11.541 E8.21592
G1 X-45.317 Y-11.380 E8.23926
G1 X-45.109 Y-11.197 E8.26260
G1 X-44.817 Y-10.859 E8.30021
G1 X-44.682 Y-10.653 E8.32093
G1 X-44.554 Y-10.408 E8.34427
G1 X-44.453 Y-10.150 E8.36761
G1 X-44.379 Y-9.882 E8.39096
G1 X-44.333 Y-9.609 E8.41430
G1 X-44.317 Y-9.332 E8.43764
G1 X-44.353 Y-8.887 E8.47525
G1 X-44.412 Y-8.616 E8.49859
G1 X-44.500 Y-8.353 E8.52193
G1 X-44.616 Y-8.101 E8.54528
G1 X-44.740 Y-7.888 E8.56599
G1 X-45.013 Y-7.535 E8.60360
G1 X-45.213 Y-7.341 E8.62705
G1 X-45.430 Y-7.169 E8.65035
G1 X-45.664 Y-7.022 E8.67366
G1 X-45.913 Y-6.900 E8.69697
G1 X-46.173 Y-6.805 E8.72028
G1 X-46.408 Y-6.744 E8.74074
G1 X-46.854 Y-6.690 E8.77852
G1 X-47.131 Y-6.695 E8.80183
G1 X-47.406 Y-6.729 E8.82514
G1 X-47.675 Y-6.791 E8.84839
G1 X-47.907 Y-6.871 E8.86909
G1 X-48.308 Y-7.069 E8.90668
G1 X-48.537 Y-7.224 E8.93001
G1 X-48.748 Y-7.404 E8.95333
G1 X-48.940 Y-7.604 E8.97666
G1 X-49.091 Y-7.798 E8.99736
G1 X-49.317 Y-8.183 E9.03495
G1 X-49.423 Y-8.439 E9.05828
G1 X-49.502 Y-8.704 E9.08160
G1 X-49.552 Y-8.977 E9.10494
G1 X-49.572 Y-9.222 E9.12563
G1 X-49.551 Y-9.668 E9.16321
G1 X-49.500 Y-9.940 E9.18655
G1 X-49.420 Y-10.206 E9.20988
G1 X-49.313 Y-10.461 E9.23320
G1 X-49.195 Y-10.677 E9.25391
G1 X-48.933 Y-11.038 E9.29149
G1 X-48.740 Y-11.238 E9.31482
G1 X-48.514 Y-11.426 E9.33964
G1 X-48.180 Y-10.954 F12000.000
G1 X-47.812 Y-11.175 E9.37582 F900
G1 X-47.492 Y-11.293 E9.40453
G1 X-47.086 Y-11.362 E9.43919
G1 X-46.656 Y-11.346 E9.47539
G1 X-46.237 Y-11.240 E9.51181
G1 X-45.928 Y-11.097 E9.54045
G1 X-45.590 Y-10.855 E9.57548
G1 X-45.298 Y-10.536 E9.61184
G1 X-45.079 Y-10.164 E9.64821
G1 X-44.965 Y-9.844 E9.67684
G1 X-44.899 Y-9.433 E9.71187
G1 X-44.920 Y-9.001 E9.74824
G1 X-45.031 Y-8.584 E9.78460
G1 X-45.179 Y-8.277 E9.81324
G1 X-45.425 Y-7.942 E9.84827
G1 X-45.674 Y-7.709 E9.87699
G1 X-46.039 Y-7.478 E9.91332
G1 X-46.426 Y-7.334 E9.94809
G1 X-46.763 Y-7.275 E9.97692
G1 X-47.195 Y-7.282 E10.01325
G1 X-47.600 Y-7.374 E10.04818
G1 X-47.912 Y-7.509 E10.07680
G1 X-48.269 Y-7.751 E10.11315
G1 X-48.558 Y-8.051 E10.14817
G1 X-48.745 Y-8.334 E10.17679
G1 X-48.911 Y-8.733 E10.21314
G1 X-48.990 Y-9.158 E10.24949
G1 X-48.979 Y-9.573 E10.28450
G1 X-48.909 Y-9.906 E10.31312
G1 X-48.742 Y-10.304 E10.34947
G1 X-48.496 Y-10.659 E10.38582
G1 X-48.248 Y-10.900 E10.41492
G1 X-48.218 Y-11.382 F12000.000
G1 X29.855 Y-6.538 F12000.000
G1 X29.940 Y-7.085 E10.46153 F900
G1 X30.038 Y-7.407 E10.48987
G1 X30.169 Y-7.718 E10.51821
G1 X30.331 Y-8.012 E10.54648
G1 X30.524 Y-8.289 E10.57493
G1 X30.745 Y-8.543 E10.60332
G1 X30.957 Y-8.743 E10.62780
G1 X31.404 Y-9.068 E10.67435
G1 X31.701 Y-9.225 E10.70260
G1 X32.014 Y-9.351 E10.73098
G1 X32.338 Y-9.444 E10.75938
G1 X32.670 Y-9.501 E10.78777
G1 X33.222 Y-9.519 E10.83421
G1 X33.511 Y-9.492 E10.85870
G1 X33.842 Y-9.426 E10.88709
G1 X34.164 Y-9.326 E10.91547
G1 X34.474 Y-9.193 E10.94387
G1 X34.768 Y-9.028 E10.97226
G1 X35.043 Y-8.833 E11.00064
G1 X35.445 Y-8.455 E11.04709
G1 X35.629 Y-8.230 E11.07157
G1 X35.815 Y-7.949 E11.09996
G1 X35.971 Y-7.650 E11.12835
G1 X36.095 Y-7.336 E11.15674
G1 X36.185 Y-7.011 E11.18511
G1 X36.241 Y-6.680 E11.21340
G1 X36.256 Y-6.125 E11.26015
G1 X36.218 Y-5.789 E11.28857
G1 X36.145 Y-5.460 E11.31701
G1 X36.037 Y-5.139 E11.34544
G1 X35.920 Y-4.877 E11.36965
G1 X35.628 Y-4.403 E11.41651
G1 X35.412 Y-4.143 E11.44500
G1 X35.169 Y-3.906 E11.47350
G1 X34.904 Y-3.697 E11.50199
G1 X34.657 Y-3.539 E11.52658
G1 X34.156 Y-3.305 E11.57320
G1 X33.832 Y-3.206 E11.60171
G1 X33.500 Y-3.141 E11.63019
G1 X33.163 Y-3.112 E11.65869
G1 X32.871 Y-3.115 E11.68327
G1 X32.322 Y-3.194 E11.72990
G1 X31.997 Y-3.289 E11.75840
G1 X31.684 Y-3.417 E11.78689
G1 X31.386 Y-3.578 E11.81540
G1 X31.107 Y-3.769 E11.84390
G1 X30.849 Y-3.988 E11.87239
G1 X30.646 Y-4.199 E11.89697
G1 X30.318 Y-4.644 E11.94360
G1 X30.157 Y-4.942 E11.97210
G1 X30.028 Y-5.255 E12.00059
G1 X29.933 Y-5.580 E12.02910
G1 X29.879 Y-5.869 E12.05380
G1 X29.849 Y-6.201 E12.08193
G1 X29.850 Y-6.452 E12.10299
G1 X30.427 Y-6.400 F12000.000
G1 X30.450 Y-6.673 E12.12610 F900
G1 X30.502 Y-6.945 E12.14936
G1 X30.582 Y-7.209 E12.17261
G1 X30.675 Y-7.433 E12.19302
G1 X30.898 Y-7.821 E12.23070
G1 X31.068 Y-8.039 E12.25398
G1 X31.260 Y-8.238 E12.27727
G1 X31.472 Y-8.416 E12.30055
G1 X31.702 Y-8.571 E12.32389
G1 X32.101 Y-8.766 E12.36133
G1 X32.334 Y-8.845 E12.38199
G1 X32.603 Y-8.907 E12.40527
G1 X32.878 Y-8.940 E12.42856
G1 X33.154 Y-8.944 E12.45184
G1 X33.430 Y-8.919 E12.47513
G1 X33.701 Y-8.865 E12.49841
G1 X34.122 Y-8.719 E12.53592
G1 X34.342 Y-8.609 E12.55659
G1 X34.575 Y-8.461 E12.57987
G1 X34.792 Y-8.289 E12.60316
G1 X34.990 Y-8.096 E12.62644
G1 X35.262 Y-7.743 E12.66395
G1 X35.386 Y-7.531 E12.68462
G1 X35.500 Y-7.279 E12.70789
G1 X35.588 Y-7.017 E12.73118
G1 X35.648 Y-6.746 E12.75454
G1 X35.683 Y-6.301 E12.79212
G1 X35.666 Y-6.024 E12.81544
G1 X35.621 Y-5.751 E12.83874
G1 X35.548 Y-5.485 E12.86205
G1 X35.460 Y-5.258 E12.88251
G1 X35.245 Y-4.864 E12.92027
G1 X35.080 Y-4.641 E12.94362
G1 X34.892 Y-4.437 E12.96698
G1 X34.683 Y-4.254 E12.99034
G1 X34.483 Y-4.111 E13.01106
G1 X34.089 Y-3.900 E13.04870
G1 X33.828 Y-3.805 E13.07206
G1 X33.559 Y-3.737 E13.09541
G1 X33.284 Y-3.698 E13.11878
G1 X33.038 Y-3.689 E13.13951
G1 X32.593 Y-3.729 E13.17714
G1 X32.323 Y-3.792 E13.20049
G1 X32.061 Y-3.883 E13.22385
G1 X31.810 Y-4.002 E13.24721
G1 X31.573 Y-4.146 E13.27056
G1 X31.352 Y-4.314 E13.29392
G1 X31.172 Y-4.482 E13.31464
G1 X30.888 Y-4.827 E13.35228
G1 X30.743 Y-5.064 E13.37565
G1 X30.624 Y-5.315 E13.39900
G1 X30.532 Y-5.576 E13.42235
G1 X30.474 Y-5.816 E13.44308
G1 X30.426 Y-6.313 E13.48517
G1 X31.004 Y-6.313 F12000.000
G1 X31.040 Y-6.699 E13.51781 F900
G1 X31.164 Y-7.112 E13.55408
G1 X31.363 Y-7.476 E13.58899
G1 X31.577 Y-7.739 E13.61758
G1 X31.895 Y-8.007 E13.65255
G1 X32.189 Y-8.176 E13.68112
G1 X32.597 Y-8.316 E13.71743
G1 X33.025 Y-8.367 E13.75374
G1 X33.455 Y-8.328 E13.79004
G1 X33.781 Y-8.234 E13.81862
G1 X34.153 Y-8.048 E13.85360
G1 X34.491 Y-7.780 E13.88990
G1 X34.712 Y-7.523 E13.91849
G1 X34.921 Y-7.164 E13.95346
G1 X35.057 Y-6.754 E13.98976
G1 X35.102 Y-6.416 E14.01847
G1 X35.077 Y-5.985 E14.05480
G1 X34.970 Y-5.587 E14.08957
G1 X34.822 Y-5.279 E14.11833
G1 X34.565 Y-4.931 E14.15471
G1 X34.254 Y-4.655 E14.18975
G1 X33.962 Y-4.479 E14.21840
G1 X33.557 Y-4.330 E14.25478
G1 X33.145 Y-4.269 E14.28982
G1 X32.805 Y-4.282 E14.31847
G1 X32.384 Y-4.380 E14.35485
G1 X31.993 Y-4.563 E14.39123
G1 X31.660 Y-4.814 E14.42627
G1 X31.431 Y-5.065 E14.45492
G1 X31.205 Y-5.433 E14.49130
G1 X31.064 Y-5.825 E14.52634
G1 X31.007 Y-6.226 E14.56045
G1 X30.673 Y-6.514 F12000.000
G1 F6000.000 E9.16045
G1 Z4.350 F12000.000
G92 E0
G1 X-26.739 Y-6.300 F12000.000
G1 Z0.350 F12000.000
G1 E5.50000 F6000.000
G1 X-26.757 Y-5.968 E5.52803 F900
G1 X-26.811 Y-5.639 E5.55607
G1 X-26.897 Y-5.319 E5.58393
G1 X-27.017 Y-5.009 E5.61197
G1 X-27.286 Y-4.526 E5.65845
G1 X-27.459 Y-4.292 E5.68301
G1 X-27.686 Y-4.041 E5.71146
G1 X-27.938 Y-3.816 E5.73992
G1 X-28.212 Y-3.618 E5.76839
G1 X-28.702 Y-3.361 E5.81495
G1 X-28.976 Y-3.260 E5.83951
G1 X-29.303 Y-3.175 E5.86797
G1 X-29.637 Y-3.125 E5.89643
G1 X-29.975 Y-3.110 E5.92489
G1 X-30.526 Y-3.163 E5.97146
G1 X-30.810 Y-3.228 E5.99601
G1 X-31.130 Y-3.336 E6.02448
G1 X-31.437 Y-3.478 E6.05294
G1 X-31.728 Y-3.650 E6.08139
G1 X-32.159 Y-3.997 E6.12797
G1 X-32.361 Y-4.207 E6.15252
G1 X-32.569 Y-4.472 E6.18083
G1 X-32.747 Y-4.755 E6.20900
G1 X-32.894 Y-5.055 E6.23716
G1 X-33.067 Y-5.578 E6.28348
