; generated by Slic3r 1.0.0RC2 on 2014-05-03 at 19:38:51

; layer_height = .2
; perimeters = 3
; top_solid_layers = 5
; bottom_solid_layers = 3
; fill_density = .3
; perimeter_speed = 30
; infill_speed = 30
; travel_speed = 200
; nozzle_diameter = 0.5
; filament_diameter = 1.75
; extrusion_multiplier = 1
; perimeters extrusion width = 0.45mm
; infill extrusion width = 0.45mm
; solid infill extrusion width = 0.45mm
; top infill extrusion width = 0.40mm
; first layer extrusion width = 0.60mm

G21 ; set units to millimeters
M107
G28
M104 S210,0
M190 S60
M109 S210,0
; BEGINNING OF HEAD MOVEMENT WARNING TONES
M120 S4 P10
G4 P40
M120 S4 P10
G4 P40
M120 S4 P10
G4 P40
M120 S4 P10
G4 P40
M120 S4 P10
G4 P40
M117 KEEP HANDS AWAY
G4 S3
; END OF HEAD WARNING TONES
G90 ; use absolute coordinates
G92 E0
M82 ; use absolute distances for extrusion
T0
G92 E0
G1 F6000.000 E-5.40000
G1 Z4.350 F12000.000
G92 E0
G1 X-36.720 Y-60.600 F12000.000
G1 Z0.350 F12000.000
G1 E5.50000 F6000.000
G1 X-36.580 Y-61.680 E5.59168 F900
G1 X-36.160 Y-62.680 E5.68299
G1 X-35.500 Y-63.540 E5.77425
G1 X-34.640 Y-64.200 E5.86551
G1 X-33.640 Y-64.620 E5.95682
G1 X-32.560 Y-64.760 E6.04850
G1 X34.760 Y-64.760 E11.71585
G1 X35.840 Y-64.620 E11.80753
G1 X36.840 Y-64.200 E11.89884
G1 X37.700 Y-63.540 E11.99010
G1 X38.360 Y-62.680 E12.08136
G1 X38.780 Y-61.680 E12.17267
G1 X38.920 Y-60.600 E12.26435
G1 X38.920 Y11.400 E18.32568
G1 X38.780 Y12.480 E18.41736
G1 X38.360 Y13.480 E18.50867
G1 X37.700 Y14.340 E18.59993
G1 X36.840 Y15.000 E18.69119
G1 X35.840 Y15.420 E18.78250
G1 X34.760 Y15.560 E18.87418
G1 X-32.560 Y15.560 E24.54152
G1 X-33.640 Y15.420 E24.63320
G1 X-34.640 Y15.000 E24.72451
G1 X-35.500 Y14.340 E24.81577
G1 X-36.160 Y13.480 E24.90704
G1 X-36.580 Y12.480 E24.99835
G1 X-36.720 Y11.400 E25.09003
G1 X-36.720 Y-60.513 E31.14405
G1 X-36.140 Y-60.600 F12000.000
G1 X-36.020 Y-61.530 E31.22299 F900
G1 X-35.660 Y-62.390 E31.30148
G1 X-35.090 Y-63.130 E31.38011
G1 X-34.350 Y-63.700 E31.45875
G1 X-33.490 Y-64.060 E31.53723
G1 X-32.560 Y-64.180 E31.61618
G1 X34.760 Y-64.180 E37.28352
G1 X35.690 Y-64.060 E37.36246
G1 X36.550 Y-63.700 E37.44095
G1 X37.290 Y-63.130 E37.51958
G1 X37.860 Y-62.390 E37.59822
G1 X38.220 Y-61.530 E37.67670
G1 X38.340 Y-60.600 E37.75564
G1 X38.340 Y11.400 E43.81697
G1 X38.220 Y12.330 E43.89591
G1 X37.860 Y13.190 E43.97440
G1 X37.290 Y13.930 E44.05304
G1 X36.550 Y14.500 E44.13167
G1 X35.690 Y14.860 E44.21016
G1 X34.760 Y14.980 E44.28910
G1 X-32.560 Y14.980 E49.95644
G1 X-33.490 Y14.860 E50.03538
G1 X-34.350 Y14.500 E50.11387
G1 X-35.090 Y13.930 E50.19250
G1 X-35.660 Y13.190 E50.27114
G1 X-36.020 Y12.330 E50.34963
G1 X-36.140 Y11.400 E50.42857
G1 X-36.140 Y-60.513 E56.48259
G1 F6000.000 E51.08259
G1 Z4.350 F12000.000
G92 E0
G1 X7.946 Y-35.457 F12000.000
G1 Z0.350 F12000.000
G1 E5.50000 F6000.000
G1 X8.259 Y-35.923 E5.54727 F900
G1 X8.445 Y-36.137 E5.57115
G1 X8.692 Y-36.369 E5.59962
G1 X9.151 Y-36.691 E5.64689
G1 X9.402 Y-36.823 E5.67077
G1 X9.716 Y-36.950 E5.69924
G1 X10.042 Y-37.043 E5.72779
G1 X10.274 Y-37.087 E5.74767
G1 X10.537 Y-37.117 E5.76994
G1 X10.871 Y-37.122 E5.79809
G1 X11.369 Y-37.066 E5.84029
G1 X12.218 Y-36.848 E5.91407
G1 X11.806 Y-37.667 E5.99125
G1 X11.634 Y-38.203 E6.03864
G1 X11.582 Y-38.483 E6.06259
G1 X11.554 Y-38.821 E6.09114
G1 X11.562 Y-39.160 E6.11969
G1 X11.616 Y-39.550 E6.15285
G1 X11.736 Y-39.987 E6.19106
G1 X11.866 Y-40.301 E6.21962
G1 X12.029 Y-40.599 E6.24817
G1 X12.222 Y-40.878 E6.27673
G1 X12.443 Y-41.135 E6.30528
G1 X12.690 Y-41.367 E6.33384
G1 X12.961 Y-41.572 E6.36247
G1 X13.246 Y-41.744 E6.39045
G1 X13.546 Y-41.886 E6.41845
G1 X13.860 Y-41.996 E6.44645
G1 X14.184 Y-42.072 E6.47444
G1 X14.514 Y-42.115 E6.50243
G1 X15.081 Y-42.108 E6.55022
G1 X15.410 Y-42.058 E6.57822
G1 X15.732 Y-41.974 E6.60621
G1 X16.043 Y-41.857 E6.63421
G1 X16.343 Y-41.706 E6.66248
G1 X16.628 Y-41.524 E6.69092
G1 X16.851 Y-41.349 E6.71479
G1 X17.243 Y-40.948 E6.76201
G1 X17.444 Y-40.674 E6.79058
G1 X17.613 Y-40.383 E6.81890
G1 X17.808 Y-39.916 E6.86155
G1 X17.927 Y-39.423 E6.90420
G1 X17.968 Y-38.918 E6.94687
G1 X17.928 Y-38.413 E6.98951
G1 X17.809 Y-37.921 E7.03217
G1 X17.614 Y-37.453 E7.07482
G1 X17.348 Y-37.022 E7.11748
G1 X17.017 Y-36.638 E7.16013
G1 X16.630 Y-36.311 E7.20278
G1 X16.199 Y-36.050 E7.24521
G1 X15.731 Y-35.860 E7.28772
G1 X15.336 Y-35.762 E7.32200
G1 X14.904 Y-35.713 E7.35860
G1 X14.399 Y-35.730 E7.40111
G1 X14.067 Y-35.786 E7.42946
G1 X13.300 Y-35.981 E7.49607
G1 X13.694 Y-35.213 E7.56872
G1 X13.814 Y-34.897 E7.59716
G1 X13.900 Y-34.570 E7.62560
G1 X13.951 Y-34.237 E7.65404
G1 X13.967 Y-33.923 E7.68044
G1 X13.948 Y-33.562 E7.71093
G1 X13.892 Y-33.228 E7.73938
G1 X13.803 Y-32.903 E7.76782
G1 X13.679 Y-32.588 E7.79627
G1 X13.523 Y-32.288 E7.82472
G1 X13.266 Y-31.916 E7.86278
G1 X13.003 Y-31.625 E7.89581
G1 X12.750 Y-31.402 E7.92425
G1 X12.474 Y-31.206 E7.95270
G1 X12.179 Y-31.041 E7.98115
G1 X11.709 Y-30.853 E8.02379
G1 X11.212 Y-30.742 E8.06665
G1 X10.707 Y-30.710 E8.10923
G1 X10.204 Y-30.758 E8.15180
G1 X9.714 Y-30.885 E8.19439
G1 X9.251 Y-31.087 E8.23696
G1 X8.825 Y-31.359 E8.27953
G1 X8.446 Y-31.695 E8.32215
G1 X8.125 Y-32.087 E8.36479
G1 X7.870 Y-32.525 E8.40748
G1 X7.687 Y-32.998 E8.45017
G1 X7.580 Y-33.494 E8.49286
G1 X7.554 Y-34.000 E8.53554
G1 X7.607 Y-34.505 E8.57823
G1 X7.739 Y-34.994 E8.62093
G1 X7.907 Y-35.380 E8.65631
G1 X12.442 Y-37.679 F12000.000
G1 X12.339 Y-37.894 E8.67639 F900
G1 X12.244 Y-38.155 E8.69979
G1 X12.178 Y-38.425 E8.72319
G1 X12.140 Y-38.700 E8.74658
G1 X12.143 Y-39.156 E8.78497
G1 X12.175 Y-39.393 E8.80504
G1 X12.239 Y-39.663 E8.82844
G1 X12.332 Y-39.925 E8.85184
G1 X12.452 Y-40.176 E8.87524
G1 X12.705 Y-40.555 E8.91362
G1 X12.861 Y-40.735 E8.93370
G1 X13.064 Y-40.925 E8.95710
G1 X13.286 Y-41.094 E8.98054
G1 X13.519 Y-41.235 E9.00349
G1 X13.945 Y-41.416 E9.04246
G1 X14.424 Y-41.524 E9.08378
G1 X14.886 Y-41.543 E9.12275
G1 X15.158 Y-41.515 E9.14571
G1 X15.425 Y-41.460 E9.16867
G1 X15.685 Y-41.378 E9.19163
G1 X15.935 Y-41.269 E9.21456
G1 X16.176 Y-41.132 E9.23793
G1 X16.370 Y-40.994 E9.25795
G1 X16.704 Y-40.686 E9.29621
G1 X16.880 Y-40.472 E9.31953
G1 X17.031 Y-40.240 E9.34284
G1 X17.158 Y-39.994 E9.36617
G1 X17.258 Y-39.736 E9.38949
G1 X17.361 Y-39.293 E9.42775
G1 X17.385 Y-39.056 E9.44776
G1 X17.385 Y-38.779 E9.47109
G1 X17.356 Y-38.504 E9.49441
G1 X17.298 Y-38.233 E9.51774
G1 X17.212 Y-37.970 E9.54106
G1 X17.099 Y-37.717 E9.56438
G1 X16.857 Y-37.332 E9.60264
G1 X16.705 Y-37.149 E9.62266
G1 X16.508 Y-36.954 E9.64598
G1 X16.292 Y-36.781 E9.66931
G1 X16.061 Y-36.633 E9.69245
G1 X15.814 Y-36.509 E9.71570
G1 X15.555 Y-36.411 E9.73895
G1 X15.097 Y-36.311 E9.77842
G1 X14.601 Y-36.293 E9.82023
G1 X14.327 Y-36.324 E9.84348
G1 X14.057 Y-36.384 E9.86672
G1 X13.795 Y-36.472 E9.88997
G1 X13.538 Y-36.590 E9.91377
G1 X13.155 Y-36.836 E9.95215
G1 X12.972 Y-36.990 E9.97223
G1 X12.779 Y-37.189 E9.99563
G1 X12.608 Y-37.408 E10.01902
G1 X12.484 Y-37.603 E10.03844
G1 X12.966 Y-37.926 F12000.000
G1 X12.797 Y-38.324 E10.07487 F900
G1 X12.726 Y-38.666 E10.10424
G1 X12.716 Y-39.074 E10.13864
G1 X12.795 Y-39.500 E10.17507
G1 X12.922 Y-39.825 E10.20444
G1 X13.138 Y-40.171 E10.23885
G1 X13.438 Y-40.484 E10.27528
G1 X13.734 Y-40.691 E10.30573
G1 X14.085 Y-40.853 E10.33828
G1 X14.499 Y-40.950 E10.37409
G1 X14.857 Y-40.965 E10.40423
G1 X15.278 Y-40.901 E10.44004
G1 X15.676 Y-40.751 E10.47582
G1 X16.020 Y-40.533 E10.51016
G1 X16.276 Y-40.297 E10.53945
G1 X16.531 Y-39.949 E10.57579
G1 X16.708 Y-39.555 E10.61213
G1 X16.788 Y-39.217 E10.64141
G1 X16.807 Y-38.809 E10.67574
G1 X16.739 Y-38.383 E10.71208
G1 X16.584 Y-37.981 E10.74842
G1 X16.399 Y-37.686 E10.77771
G1 X16.123 Y-37.386 E10.81203
G1 X15.774 Y-37.135 E10.84820
G1 X15.380 Y-36.963 E10.88442
G1 X15.025 Y-36.885 E10.91495
G1 X14.635 Y-36.871 E10.94783
G1 X14.211 Y-36.942 E10.98405
G1 X13.881 Y-37.065 E11.01368
G1 X13.531 Y-37.276 E11.04814
G1 X13.214 Y-37.571 E11.08457
G1 X13.009 Y-37.851 E11.11372
G1 X12.534 Y-37.949 F12000.000
G1 X11.834 Y-36.316 F12000.000
G1 X12.078 Y-36.191 E11.13680 F900
G1 X12.308 Y-36.041 E11.15988
G1 X12.687 Y-35.705 E11.20255
G1 X12.966 Y-35.346 E11.24080
G1 X13.104 Y-35.106 E11.26412
G1 X13.216 Y-34.853 E11.28744
G1 X13.301 Y-34.589 E11.31076
G1 X13.351 Y-34.357 E11.33077
G1 X13.388 Y-33.896 E11.36968
G1 X13.373 Y-33.628 E11.39234
G1 X13.328 Y-33.354 E11.41566
G1 X13.254 Y-33.087 E11.43897
G1 X13.169 Y-32.865 E11.45899
G1 X12.952 Y-32.466 E11.49724
G1 X12.787 Y-32.243 E11.52056
G1 X12.600 Y-32.039 E11.54388
G1 X12.392 Y-31.856 E11.56720
G1 X12.199 Y-31.717 E11.58722
G1 X11.799 Y-31.502 E11.62546
G1 X11.539 Y-31.406 E11.64878
G1 X11.266 Y-31.337 E11.67246
G1 X10.773 Y-31.289 E11.71421
G1 X10.305 Y-31.328 E11.75373
G1 X10.035 Y-31.390 E11.77701
G1 X9.774 Y-31.480 E11.80029
G1 X9.523 Y-31.597 E11.82357
G1 X9.286 Y-31.740 E11.84686
G1 X8.903 Y-32.057 E11.88871
G1 X8.601 Y-32.417 E11.92832
G1 X8.455 Y-32.653 E11.95167
G1 X8.335 Y-32.903 E11.97501
G1 X8.241 Y-33.164 E11.99835
G1 X8.176 Y-33.434 E12.02169
G1 X8.132 Y-33.886 E12.05997
G1 X8.139 Y-34.124 E12.08000
G1 X8.176 Y-34.399 E12.10334
G1 X8.241 Y-34.668 E12.12668
G1 X8.334 Y-34.929 E12.15002
G1 X8.454 Y-35.179 E12.17336
G1 X8.600 Y-35.415 E12.19670
G1 X8.891 Y-35.765 E12.23499
G1 X9.065 Y-35.927 E12.25502
G1 X9.286 Y-36.094 E12.27836
G1 X9.524 Y-36.237 E12.30170
G1 X9.775 Y-36.354 E12.32504
G1 X10.225 Y-36.490 E12.36460
G1 X10.715 Y-36.545 E12.40611
G1 X10.989 Y-36.536 E12.42919
G1 X11.260 Y-36.498 E12.45227
G1 X11.526 Y-36.431 E12.47535
G1 X11.754 Y-36.350 E12.49573
G1 X11.560 Y-35.804 F12000.000
G1 X11.878 Y-35.635 E12.52603 F900
G1 X12.207 Y-35.369 E12.56168
G1 X12.466 Y-35.054 E12.59601
G1 X12.634 Y-34.749 E12.62529
G1 X12.766 Y-34.338 E12.66162
G1 X12.810 Y-33.934 E12.69584
G1 X12.783 Y-33.586 E12.72523
G1 X12.669 Y-33.170 E12.76157
G1 X12.470 Y-32.787 E12.79790
G1 X12.213 Y-32.471 E12.83222
G1 X11.947 Y-32.246 E12.86151
G1 X11.571 Y-32.034 E12.89784
G1 X11.156 Y-31.906 E12.93445
G1 X10.767 Y-31.867 E12.96733
G1 X10.405 Y-31.898 E12.99790
G1 X9.991 Y-32.017 E13.03417
G1 X9.611 Y-32.219 E13.07044
G1 X9.310 Y-32.469 E13.10335
G1 X9.076 Y-32.747 E13.13398
G1 X8.869 Y-33.126 E13.17034
G1 X8.745 Y-33.540 E13.20670
G1 X8.711 Y-33.886 E13.23601
G1 X8.745 Y-34.293 E13.27035
G1 X8.868 Y-34.707 E13.30671
G1 X9.076 Y-35.086 E13.34307
G1 X9.298 Y-35.354 E13.37238
G1 X9.611 Y-35.615 E13.40672
G1 X9.992 Y-35.818 E13.44308
G1 X10.340 Y-35.923 E13.47363
G1 X10.725 Y-35.967 E13.50631
G1 X11.085 Y-35.941 E13.53662
G1 X11.479 Y-35.836 E13.57100
G1 X11.851 Y-36.016 F12000.000
G1 F6000.000 E8.17100
G1 Z4.350 F12000.000
G92 E0
G1 X-3.152 Y-31.782 F12000.000
G1 Z0.350 F12000.000
G1 E5.50000 F6000.000
G1 X-3.048 Y-31.224 E5.54783 F900
G1 X-3.033 Y-30.891 E5.57586
G1 X-3.053 Y-30.559 E5.60387
G1 X-3.107 Y-30.231 E5.63189
G1 X-3.195 Y-29.910 E5.65991
G1 X-3.316 Y-29.599 E5.68795
G1 X-3.467 Y-29.305 E5.71581
G1 X-3.648 Y-29.027 E5.74373
G1 X-3.864 Y-28.762 E5.77253
G1 X-4.277 Y-28.381 E5.81977
G1 X-4.508 Y-28.218 E5.84363
G1 X-4.802 Y-28.050 E5.87208
G1 X-5.111 Y-27.915 E5.90054
G1 X-5.434 Y-27.813 E5.92900
G1 X-5.765 Y-27.745 E5.95746
G1 X-6.101 Y-27.713 E5.98591
G1 X-6.662 Y-27.738 E6.03315
G1 X-6.941 Y-27.787 E6.05701
G1 X-7.266 Y-27.878 E6.08546
G1 X-7.581 Y-28.003 E6.11393
G1 X-7.880 Y-28.160 E6.14238
G1 X-8.335 Y-28.489 E6.18961
G1 X-8.541 Y-28.683 E6.21348
G1 X-8.764 Y-28.938 E6.24193
G1 X-8.958 Y-29.214 E6.27039
G1 X-9.119 Y-29.504 E6.29832
G1 X-9.322 Y-30.031 E6.34584
G1 X-9.397 Y-30.353 E6.37367
G1 X-9.439 Y-30.681 E6.40150
G1 X-9.446 Y-31.011 E6.42934
G1 X-9.425 Y-31.291 E6.45293
G1 X-9.312 Y-31.840 E6.50011
G1 X-9.198 Y-32.157 E6.52853
G1 X-9.051 Y-32.462 E6.55696
G1 X-8.874 Y-32.748 E6.58534
G1 X-8.666 Y-33.015 E6.61378
G1 X-8.264 Y-33.404 E6.66095
G1 X-8.037 Y-33.574 E6.68479
G1 X-7.748 Y-33.748 E6.71321
G1 X-7.442 Y-33.891 E6.74164
G1 X-7.122 Y-34.001 E6.77005
G1 X-6.793 Y-34.076 E6.79847
G1 X-6.458 Y-34.117 E6.82690
G1 X-5.898 Y-34.105 E6.87407
G1 X-5.618 Y-34.064 E6.89791
G1 X-5.291 Y-33.981 E6.92633
G1 X-4.974 Y-33.864 E6.95475
G1 X-4.671 Y-33.714 E6.98318
G1 X-4.208 Y-33.398 E7.03036
G1 X-3.997 Y-33.210 E7.05419
G1 X-3.769 Y-32.961 E7.08261
G1 X-3.567 Y-32.690 E7.11104
G1 X-3.396 Y-32.399 E7.13945
G1 X-3.258 Y-32.098 E7.16738
G1 X-3.177 Y-31.866 E7.18809
G1 X-3.732 Y-31.704 F12000.000
G1 X-3.664 Y-31.440 E7.21107 F900
G1 X-3.624 Y-31.170 E7.23405
G1 X-3.623 Y-30.679 E7.27540
G1 X-3.705 Y-30.223 E7.31439
G1 X-3.790 Y-29.963 E7.33738
G1 X-3.902 Y-29.715 E7.36028
G1 X-4.039 Y-29.479 E7.38326
G1 X-4.203 Y-29.255 E7.40663
G1 X-4.520 Y-28.930 E7.44489
G1 X-4.707 Y-28.782 E7.46492
G1 X-4.940 Y-28.632 E7.48824
G1 X-5.187 Y-28.508 E7.51157
G1 X-5.447 Y-28.411 E7.53490
G1 X-5.715 Y-28.341 E7.55822
G1 X-5.989 Y-28.300 E7.58155
G1 X-6.444 Y-28.297 E7.61981
G1 X-6.680 Y-28.325 E7.63984
G1 X-6.950 Y-28.386 E7.66316
G1 X-7.213 Y-28.475 E7.68649
G1 X-7.464 Y-28.591 E7.70981
G1 X-7.846 Y-28.837 E7.74808
G1 X-8.028 Y-28.990 E7.76810
G1 X-8.221 Y-29.189 E7.79143
G1 X-8.392 Y-29.407 E7.81475
G1 X-8.540 Y-29.643 E7.83820
G1 X-8.725 Y-30.060 E7.87658
G1 X-8.800 Y-30.321 E7.89941
G1 X-8.848 Y-30.588 E7.92225
G1 X-8.868 Y-30.858 E7.94508
G1 X-8.860 Y-31.129 E7.96789
G1 X-8.823 Y-31.404 E7.99124
G1 X-8.768 Y-31.635 E8.01124
G1 X-8.608 Y-32.060 E8.04946
G1 X-8.474 Y-32.303 E8.07283
G1 X-8.316 Y-32.529 E8.09605
G1 X-8.008 Y-32.862 E8.13427
G1 X-7.825 Y-33.014 E8.15427
G1 X-7.596 Y-33.169 E8.17758
G1 X-7.351 Y-33.299 E8.20088
G1 X-7.095 Y-33.403 E8.22418
G1 X-6.829 Y-33.479 E8.24748
G1 X-6.556 Y-33.527 E8.27078
G1 X-6.102 Y-33.542 E8.30900
G1 X-5.866 Y-33.519 E8.32900
G1 X-5.594 Y-33.465 E8.35231
G1 X-5.330 Y-33.383 E8.37561
G1 X-5.076 Y-33.274 E8.39891
G1 X-4.834 Y-33.138 E8.42221
G1 X-4.608 Y-32.978 E8.44551
G1 X-4.278 Y-32.666 E8.48374
G1 X-4.128 Y-32.482 E8.50374
G1 X-3.975 Y-32.252 E8.52703
G1 X-3.847 Y-32.005 E8.55046
G1 X-3.760 Y-31.786 E8.57027
G1 X-4.297 Y-31.570 F12000.000
G1 X-4.213 Y-31.221 E8.60043 F900
G1 X-4.194 Y-30.796 E8.63627
G1 X-4.263 Y-30.376 E8.67210
G1 X-4.417 Y-29.980 E8.70791
G1 X-4.600 Y-29.687 E8.73698
G1 X-4.876 Y-29.386 E8.77135
G1 X-5.227 Y-29.135 E8.80769
G1 X-5.543 Y-28.989 E8.83698
G1 X-5.938 Y-28.889 E8.87132
G1 X-6.370 Y-28.871 E8.90766
G1 X-6.714 Y-28.923 E8.93695
G1 X-7.099 Y-29.056 E8.97128
G1 X-7.470 Y-29.277 E9.00762
G1 X-7.730 Y-29.509 E9.03692
G1 X-7.979 Y-29.831 E9.07125
G1 X-8.164 Y-30.211 E9.10678
G1 X-8.258 Y-30.554 E9.13674
G1 X-8.289 Y-30.976 E9.17237
G1 X-8.232 Y-31.402 E9.20851
G1 X-8.096 Y-31.786 E9.24281
G1 X-7.923 Y-32.087 E9.27207
G1 X-7.641 Y-32.414 E9.30838
G1 X-7.297 Y-32.674 E9.34470
G1 X-6.985 Y-32.827 E9.37396
G1 X-6.593 Y-32.937 E9.40826
G1 X-6.162 Y-32.966 E9.44458
G1 X-5.817 Y-32.923 E9.47384
G1 X-5.429 Y-32.800 E9.50815
G1 X-5.053 Y-32.588 E9.54446
G1 X-4.729 Y-32.303 E9.58077
G1 X-4.473 Y-31.956 E9.61708
G1 X-4.326 Y-31.651 E9.64555
G1 X-3.947 Y-31.490 F12000.000
G1 F6000.000 E4.24555
G1 Z4.350 F12000.000
G92 E0
G1 X-18.870 Y-30.255 F12000.000
G1 Z0.350 F12000.000
G1 E5.50000 F6000.000
G1 X-18.853 Y-29.930 E5.52738 F900
G1 X-18.868 Y-29.604 E5.55489
G1 X-18.973 Y-29.049 E5.60246
G1 X-19.062 Y-28.779 E5.62639
G1 X-19.199 Y-28.468 E5.65494
G1 X-19.367 Y-28.174 E5.68348
G1 X-19.566 Y-27.900 E5.71201
G1 X-19.957 Y-27.495 E5.75938
G1 X-20.180 Y-27.319 E5.78332
G1 X-20.465 Y-27.135 E5.81186
G1 X-20.767 Y-26.982 E5.84040
G1 X-21.084 Y-26.862 E5.86894
G1 X-21.633 Y-26.739 E5.91630
G1 X-21.917 Y-26.713 E5.94025
G1 X-22.256 Y-26.716 E5.96879
G1 X-22.592 Y-26.754 E5.99733
G1 X-22.923 Y-26.828 E6.02586
G1 X-23.450 Y-27.027 E6.07324
G1 X-23.701 Y-27.161 E6.09718
G1 X-23.982 Y-27.350 E6.12572
G1 X-24.243 Y-27.567 E6.15426
G1 X-24.478 Y-27.810 E6.18279
G1 X-24.809 Y-28.266 E6.23017
G1 X-24.945 Y-28.515 E6.25410
G1 X-25.077 Y-28.828 E6.28264
G1 X-25.175 Y-29.154 E6.31132
G1 X-25.237 Y-29.478 E6.33909
G1 X-25.265 Y-29.808 E6.36703
G1 X-25.259 Y-30.140 E6.39497
G1 X-25.170 Y-30.700 E6.44267
G1 X-25.075 Y-31.012 E6.47012
G1 X-24.941 Y-31.326 E6.49888
G1 X-24.776 Y-31.622 E6.52741
G1 X-24.615 Y-31.856 E6.55133
G1 X-24.237 Y-32.273 E6.59869
