; generated by Slic3r 1.0.0RC2 on 2014-06-14 at 14:42:00

; layer_height = .2
; perimeters = 2
; top_solid_layers = 2
; bottom_solid_layers = 1
; fill_density = 0.15
; perimeter_speed = 30
; infill_speed = 30
; travel_speed = 200
; nozzle_diameter = 0.5
; filament_diameter = 1.75
; extrusion_multiplier = 1
; perimeters extrusion width = 0.45mm
; infill extrusion width = 0.45mm
; solid infill extrusion width = 0.45mm
; top infill extrusion width = 0.40mm
; support material extrusion width = 0.45mm
; first layer extrusion width = 0.60mm

G21 ; set units to millimeters
M107
G28
M104 S235,0
M190 S60
M109 S235,0
; BEGINNING OF HEAD MOVEMENT WARNING TONES
M120 S4 P10
G4 P40
M120 S4 P10
G4 P40
M120 S4 P10
G4 P40
M120 S4 P10
G4 P40
M120 S4 P10
G4 P40
M117 KEEP HANDS AWAY
G4 S3
; END OF HEAD WARNING TONES
G90 ; use absolute coordinates
G92 E0
M82 ; use absolute distances for extrusion
T0
G92 E0
G1 F6000.000 E-6.00000
G1 Z4.400 F12000.000
G92 E0
G1 X21.510 Y-20.871 F12000.000
G1 Z0.400 F12000.000
G1 E6.10000 F6000.000
G1 X21.490 Y-20.421 E6.13451 F900
G1 X17.160 Y16.959 E9.01771
G1 X16.860 Y18.049 E9.10433
G1 X16.270 Y19.019 E9.19132
G1 X15.430 Y19.779 E9.27811
G1 X14.410 Y20.259 E9.36449
G1 X13.290 Y20.429 E9.45128
G1 X-8.200 Y20.599 E11.09789
G1 X-14.750 Y20.509 E11.59980
G1 X-15.750 Y20.369 E11.67717
G1 X-16.670 Y19.979 E11.75373
G1 X-17.470 Y19.369 E11.83081
G1 X-18.080 Y18.579 E11.90728
G1 X-18.470 Y17.649 E11.98455
G1 X-18.620 Y16.659 E12.06127
G1 X-19.310 Y-20.801 E14.93193
G1 X-19.310 Y-45.871 E16.85279
G1 X-19.180 Y-46.881 E16.93082
G1 X-18.790 Y-47.831 E17.00950
G1 X-18.160 Y-48.641 E17.08812
G1 X-17.350 Y-49.271 E17.16675
G1 X-16.400 Y-49.661 E17.24543
G1 X-15.390 Y-49.791 E17.32345
G1 X17.590 Y-49.791 E19.85037
G1 X18.600 Y-49.661 E19.92840
G1 X19.550 Y-49.271 E20.00708
G1 X20.360 Y-48.641 E20.08570
G1 X20.990 Y-47.831 E20.16433
G1 X21.380 Y-46.881 E20.24301
G1 X21.510 Y-45.871 E20.32104
G1 X21.510 Y-20.940 E22.23123
G1 X21.050 Y-20.871 F12000.000
G1 X21.030 Y-20.471 E22.26192 F900
G1 X16.700 Y16.909 E25.14512
G1 X16.440 Y17.869 E25.22132
G1 X15.920 Y18.719 E25.29767
G1 X15.180 Y19.389 E25.37416
G1 X14.270 Y19.819 E25.45127
G1 X13.290 Y19.969 E25.52723
G1 X-8.200 Y20.139 E27.17384
G1 X-14.750 Y20.049 E27.67575
G1 X-15.790 Y19.869 E27.75662
G1 X-16.740 Y19.389 E27.83817
G1 X-17.490 Y18.639 E27.91944
G1 X-17.980 Y17.699 E28.00066
G1 X-18.160 Y16.649 E28.08228
G1 X-18.850 Y-20.811 E30.95294
G1 X-18.850 Y-45.871 E32.87304
G1 X-18.680 Y-46.941 E32.95605
G1 X-18.190 Y-47.901 E33.03863
G1 X-17.420 Y-48.671 E33.12206
G1 X-16.460 Y-49.161 E33.20465
G1 X-15.390 Y-49.331 E33.28766
G1 X17.590 Y-49.331 E35.81458
G1 X18.660 Y-49.161 E35.89759
G1 X19.620 Y-48.671 E35.98017
G1 X20.390 Y-47.901 E36.06360
G1 X20.880 Y-46.941 E36.14619
G1 X21.050 Y-45.871 E36.22920
G1 X21.050 Y-20.940 E38.13940
G1 F6000.000 E32.13940
G1 Z4.600 F12000.000
G92 E0
G1 X17.365 Y-20.878 F12000.000
G1 Z0.600 F12000.000
G1 E6.10000 F6000.000
G1 X13.068 Y16.284 E9.15384 F1800
G1 X6.004 Y16.284 E9.73044
G1 X7.826 Y-21.090 E12.78500
G1 X5.900 Y-21.090 E12.94228
G1 X1.578 Y16.284 E16.01355
G1 X-5.490 Y16.284 E16.59053
G1 X-4.434 Y-21.090 E19.64269
G1 X-5.599 Y-21.090 E19.73780
G1 X-8.430 Y16.454 E22.81128
G1 X-14.473 Y16.373 E23.30459
G1 X-15.165 Y-20.867 E26.34516
G1 X-15.165 Y-45.640 E28.36744
G1 X17.365 Y-45.640 E31.02295
G1 X17.365 Y-20.947 E33.03870
G1 X16.950 Y-20.679 F12000.000
G1 F6000.000 E27.03870
G1 Z4.600 F12000.000
G92 E0
G1 X-14.020 Y15.919 F12000.000
G1 Z0.600 F12000.000
G1 E6.10000 F6000.000
G1 X-14.704 Y-20.871 E9.10379 F1800
G1 X-14.704 Y-45.179 E11.08810
G1 X16.904 Y-45.179 E13.66839
G1 X16.904 Y-20.905 E15.65001
G1 X12.657 Y15.823 E18.66817
G1 X6.488 Y15.823 E19.17176
G1 X8.310 Y-21.551 E22.22632
G1 X5.489 Y-21.551 E22.45661
G1 X1.167 Y15.823 E25.52787
G1 X-5.016 Y15.823 E26.03266
G1 X-3.960 Y-21.551 E29.08481
G1 X-6.026 Y-21.551 E29.25350
G1 X-8.857 Y15.987 E32.32651
G1 X-13.951 Y15.920 E32.74240
G1 X-9.782 Y15.669 F12000.000
G1 X-9.088 Y14.974 E32.82253 F1800
G1 X-9.024 Y14.126 E32.89198
G1 X-10.556 Y15.658 E33.06885
G1 X-11.330 Y15.648 E33.13205
G1 X-8.960 Y13.278 E33.40568
G1 X-8.896 Y12.429 E33.47513
G1 X-12.104 Y15.638 E33.84552
G1 X-12.878 Y15.627 E33.90871
G1 X-8.832 Y11.581 E34.37585
G1 X-8.768 Y10.733 E34.44530
G1 X-13.652 Y15.617 E35.00919
G1 X-13.733 Y14.913 E35.06704
G1 X-8.704 Y9.884 E35.64759
G1 X-8.640 Y9.036 E35.71704
G1 X-13.747 Y14.143 E36.30664
G1 X-13.761 Y13.373 E36.36951
G1 X-8.576 Y8.188 E36.96815
G1 X-8.512 Y7.339 E37.03760
G1 X-13.776 Y12.603 E37.64527
G1 X-13.790 Y11.833 E37.70815
G1 X-8.448 Y6.491 E38.32486
G1 X-8.384 Y5.643 E38.39431
G1 X-13.804 Y11.063 E39.02006
G1 X-13.819 Y10.293 E39.08293
G1 X-8.320 Y4.794 E39.71772
G1 X-8.256 Y3.946 E39.78717
G1 X-13.833 Y9.523 E40.43101
G1 X-13.847 Y8.753 E40.49388
G1 X-8.192 Y3.098 E41.14675
G1 X-8.128 Y2.249 E41.21620
G1 X-13.862 Y7.983 E41.87811
G1 X-13.876 Y7.213 E41.94098
G1 X-8.064 Y1.401 E42.61192
G1 X-8.000 Y0.553 E42.68137
G1 X-13.890 Y6.443 E43.36136
G1 X-13.905 Y5.673 E43.42423
G1 X-7.936 Y-0.296 E44.11326
G1 X-7.872 Y-1.144 E44.18271
G1 X-13.919 Y4.903 E44.88077
G1 X-13.933 Y4.133 E44.94364
G1 X-7.808 Y-1.992 E45.65075
G1 X-7.744 Y-2.841 E45.72020
G1 X-13.947 Y3.362 E46.43634
G1 X-13.962 Y2.592 E46.49921
G1 X-7.680 Y-3.689 E47.22439
G1 X-7.616 Y-4.537 E47.29384
G1 X-13.976 Y1.822 E48.02806
G1 X-13.990 Y1.052 E48.09094
G1 X-7.552 Y-5.386 E48.83419
G1 X-7.488 Y-6.234 E48.90364
G1 X-14.005 Y0.282 E49.65594
G1 X-14.019 Y-0.488 E49.71881
G1 X-7.424 Y-7.082 E50.48015
G1 X-7.360 Y-7.931 E50.54960
G1 X-14.033 Y-1.258 E51.31998
G1 X-14.048 Y-2.028 E51.38285
G1 X-7.296 Y-8.779 E52.16226
G1 X-7.232 Y-9.628 E52.23171
G1 X-14.062 Y-2.798 E53.02017
G1 X-14.076 Y-3.568 E53.08304
G1 X-7.168 Y-10.476 E53.88053
G1 X-7.104 Y-11.324 E53.94998
G1 X-14.091 Y-4.338 E54.75652
G1 X-14.105 Y-5.108 E54.81939
G1 X-7.040 Y-12.173 E55.63496
G1 X-6.976 Y-13.021 E55.70441
G1 X-14.119 Y-5.878 E56.52902
G1 X-14.134 Y-6.648 E56.59189
G1 X-6.912 Y-13.869 E57.42554
G1 X-6.848 Y-14.718 E57.49499
G1 X-14.148 Y-7.418 E58.33768
G1 X-14.162 Y-8.188 E58.40055
G1 X-6.784 Y-15.566 E59.25227
G1 X-6.721 Y-16.414 E59.32172
G1 X-14.177 Y-8.958 E60.18249
G1 X-14.191 Y-9.728 E60.24536
G1 X-6.657 Y-17.263 E61.11517
G1 X-6.593 Y-18.111 E61.18462
G1 X-14.205 Y-10.498 E62.06346
G1 X-14.219 Y-11.268 E62.12633
G1 X-6.529 Y-18.959 E63.01422
G1 X-6.465 Y-19.808 E63.08366
G1 X-14.234 Y-12.038 E63.98059
G1 X-14.248 Y-12.809 E64.04346
G1 X-6.401 Y-20.656 E64.94942
G1 X-6.337 Y-21.504 E65.01887
G1 X-14.262 Y-13.579 E65.93387
G1 X-14.277 Y-14.349 E65.99674
G1 X16.248 Y-44.873 E69.52065
G1 X16.598 Y-44.439 E69.56618
G1 X-5.984 Y-21.857 E72.17318
G1 X-5.200 Y-21.857 E72.23721
G1 X16.598 Y-43.655 E74.75366
G1 X16.598 Y-42.870 E74.81769
G1 X-4.415 Y-21.857 E77.24359
G1 X-3.645 Y-21.843 E77.30648
G1 X16.598 Y-42.086 E79.64345
G1 X16.598 Y-41.302 E79.70748
G1 X-3.668 Y-21.036 E82.04708
G1 X-3.691 Y-20.229 E82.11300
G1 X16.598 Y-40.517 E84.45523
G1 X16.598 Y-39.733 E84.51926
G1 X-3.713 Y-19.421 E86.86413
G1 X-3.736 Y-18.614 E86.93005
G1 X16.598 Y-38.948 E89.27756
G1 X16.598 Y-38.164 E89.34159
G1 X-3.759 Y-17.807 E91.69173
G1 X-3.782 Y-17.000 E91.75765
G1 X16.598 Y-37.380 E94.11042
G1 X16.598 Y-36.595 E94.17445
G1 X-3.805 Y-16.193 E96.52987
G1 X-3.828 Y-15.385 E96.59578
G1 X16.598 Y-35.811 E98.95383
G1 X16.598 Y-35.027 E99.01786
G1 X-3.850 Y-14.578 E101.37854
G1 X-3.873 Y-13.771 E101.44446
G1 X16.598 Y-34.242 E103.80778
G1 X16.598 Y-33.458 E103.87181
G1 X-3.896 Y-12.964 E106.23776
G1 X-3.919 Y-12.157 E106.30368
G1 X5.142 Y-21.218 E107.34974
G1 X5.040 Y-20.331 F12000.000
G1 X-3.942 Y-11.350 E108.38659 F1800
G1 X-3.964 Y-10.542 E108.45251
G1 X4.937 Y-19.444 E109.48015
G1 X4.834 Y-18.557 E109.55304
G1 X-3.987 Y-9.735 E110.57148
G1 X-4.010 Y-8.928 E110.63740
G1 X4.732 Y-17.670 E111.64664
G1 X4.629 Y-16.783 E111.71952
G1 X-4.033 Y-8.121 E112.71955
G1 X-4.056 Y-7.314 E112.78547
G1 X4.527 Y-15.896 E113.77630
G1 X4.424 Y-15.009 E113.84918
G1 X-4.079 Y-6.506 E114.83080
G1 X-4.101 Y-5.699 E114.89672
G1 X4.322 Y-14.122 E115.86914
G1 X4.219 Y-13.235 E115.94202
G1 X-4.124 Y-4.892 E116.90523
G1 X-4.147 Y-4.085 E116.97115
G1 X4.117 Y-12.348 E117.92515
G1 X4.014 Y-11.462 E117.99804
G1 X-4.170 Y-3.278 E118.94284
G1 X-4.193 Y-2.470 E119.00876
G1 X3.911 Y-10.575 E119.94435
G1 X3.809 Y-9.688 E120.01724
G1 X-4.216 Y-1.663 E120.94362
G1 X-4.238 Y-0.856 E121.00954
G1 X3.706 Y-8.801 E121.92673
G1 X3.604 Y-7.914 E121.99961
G1 X-4.261 Y-0.049 E122.90759
G1 X-4.284 Y0.758 E122.97351
G1 X3.501 Y-7.027 E123.87228
G1 X3.399 Y-6.140 E123.94517
G1 X-4.307 Y1.566 E124.83473
G1 X-4.330 Y2.373 E124.90065
G1 X3.296 Y-5.253 E125.78102
G1 X3.193 Y-4.366 E125.85390
G1 X-4.353 Y3.180 E126.72506
G1 X-4.375 Y3.987 E126.79098
G1 X3.091 Y-3.479 E127.65293
G1 X2.988 Y-2.592 E127.72581
G1 X-4.398 Y4.794 E128.57856
G1 X-4.421 Y5.601 E128.64448
G1 X2.886 Y-1.705 E129.48802
G1 X2.783 Y-0.818 E129.56091
G1 X-4.444 Y6.409 E130.39524
G1 X-4.467 Y7.216 E130.46116
G1 X2.681 Y0.068 E131.28629
G1 X2.578 Y0.955 E131.35918
G1 X-4.489 Y8.023 E132.17510
G1 X-4.512 Y8.830 E132.24102
G1 X2.476 Y1.842 E133.04774
G1 X2.373 Y2.729 E133.12062
G1 X-4.535 Y9.637 E133.91814
G1 X-4.558 Y10.445 E133.98406
G1 X2.270 Y3.616 E134.77237
G1 X2.168 Y4.503 E134.84525
G1 X-4.581 Y11.252 E135.62436
G1 X-4.604 Y12.059 E135.69028
G1 X2.065 Y5.390 E136.46018
G1 X1.963 Y6.277 E136.53306
G1 X-4.626 Y12.866 E137.29375
G1 X-4.649 Y13.673 E137.35967
G1 X1.860 Y7.164 E138.11116
G1 X1.758 Y8.051 E138.18405
G1 X-4.672 Y14.481 E138.92633
G1 X-4.695 Y15.288 F12000.000
G1 X1.655 Y8.938 E139.65941 F1800
G1 X1.553 Y9.825 E139.73229
G1 X-4.140 Y15.517 E140.38945
G1 X-3.355 Y15.517 E140.45348
G1 X1.450 Y10.712 E141.00824
G1 X1.347 Y11.599 E141.08112
G1 X-2.571 Y15.517 E141.53349
G1 X-1.787 Y15.517 E141.59752
G1 X1.245 Y12.485 E141.94750
G1 X1.142 Y13.372 E142.02039
G1 X-1.002 Y15.517 E142.26797
G1 X-0.218 Y15.517 E142.33200
G1 X1.040 Y14.259 E142.47720
G1 X0.937 Y15.146 E142.55008
G1 X0.566 Y15.517 E142.59289
G1 F6000.000 E136.59289
G1 Z4.600 F12000.000
G92 E0
G1 X12.391 Y15.458 F12000.000
G1 Z0.600 F12000.000
G1 E6.10000 F6000.000
G1 X12.332 Y15.517 E6.10685 F1800
G1 X11.547 Y15.517 E6.17088
G1 X12.494 Y14.571 E6.28011
G1 X12.596 Y13.684 E6.35300
G1 X10.763 Y15.517 E6.56463
G1 X9.979 Y15.517 E6.62866
G1 X12.699 Y12.797 E6.94268
G1 X12.801 Y11.910 E7.01556
G1 X9.194 Y15.517 E7.43198
G1 X8.410 Y15.517 E7.49601
G1 X12.904 Y11.023 E8.01481
G1 X13.006 Y10.136 E8.08770
G1 X7.626 Y15.517 E8.70889
G1 X6.841 Y15.517 E8.77292
G1 X13.109 Y9.249 E9.49651
G1 X13.212 Y8.362 E9.56940
G1 X6.848 Y14.726 E10.30402
G1 X6.888 Y13.901 E10.37141
G1 X13.314 Y7.475 E11.11323
G1 X13.417 Y6.588 E11.18611
G1 X6.929 Y13.076 E11.93514
G1 X6.969 Y12.252 E12.00253
G1 X13.519 Y5.702 E12.75875
G1 X13.622 Y4.815 E12.83163
G1 X7.009 Y11.427 E13.59505
G1 X7.049 Y10.603 E13.66244
G1 X13.724 Y3.928 E14.43307
G1 X13.827 Y3.041 E14.50595
G1 X7.089 Y9.778 E15.28377
G1 X7.130 Y8.954 E15.35116
G1 X13.930 Y2.154 E16.13619
G1 X14.032 Y1.267 E16.20907
G1 X7.170 Y8.129 E17.00129
G1 X7.210 Y7.305 E17.06868
G1 X14.135 Y0.380 E17.86810
G1 X14.237 Y-0.507 E17.94099
G1 X7.250 Y6.480 E18.74761
G1 X7.290 Y5.655 E18.81500
G1 X14.340 Y-1.394 E19.62882
G1 X14.442 Y-2.281 E19.70171
G1 X7.331 Y4.831 E20.52273
G1 X7.371 Y4.006 E20.59012
G1 X14.545 Y-3.168 E21.41835
G1 X14.647 Y-4.055 E21.49123
G1 X7.411 Y3.182 E22.32665
G1 X7.451 Y2.357 E22.39404
G1 X14.750 Y-4.942 E23.23667
G1 X14.853 Y-5.829 E23.30955
G1 X7.491 Y1.533 E24.15937
G1 X7.532 Y0.708 E24.22676
G1 X14.955 Y-6.715 E25.08379
G1 X15.058 Y-7.602 E25.15667
G1 X7.572 Y-0.116 E26.02089
G1 X7.612 Y-0.941 E26.08829
G1 X15.160 Y-8.489 E26.95971
G1 X15.263 Y-9.376 E27.03259
G1 X7.652 Y-1.766 E27.91122
G1 X7.692 Y-2.590 E27.97861
G1 X15.365 Y-10.263 E28.86443
G1 X15.468 Y-11.150 E28.93732
G1 X7.733 Y-3.415 E29.83034
G1 X7.773 Y-4.239 E29.89773
G1 X15.571 Y-12.037 E30.79795
G1 X15.673 Y-12.924 E30.87084
G1 X7.813 Y-5.064 E31.77826
G1 X7.853 Y-5.888 E31.84565
G1 X15.776 Y-13.811 E32.76028
G1 X15.878 Y-14.698 E32.83316
G1 X7.893 Y-6.713 E33.75499
G1 X7.934 Y-7.537 E33.82238
G1 X15.981 Y-15.585 E34.75140
G1 X16.083 Y-16.472 E34.82429
G1 X7.974 Y-8.362 E35.76051
G1 X8.014 Y-9.187 E35.82790
G1 X16.186 Y-17.359 E36.77133
G1 X16.288 Y-18.245 E36.84421
G1 X8.054 Y-10.011 E37.79483
G1 X8.094 Y-10.836 E37.86223
G1 X16.391 Y-19.132 E38.82005
G1 X16.494 Y-20.019 E38.89294
G1 X8.134 Y-11.660 E39.85796
G1 X8.175 Y-12.485 E39.92535
G1 X16.596 Y-20.906 E40.89758
G1 X16.598 Y-21.692 E40.96176
G1 X8.215 Y-13.309 E41.92955
G1 X8.255 Y-14.134 E41.99694
G1 X16.598 Y-22.477 E42.96010
G1 X16.598 Y-23.261 E43.02413
G1 X8.295 Y-14.958 E43.98265
G1 X8.335 Y-15.783 E44.05004
G1 X16.598 Y-24.046 E45.00391
G1 X16.598 Y-24.830 E45.06794
G1 X8.376 Y-16.608 E46.01718
G1 X8.416 Y-17.432 E46.08457
G1 X16.598 Y-25.614 E47.02917
G1 X16.598 Y-26.399 E47.09320
G1 X8.456 Y-18.257 E48.03315
G1 X8.496 Y-19.081 E48.10054
G1 X16.598 Y-27.183 E49.03586
G1 X16.598 Y-27.967 E49.09989
G1 X8.536 Y-19.906 E50.03056
G1 X8.577 Y-20.730 E50.09796
G1 X16.598 Y-28.752 E51.02399
G1 X16.598 Y-29.536 E51.08802
G1 X8.617 Y-21.555 E52.00942
G1 X8.135 Y-21.857 E52.05587
G1 X16.598 Y-30.320 E53.03294
G1 X16.598 Y-31.105 E53.09697
G1 X7.350 Y-21.857 E54.16459
G1 X6.566 Y-21.857 E54.22862
G1 X16.598 Y-31.889 E55.38680
G1 X16.598 Y-32.674 E55.45083
G1 X5.781 Y-21.857 E56.69955
G1 F6000.000 E50.69955
G1 Z4.600 F12000.000
G92 E0
G1 X-14.377 Y-19.739 F12000.000
G1 Z0.600 F12000.000
G1 E6.10000 F6000.000
G1 X10.757 Y-44.873 E9.00162 F1800
G1 X11.541 Y-44.873 E9.06565
G1 X-14.363 Y-18.969 E12.05616
G1 X-14.348 Y-18.199 E12.11904
G1 X12.326 Y-44.873 E15.19845
G1 X13.110 Y-44.873 E15.26248
G1 X-14.334 Y-17.429 E18.43080
G1 X-14.320 Y-16.659 E18.49367
G1 X13.895 Y-44.873 E21.75088
G1 X14.679 Y-44.873 E21.81491
G1 X-14.305 Y-15.889 E25.16103
G1 X-14.291 Y-15.119 E25.22390
G1 X15.463 Y-44.873 E28.65891
G1 X9.973 Y-44.873 F12000.000
G1 X-14.391 Y-20.509 E31.47163 F1800
G1 X-14.398 Y-21.287 E31.53511
G1 X9.188 Y-44.873 E34.25806
G1 X8.404 Y-44.873 E34.32209
G1 X-14.398 Y-22.071 E36.95449
G1 X-14.398 Y-22.855 E37.01852
G1 X7.620 Y-44.873 E39.56036
G1 X6.835 Y-44.873 E39.62439
G1 X-14.398 Y-23.640 E42.07569
G1 X-14.398 Y-24.424 E42.13972
G1 X6.051 Y-44.873 E44.50046
G1 X5.267 Y-44.873 E44.56449
G1 X-14.398 Y-25.208 E46.83468
G1 X-14.398 Y-25.993 E46.89871
G1 X4.482 Y-44.873 E49.07835
G1 X3.698 Y-44.873 E49.14238
G1 X-14.398 Y-26.777 E51.23147
G1 X-14.398 Y-27.562 E51.29550
G1 X2.913 Y-44.873 E53.29404
G1 X2.129 Y-44.873 E53.35807
G1 X-14.398 Y-28.346 E55.26606
G1 X-14.398 Y-29.130 E55.33009
G1 X1.345 Y-44.873 E57.14752
G1 X0.560 Y-44.873 E57.21155
G1 X-14.398 Y-29.915 E58.93843
G1 X-14.398 Y-30.699 E59.00246
G1 X-0.224 Y-44.873 E60.63879
G1 X-1.008 Y-44.873 E60.70282
G1 X-14.398 Y-31.483 E62.24860
G1 X-14.398 Y-32.268 E62.31263
G1 X-1.793 Y-44.873 E63.76786
G1 X-2.577 Y-44.873 E63.83189
G1 X-14.398 Y-33.052 E65.19657
G1 X-14.398 Y-33.836 E65.26060
G1 X-3.361 Y-44.873 E66.53472
G1 X-4.146 Y-44.873 E66.59875
G1 X-14.398 Y-34.621 E67.78233
G1 X-14.398 Y-35.405 E67.84636
G1 X-4.930 Y-44.873 E68.93938
G1 X-5.715 Y-44.873 E69.00341
G1 X-14.398 Y-36.190 E70.00588
G1 X-14.398 Y-36.974 E70.06991
G1 X-6.499 Y-44.873 E70.98183
G1 X-7.283 Y-44.873 E71.04586
G1 X-14.398 Y-37.758 E71.86722
G1 X-14.398 Y-38.543 E71.93125
G1 X-8.068 Y-44.873 E72.66207
G1 X-8.852 Y-44.873 E72.72610
G1 X-14.398 Y-39.327 E73.36636
G1 X-14.398 Y-40.111 E73.43039
G1 X-9.636 Y-44.873 E73.98010
G1 X-10.421 Y-44.873 E74.04413
G1 X-14.398 Y-40.896 E74.50329
G1 X-14.398 Y-41.680 E74.56732
G1 X-11.205 Y-44.873 E74.93593
G1 X-11.989 Y-44.873 E74.99996
G1 X-14.398 Y-42.464 E75.27802
G1 X-14.398 Y-43.249 E75.34205
G1 X-12.774 Y-44.873 E75.52956
G1 X-13.558 Y-44.873 E75.59359
G1 X-14.398 Y-44.033 E75.69054
G1 X-14.398 Y-44.818 E75.75457
G1 X-14.343 Y-44.873 E75.76097
M106 S204
G1 F6000.000 E69.76097
G1 Z4.800 F12000.000
G92 E0
G1 X-15.165 Y-45.640 F12000.000
G1 Z0.800 F12000.000
G1 E6.10000 F6000.000
G1 X17.365 Y-45.640 E7.34622 F1800
