; generated by Slic3r 1.0.0RC2 on 2014-06-13 at 18:11:27

; layer_height = .2
; perimeters = 2
; top_solid_layers = 2
; bottom_solid_layers = 1
; fill_density = 0.15
; perimeter_speed = 30
; infill_speed = 30
; travel_speed = 200
; nozzle_diameter = 0.5
; filament_diameter = 1.75
; extrusion_multiplier = 1
; perimeters extrusion width = 0.45mm
; infill extrusion width = 0.45mm
; solid infill extrusion width = 0.45mm
; top infill extrusion width = 0.40mm
; first layer extrusion width = 0.60mm

G21 ; set units to millimeters
M107
G28
M104 S235,0
M190 S60
M109 S235,0
; BEGINNING OF HEAD MOVEMENT WARNING TONES
M120 S4 P10
G4 P40
M120 S4 P10
G4 P40
M120 S4 P10
G4 P40
M120 S4 P10
G4 P40
M120 S4 P10
G4 P40
M117 KEEP HANDS AWAY
G4 S3
; END OF HEAD WARNING TONES
G90 ; use absolute coordinates
G92 E0
M82 ; use absolute distances for extrusion
T0
G92 E0
G1 F6000.000 E-6.00000
G1 Z4.400 F12000.000
G92 E0
G1 X-23.900 Y-23.760 F12000.000
G1 Z0.400 F12000.000
G1 E6.10000 F6000.000
G1 X26.100 Y-23.760 E10.91058 F900
G1 X27.180 Y-23.620 E11.01536
G1 X28.180 Y-23.200 E11.11971
G1 X29.040 Y-22.540 E11.22401
G1 X29.700 Y-21.680 E11.32831
G1 X30.120 Y-20.680 E11.43266
G1 X30.260 Y-19.600 E11.53744
G1 X30.260 Y-9.600 E12.49955
G1 X30.120 Y-8.520 E12.60433
G1 X29.700 Y-7.520 E12.70869
G1 X29.040 Y-6.660 E12.81299
G1 X28.180 Y-6.000 E12.91729
G1 X27.180 Y-5.580 E13.02164
G1 X26.100 Y-5.440 E13.12642
G1 X-23.900 Y-5.440 E17.93699
G1 X-24.980 Y-5.580 E18.04177
G1 X-25.980 Y-6.000 E18.14612
G1 X-26.840 Y-6.660 E18.25042
G1 X-27.500 Y-7.520 E18.35472
G1 X-27.920 Y-8.520 E18.45908
G1 X-28.060 Y-9.600 E18.56386
G1 X-28.060 Y-19.600 E19.52597
G1 X-27.920 Y-20.680 E19.63075
G1 X-27.500 Y-21.680 E19.73510
G1 X-26.840 Y-22.540 E19.83940
G1 X-25.980 Y-23.200 E19.94370
G1 X-24.980 Y-23.620 E20.04805
G1 X-23.986 Y-23.749 E20.14448
G1 X-23.900 Y-23.180 F12000.000
G1 X26.100 Y-23.180 E24.95506 F900
G1 X27.030 Y-23.060 E25.04528
G1 X27.890 Y-22.700 E25.13498
G1 X28.630 Y-22.130 E25.22485
G1 X29.200 Y-21.390 E25.31472
G1 X29.560 Y-20.530 E25.40442
G1 X29.680 Y-19.600 E25.49463
G1 X29.680 Y-9.600 E26.45675
G1 X29.560 Y-8.670 E26.54697
G1 X29.200 Y-7.810 E26.63667
G1 X28.630 Y-7.070 E26.72654
G1 X27.890 Y-6.500 E26.81640
G1 X27.030 Y-6.140 E26.90610
G1 X26.100 Y-6.020 E26.99632
G1 X-23.900 Y-6.020 E31.80690
G1 X-24.830 Y-6.140 E31.89712
G1 X-25.690 Y-6.500 E31.98682
G1 X-26.430 Y-7.070 E32.07669
G1 X-27.000 Y-7.810 E32.16656
G1 X-27.360 Y-8.670 E32.25625
G1 X-27.480 Y-9.600 E32.34647
G1 X-27.480 Y-19.600 E33.30859
G1 X-27.360 Y-20.530 E33.39881
G1 X-27.000 Y-21.390 E33.48851
G1 X-26.430 Y-22.130 E33.57838
G1 X-25.690 Y-22.700 E33.66824
G1 X-24.830 Y-23.060 E33.75794
G1 X-23.986 Y-23.169 E33.83981
G1 F6000.000 E27.83981
G1 Z4.400 F12000.000
G92 E0
G1 X-23.600 Y-19.300 F12000.000
G1 Z0.400 F12000.000
G1 E6.10000 F6000.000
G1 X25.800 Y-19.300 E10.85285 F900
G1 X25.800 Y-9.900 E11.75724
G1 X-23.600 Y-9.900 E16.51009
G1 X-23.600 Y-19.213 E17.40613
G1 X-23.099 Y-19.011 F12000.000
G1 F6000.000 E11.40613
G1 Z4.400 F12000.000
G92 E0
G1 X25.221 Y-10.479 F12000.000
G1 Z0.400 F12000.000
G1 E6.10000 F6000.000
G1 X-23.021 Y-10.479 E10.74153 F900
G1 X-23.021 Y-18.721 E11.53459
G1 X25.221 Y-18.721 E16.17612
G1 X25.221 Y-10.565 E16.96083
G1 X24.643 Y-11.057 F12000.000
G1 X-22.443 Y-11.057 E21.49103 F900
G1 X-22.443 Y-18.143 E22.17277
G1 X24.643 Y-18.143 E26.70298
G1 X24.643 Y-11.144 E27.37637
G1 X24.064 Y-11.636 F12000.000
G1 X-21.864 Y-11.636 E31.79525 F900
G1 X-21.864 Y-17.564 E32.36566
G1 X24.064 Y-17.564 E36.78454
G1 X24.064 Y-11.722 E37.34660
G1 F6000.000 E31.34660
G1 Z4.400 F12000.000
G92 E0
G1 X-21.315 Y-17.015 F12000.000
G1 Z0.400 F12000.000
G1 E6.10000 F6000.000
G1 X23.515 Y-17.015 E10.46564 F900
G1 X23.515 Y-12.185 E10.93596
G1 X-21.315 Y-12.185 E15.30160
G1 X-21.315 Y-16.927 E15.76337
G1 X-20.729 Y-16.429 F12000.000
G1 X22.929 Y-16.429 E20.01495 F900
G1 X22.929 Y-12.771 E20.37122
G1 X-20.729 Y-12.771 E24.62281
G1 X-20.729 Y-16.341 E24.97052
G1 X-20.144 Y-15.844 F12000.000
G1 X22.344 Y-15.844 E29.10806 F900
G1 X22.344 Y-13.356 E29.35027
G1 X-20.144 Y-13.356 E33.48781
G1 X-20.144 Y-15.756 E33.72147
G1 X-19.558 Y-15.258 F12000.000
G1 X21.758 Y-15.258 E37.74496 F900
G1 X21.758 Y-13.942 E37.87312
G1 X-19.558 Y-13.942 E41.89661
G1 X-19.558 Y-15.170 E42.01621
G1 F6000.000 E36.01621
G1 Z4.600 F12000.000
G92 E0
G1 X-21.425 Y-17.825 F12000.000
G1 Z0.600 F12000.000
G1 E6.10000 F6000.000
G1 X-21.425 Y-11.375 E6.34710 F739.616
G1 X-23.675 Y-11.375 E6.43330
G1 X-23.675 Y-17.825 E6.68039
G1 X-21.494 Y-17.825 E6.76394
G1 X-21.655 Y-17.426 F12000.000
G1 X-23.214 Y-11.836 F12000.000
G1 X-23.214 Y-17.364 E6.97574 F739.616
G1 X-21.886 Y-17.364 E7.02664
G1 X-21.886 Y-11.836 E7.23844
G1 X-23.145 Y-11.836 E7.28668
G1 X-23.675 Y-10.325 F12000.000
G1 X15.625 Y-10.325 E8.79226 F739.616
G1 X15.625 Y-18.875 E9.11981
G1 X-23.675 Y-18.875 E10.62539
G1 X-23.675 Y-19.375 E10.64454
G1 X25.875 Y-19.375 E12.54280
G1 X25.875 Y-9.825 E12.90866
G1 X-23.675 Y-9.825 E14.80691
G1 X-23.675 Y-10.256 E14.82342
G1 X-23.276 Y-10.095 F12000.000
G1 X25.414 Y-10.286 F12000.000
G1 X16.086 Y-10.286 E15.18079 F739.616
G1 X16.086 Y-18.914 E15.51135
G1 X25.414 Y-18.914 E15.86873
G1 X25.414 Y-10.355 E16.19664
G1 F6000.000 E10.19664
G1 Z4.600 F12000.000
G92 E0
G1 X-20.485 Y-13.446 F12000.000
G1 Z0.600 F12000.000
G1 E6.10000 F6000.000
G1 X-20.147 Y-13.097 E6.11858 F739.616
G1 X-19.961 Y-13.094 E6.12571
G1 X14.824 Y-13.094 E7.45833
G1 X15.368 Y-13.435 E7.48293
G1 X14.947 Y-13.103 F12000.000
G1 X15.285 Y-12.754 E7.50151 F739.616
G1 X14.768 Y-11.935 F12000.000
G1 X14.224 Y-11.594 E7.52612 F739.616
G1 X-20.561 Y-11.594 E8.85874
G1 X-20.747 Y-11.597 E8.86587
G1 X-21.085 Y-11.946 E8.88445
G1 X-20.747 Y-11.597 F12000.000
G1 X-21.169 Y-11.265 E8.90499 F739.616
G1 X-20.569 Y-12.765 F12000.000
G1 X-20.147 Y-13.097 E8.92554 F739.616
G1 X-21.169 Y-14.265 F12000.000
G1 X-20.747 Y-14.597 E8.94609 F739.616
G1 X-21.085 Y-14.946 F12000.000
G1 X-20.747 Y-14.597 E8.96467 F739.616
G1 X-20.561 Y-14.594 E8.97180
G1 X14.224 Y-14.594 E10.30442
G1 X14.768 Y-14.935 E10.32902
G1 X14.347 Y-14.603 F12000.000
G1 X14.685 Y-14.254 E10.34760 F739.616
G1 X15.285 Y-15.754 F12000.000
G1 X14.947 Y-16.103 E10.36618 F739.616
G1 X15.368 Y-16.435 F12000.000
G1 X14.824 Y-16.094 E10.39078 F739.616
G1 X-19.961 Y-16.094 E11.72340
G1 X-20.147 Y-16.097 E11.73054
G1 X-20.485 Y-16.446 E11.74912
G1 X-20.147 Y-16.097 F12000.000
G1 X-20.569 Y-15.765 E11.76966 F739.616
G1 X-21.169 Y-17.263 F12000.000
G1 X-20.747 Y-17.597 E11.79028 F739.616
G1 X-21.085 Y-17.943 F12000.000
G1 X-20.747 Y-17.597 E11.80879 F739.616
G1 X-20.561 Y-17.594 E11.81592
G1 X14.224 Y-17.594 E13.14853
G1 X14.768 Y-17.935 E13.17314
G1 X14.347 Y-17.603 F12000.000
G1 X14.685 Y-17.254 E13.19172 F739.616
G1 F6000.000 E7.19172
G1 Z4.600 F12000.000
G92 E0
G1 X14.347 Y-11.603 F12000.000
G1 Z0.600 F12000.000
G1 E6.10000 F6000.000
G1 X14.685 Y-11.254 E6.11858 F739.616
G1 F6000.000 E0.11858
G1 Z4.600 F12000.000
G92 E0
G1 X19.475 Y-18.734 F12000.000
G1 Z0.600 F12000.000
G1 E6.10000 F6000.000
G1 X16.266 Y-15.525 E6.27385 F739.616
G1 X16.266 Y-11.181 E6.44026
G1 X23.819 Y-18.734 E6.84945
G1 X25.234 Y-15.805 E6.97407
G1 X19.895 Y-10.466 E7.26331
G1 X24.239 Y-10.466 E7.42972
G1 X25.234 Y-11.461 E7.48363
G1 F6000.000 E1.48363
G1 Z4.600 F12000.000
G92 E0
G1 X-22.316 Y-12.317 F12000.000
G1 Z0.600 F12000.000
G1 E6.10000 F6000.000
G1 X-22.367 Y-12.266 E6.10304 F739.616
G1 X-22.784 Y-12.567 E6.12484 F739.616
G1 X-22.316 Y-13.036 E6.15287 F739.616
G1 X-22.784 Y-13.287 E6.17535 F739.616
G1 X-22.316 Y-13.755 E6.20339 F739.616
G1 X-22.784 Y-14.006 E6.22587 F739.616
G1 X-22.316 Y-14.475 E6.25390 F739.616
G1 X-22.784 Y-14.725 E6.27638 F739.616
G1 X-22.316 Y-15.194 E6.30442 F739.616
G1 X-22.784 Y-15.445 E6.32690 F739.616
G1 X-22.316 Y-15.913 E6.35493 F739.616
G1 X-22.784 Y-16.164 E6.37742 F739.616
G1 X-22.316 Y-16.633 E6.40545 F739.616
G1 X-22.733 Y-16.934 E6.42724 F739.616
G1 X-22.784 Y-16.883 E6.43029 F739.616
M106 S255
G1 F6000.000 E0.43029
G1 Z4.800 F12000.000
G92 E0
G1 X-23.675 Y-17.825 F12000.000
G1 Z0.800 F12000.000
G1 E6.10000 F6000.000
G1 X-21.425 Y-17.825 E6.18620 F897.592
G1 X-21.425 Y-11.375 E6.43330
G1 X-23.675 Y-11.375 E6.51949
G1 X-23.675 Y-17.756 E6.76394
G1 X-23.276 Y-17.595 F12000.000
G1 X-23.214 Y-11.836 F12000.000
G1 X-23.214 Y-17.364 E6.97574 F897.592
G1 X-21.886 Y-17.364 E7.02664
G1 X-21.886 Y-11.836 E7.23844
G1 X-23.145 Y-11.836 E7.28668
G1 X-23.675 Y-10.325 F12000.000
G1 X15.625 Y-10.325 E8.79226 F897.592
G1 X15.625 Y-18.875 E9.11981
G1 X-23.675 Y-18.875 E10.62539
G1 X-23.675 Y-19.375 E10.64454
G1 X25.875 Y-19.375 E12.54280
G1 X25.875 Y-9.825 E12.90866
G1 X-23.675 Y-9.825 E14.80691
G1 X-23.675 Y-10.256 E14.82342
G1 X-23.276 Y-10.095 F12000.000
G1 X25.414 Y-10.286 F12000.000
G1 X16.086 Y-10.286 E15.18079 F897.592
G1 X16.086 Y-18.914 E15.51135
G1 X25.414 Y-18.914 E15.86873
G1 X25.414 Y-10.355 E16.19664
G1 F6000.000 E10.19664
G1 Z4.800 F12000.000
G92 E0
G1 X-20.485 Y-13.446 F12000.000
G1 Z0.800 F12000.000
G1 E6.10000 F6000.000
G1 X-20.147 Y-13.097 E6.11858 F897.592
G1 X-19.961 Y-13.094 E6.12571
G1 X14.824 Y-13.094 E7.45833
G1 X15.368 Y-13.435 E7.48293
G1 X14.947 Y-13.103 F12000.000
G1 X15.285 Y-12.754 E7.50151 F897.592
G1 X14.768 Y-11.935 F12000.000
G1 X14.224 Y-11.594 E7.52612 F897.592
G1 X-20.561 Y-11.594 E8.85874
G1 X-20.747 Y-11.597 E8.86587
G1 X-21.085 Y-11.946 E8.88445
G1 X-20.747 Y-11.597 F12000.000
G1 X-21.169 Y-11.265 E8.90499 F897.592
G1 X-20.569 Y-12.765 F12000.000
G1 X-20.147 Y-13.097 E8.92554 F897.592
G1 X-21.169 Y-14.265 F12000.000
G1 X-20.747 Y-14.597 E8.94609 F897.592
G1 X-21.085 Y-14.946 F12000.000
G1 X-20.747 Y-14.597 E8.96467 F897.592
G1 X-20.561 Y-14.594 E8.97180
G1 X14.224 Y-14.594 E10.30442
G1 X14.768 Y-14.935 E10.32902
G1 X14.347 Y-14.603 F12000.000
G1 X14.685 Y-14.254 E10.34760 F897.592
G1 X15.285 Y-15.754 F12000.000
G1 X14.947 Y-16.103 E10.36618 F897.592
G1 X15.368 Y-16.435 F12000.000
G1 X14.824 Y-16.094 E10.39078 F897.592
G1 X-19.961 Y-16.094 E11.72340
G1 X-20.147 Y-16.097 E11.73054
G1 X-20.485 Y-16.446 E11.74912
G1 X-20.147 Y-16.097 F12000.000
G1 X-20.569 Y-15.765 E11.76966 F897.592
G1 X-21.169 Y-17.263 F12000.000
G1 X-20.747 Y-17.597 E11.79028 F897.592
G1 X-21.085 Y-17.943 F12000.000
G1 X-20.747 Y-17.597 E11.80879 F897.592
G1 X-20.561 Y-17.594 E11.81592
G1 X14.224 Y-17.594 E13.14853
G1 X14.768 Y-17.935 E13.17314
G1 X14.347 Y-17.603 F12000.000
G1 X14.685 Y-17.254 E13.19172 F897.592
G1 F6000.000 E7.19172
G1 Z4.800 F12000.000
G92 E0
G1 X14.347 Y-11.603 F12000.000
G1 Z0.800 F12000.000
G1 E6.10000 F6000.000
G1 X14.685 Y-11.254 E6.11858 F897.592
G1 X16.448 Y-10.592 F12000.000
M106 S255
G1 X16.392 Y-10.648 E6.12504 F1800
G1 X16.392 Y-11.439 E6.18965
G1 X17.239 Y-10.592 E6.28748
G1 X18.031 Y-10.592 E6.35210
G1 X16.392 Y-12.231 E6.54130
G1 X16.392 Y-13.022 E6.60591
G1 X18.822 Y-10.592 E6.88649
G1 X19.614 Y-10.592 E6.95110
G1 X16.392 Y-13.814 E7.32305
G1 X16.392 Y-14.605 E7.38766
G1 X20.405 Y-10.592 E7.85099
G1 X21.197 Y-10.592 E7.91560
G1 X16.392 Y-15.397 E8.47030
G1 X16.392 Y-16.188 E8.53491
G1 X21.988 Y-10.592 E9.18098
G1 X22.780 Y-10.592 E9.24559
G1 X16.392 Y-16.980 E9.98303
G1 X16.392 Y-17.771 E10.04764
G1 X23.571 Y-10.592 E10.87646
G1 X24.362 Y-10.592 E10.94107
G1 X16.397 Y-18.557 E11.86067
G1 X17.138 Y-18.608 E11.92127
G1 X25.103 Y-10.643 E12.84086
G1 X25.108 Y-11.429 E12.90506
G1 X17.929 Y-18.608 E13.73387
G1 X18.720 Y-18.608 E13.79849
G1 X25.108 Y-12.220 E14.53593
G1 X25.108 Y-13.012 E14.60054
G1 X19.512 Y-18.608 E15.24661
G1 X20.303 Y-18.608 E15.31122
G1 X25.108 Y-13.803 E15.86592
G1 X25.108 Y-14.595 E15.93053
G1 X21.095 Y-18.608 E16.39385
G1 X21.886 Y-18.608 E16.45846
G1 X25.108 Y-15.386 E16.83041
G1 X25.108 Y-16.178 E16.89502
G1 X22.678 Y-18.608 E17.17560
G1 X23.469 Y-18.608 E17.24021
G1 X25.108 Y-16.969 E17.42942
G1 X25.108 Y-17.761 E17.49403
G1 X24.261 Y-18.608 E17.59186
G1 X25.052 Y-18.608 E17.65647
G1 X25.108 Y-18.552 E17.66294
M106 S255
G1 F6000.000 E11.66294
G1 Z4.800 F12000.000
G92 E0
G1 X-22.316 Y-16.883 F12000.000
G1 Z0.800 F12000.000
G1 E6.10000 F6000.000
G1 X-22.367 Y-16.934 E6.10304 F897.592
G1 X-22.784 Y-16.633 E6.12484 F897.592
G1 X-22.316 Y-16.164 E6.15287 F897.592
G1 X-22.784 Y-15.913 E6.17535 F897.592
G1 X-22.316 Y-15.445 E6.20339 F897.592
G1 X-22.784 Y-15.194 E6.22587 F897.592
G1 X-22.316 Y-14.725 E6.25390 F897.592
G1 X-22.784 Y-14.475 E6.27638 F897.592
G1 X-22.316 Y-14.006 E6.30442 F897.592
G1 X-22.784 Y-13.755 E6.32690 F897.592
G1 X-22.316 Y-13.287 E6.35493 F897.592
G1 X-22.784 Y-13.036 E6.37742 F897.592
G1 X-22.316 Y-12.567 E6.40545 F897.592
G1 X-22.784 Y-12.317 E6.42793 F897.592
G1 X-22.733 Y-12.266 E6.43097 F897.592
G1 F6000.000 E0.43097
G1 Z5.000 F12000.000
G92 E0
G1 X-23.675 Y-11.375 F12000.000
G1 Z1.000 F12000.000
G1 E6.10000 F6000.000
G1 X-23.675 Y-17.825 E6.34710 F1283.808
G1 X-21.425 Y-17.825 E6.43330
G1 X-21.425 Y-11.375 E6.68039
G1 X-23.606 Y-11.375 E6.76394
G1 X-23.445 Y-11.774 F12000.000
G1 X-23.214 Y-11.836 F12000.000
G1 X-23.214 Y-17.364 E6.97574 F1283.808
G1 X-21.886 Y-17.364 E7.02664
G1 X-21.886 Y-11.836 E7.23844
G1 X-23.145 Y-11.836 E7.28668
G1 X-23.675 Y-10.325 F12000.000
G1 X15.625 Y-10.325 E8.79226 F1283.808
G1 X15.625 Y-18.875 E9.11981
G1 X-23.675 Y-18.875 E10.62539
G1 X-23.675 Y-19.375 E10.64454
G1 X25.875 Y-19.375 E12.54280
G1 X25.875 Y-9.825 E12.90866
G1 X-23.675 Y-9.825 E14.80691
G1 X-23.675 Y-10.256 E14.82342
G1 X-23.276 Y-10.095 F12000.000
G1 F6000.000 E8.82342
G1 Z5.000 F12000.000
G92 E0
G1 X16.086 Y-10.286 F12000.000
G1 Z1.000 F12000.000
G1 E6.10000 F6000.000
G1 X16.086 Y-18.914 E6.43056 F1283.808
G1 X25.414 Y-18.914 E6.78793
G1 X25.414 Y-10.286 E7.11849
G1 X16.155 Y-10.286 E7.47322
G1 F6000.000 E1.47322
G1 Z5.000 F12000.000
G92 E0
G1 X-20.485 Y-13.446 F12000.000
G1 Z1.000 F12000.000
G1 E6.10000 F6000.000
G1 X-20.147 Y-13.097 E6.11858 F1283.808
G1 X-19.961 Y-13.094 E6.12571
G1 X14.824 Y-13.094 E7.45833
G1 X15.368 Y-13.435 E7.48293
G1 X14.947 Y-13.103 F12000.000
G1 X15.285 Y-12.754 E7.50151 F1283.808
G1 X14.768 Y-11.935 F12000.000
G1 X14.224 Y-11.594 E7.52612 F1283.808
G1 X-20.561 Y-11.594 E8.85874
G1 X-20.747 Y-11.597 E8.86587
G1 X-21.085 Y-11.946 E8.88445
G1 X-20.747 Y-11.597 F12000.000
G1 X-21.169 Y-11.265 E8.90499 F1283.808
G1 X-20.569 Y-12.765 F12000.000
G1 X-20.147 Y-13.097 E8.92554 F1283.808
G1 X-21.169 Y-14.265 F12000.000
G1 X-20.747 Y-14.597 E8.94609 F1283.808
G1 X-21.085 Y-14.946 F12000.000
G1 X-20.747 Y-14.597 E8.96467 F1283.808
G1 X-20.561 Y-14.594 E8.97180
G1 X14.224 Y-14.594 E10.30442
G1 X14.768 Y-14.935 E10.32902
G1 X14.347 Y-14.603 F12000.000
G1 X14.685 Y-14.254 E10.34760 F1283.808
G1 X15.285 Y-15.754 F12000.000
G1 X14.947 Y-16.103 E10.36618 F1283.808
G1 X15.368 Y-16.435 F12000.000
G1 X14.824 Y-16.094 E10.39078 F1283.808
G1 X-19.961 Y-16.094 E11.72340
G1 X-20.147 Y-16.097 E11.73054
G1 X-20.485 Y-16.446 E11.74912
G1 X-20.147 Y-16.097 F12000.000
G1 X-20.569 Y-15.765 E11.76966 F1283.808
G1 X-21.169 Y-17.263 F12000.000
G1 X-20.747 Y-17.597 E11.79028 F1283.808
G1 X-21.085 Y-17.943 F12000.000
G1 X-20.747 Y-17.597 E11.80879 F1283.808
G1 X-20.561 Y-17.594 E11.81592
G1 X14.224 Y-17.594 E13.14853
G1 X14.768 Y-17.935 E13.17314
G1 X14.347 Y-17.603 F12000.000
G1 X14.685 Y-17.254 E13.19172 F1283.808
G1 F6000.000 E7.19172
G1 Z5.000 F12000.000
G92 E0
G1 X14.347 Y-11.603 F12000.000
G1 Z1.000 F12000.000
G1 E6.10000 F6000.000
G1 X14.685 Y-11.254 E6.11858 F1283.808
G1 F6000.000 E0.11858
G1 Z5.000 F12000.000
G92 E0
G1 X16.515 Y-18.485 F12000.000
G1 Z1.000 F12000.000
G1 E6.10000 F6000.000
G1 X24.985 Y-18.485 E6.40500 F1283.808
G1 X24.985 Y-10.715 E6.68480
G1 X16.515 Y-10.715 E6.98981
G1 X16.515 Y-18.420 E7.26727
G1 X16.948 Y-18.052 F12000.000
G1 X24.552 Y-18.052 E7.54109 F1283.808
G1 X24.552 Y-11.148 E7.78971
G1 X16.948 Y-11.148 E8.06353
G1 X16.948 Y-17.987 E8.30981
G1 X17.381 Y-17.619 F12000.000
G1 X24.119 Y-17.619 E8.55244 F1283.808
G1 X24.119 Y-11.581 E8.76988
G1 X17.381 Y-11.581 E9.01251
G1 X17.381 Y-17.554 E9.22761
G1 X17.814 Y-17.186 F12000.000
G1 X23.686 Y-17.186 E9.43906 F1283.808
