; generated by Slic3r 1.0.0RC2 on 2014-06-13 at 19:36:50

; layer_height = .2
; perimeters = 2
; top_solid_layers = 2
; bottom_solid_layers = 1
; fill_density = 0.15
; perimeter_speed = 30
; infill_speed = 30
; travel_speed = 200
; nozzle_diameter = 0.5
; filament_diameter = 1.75
; extrusion_multiplier = 1
; perimeters extrusion width = 0.45mm
; infill extrusion width = 0.45mm
; solid infill extrusion width = 0.45mm
; top infill extrusion width = 0.40mm
; support material extrusion width = 0.45mm
; first layer extrusion width = 0.60mm

G21 ; set units to millimeters
M107
G28
M104 S235,0
M190 S60
M109 S235,0
; BEGINNING OF HEAD MOVEMENT WARNING TONES
M120 S4 P10
G4 P40
M120 S4 P10
G4 P40
M120 S4 P10
G4 P40
M120 S4 P10
G4 P40
M120 S4 P10
G4 P40
M117 KEEP HANDS AWAY
G4 S3
; END OF HEAD WARNING TONES
G90 ; use absolute coordinates
G92 E0
M82 ; use absolute distances for extrusion
T0
G92 E0
G1 F6000.000 E-6.00000
G1 Z4.400 F12000.000
G92 E0
G1 X38.296 Y-26.694 F12000.000
G1 Z0.400 F12000.000
G1 E6.10000 F6000.000
G1 X29.656 Y48.056 E11.86546 F900
G1 X29.356 Y49.146 E11.95208
G1 X28.766 Y50.116 E12.03907
G1 X27.926 Y50.866 E12.12535
G1 X26.906 Y51.356 E12.21205
G1 X25.786 Y51.526 E12.29885
G1 X-17.194 Y51.866 E15.59207
G1 X-32.254 Y51.676 E16.74605
G1 X-33.264 Y51.536 E16.82418
G1 X-34.204 Y51.136 E16.90245
G1 X-35.004 Y50.506 E16.98047
G1 X-35.614 Y49.686 E17.05878
G1 X-35.994 Y48.746 E17.13646
G1 X-36.124 Y47.736 E17.21448
G1 X-35.484 Y-77.164 E26.78441
G1 X-35.344 Y-78.174 E26.86254
G1 X-34.954 Y-79.114 E26.94052
G1 X-34.334 Y-79.924 E27.01867
G1 X-33.514 Y-80.544 E27.09744
G1 X-32.574 Y-80.934 E27.17541
G1 X-31.564 Y-81.064 E27.25344
G1 X34.396 Y-81.064 E32.30727
G1 X35.406 Y-80.934 E32.38530
G1 X36.356 Y-80.544 E32.46398
G1 X37.166 Y-79.914 E32.54261
G1 X37.796 Y-79.104 E32.62123
G1 X38.186 Y-78.154 E32.69991
G1 X38.316 Y-77.144 E32.77794
G1 X38.316 Y-27.144 E36.60892
G1 X38.299 Y-26.763 E36.63814
G1 X37.836 Y-26.744 F12000.000
G1 X29.196 Y48.006 E42.40360 F900
G1 X28.936 Y48.966 E42.47980
G1 X28.416 Y49.816 E42.55615
G1 X27.676 Y50.486 E42.63263
G1 X26.766 Y50.916 E42.70975
G1 X25.786 Y51.066 E42.78571
G1 X-17.264 Y51.406 E46.08429
G1 X-32.244 Y51.216 E47.23215
G1 X-33.314 Y51.036 E47.31529
G1 X-34.264 Y50.536 E47.39754
G1 X-35.024 Y49.766 E47.48044
G1 X-35.504 Y48.806 E47.56267
G1 X-35.664 Y47.736 E47.64557
G1 X-35.024 Y-77.164 E57.21550
G1 X-34.854 Y-78.224 E57.29775
G1 X-34.354 Y-79.184 E57.38068
G1 X-33.594 Y-79.944 E57.46304
G1 X-32.634 Y-80.434 E57.54562
G1 X-31.564 Y-80.604 E57.62863
G1 X34.396 Y-80.604 E62.68247
G1 X35.466 Y-80.434 E62.76548
G1 X36.426 Y-79.944 E62.84806
G1 X37.196 Y-79.174 E62.93149
G1 X37.686 Y-78.214 E63.01408
G1 X37.856 Y-77.144 E63.09709
G1 X37.856 Y-27.144 E66.92807
G1 X37.840 Y-26.813 E66.95347
G1 F6000.000 E60.95347
G1 Z4.600 F12000.000
G92 E0
G1 X34.179 Y-27.151 F12000.000
G1 Z0.600 F12000.000
G1 E6.10000 F6000.000
G1 X25.559 Y47.385 E12.22511 F1800
G1 X10.996 Y47.385 E13.41395
G1 X14.640 Y-27.363 E19.52307
G1 X11.223 Y-27.363 E19.80198
G1 X2.579 Y47.385 E25.94452
G1 X-11.984 Y47.385 E27.13336
G1 X-8.340 Y-27.363 E33.24248
G1 X-11.765 Y-27.363 E33.52206
G1 X-17.428 Y47.727 E39.66925
G1 X-31.977 Y47.534 E40.85697
G1 X-31.331 Y-27.137 E46.95279
G1 X-31.331 Y-76.913 E51.01614
G1 X34.179 Y-76.913 E56.36389
G1 X34.179 Y-27.220 E60.42046
G1 X33.763 Y-26.952 F12000.000
G1 X-30.871 Y-76.452 F12000.000
G1 X33.718 Y-76.452 E65.69299 F1800
G1 X33.718 Y-27.178 E69.71542
G1 X25.149 Y46.924 E75.80485
G1 X11.480 Y46.924 E76.92069
G1 X15.124 Y-27.824 E83.02981
G1 X10.813 Y-27.824 E83.38173
G1 X2.169 Y46.924 E89.52426
G1 X-11.500 Y46.924 E90.64010
G1 X-7.856 Y-27.824 E96.74922
G1 X-12.192 Y-27.824 E97.10317
G1 X-17.855 Y47.260 E103.24989
G1 X-31.512 Y47.079 E104.36483
G1 X-30.871 Y-27.135 E110.42337
G1 X-30.871 Y-76.383 E114.44363
G1 X-30.564 Y-76.091 F12000.000
G1 X-30.509 Y-76.146 E114.45001 F1800
G1 X-29.728 Y-76.146 E114.51377
G1 X-30.564 Y-75.310 E114.61033
G1 X-30.564 Y-74.529 E114.67409
G1 X-28.947 Y-76.146 E114.86082
G1 X-28.166 Y-76.146 E114.92459
G1 X-30.564 Y-73.747 E115.20150
G1 X-30.564 Y-72.966 E115.26526
G1 X-27.385 Y-76.146 E115.63235
G1 X-26.603 Y-76.146 E115.69612
G1 X-30.564 Y-72.185 E116.15338
G1 X-30.564 Y-71.404 E116.21715
G1 X-25.822 Y-76.146 E116.76459
G1 X-25.041 Y-76.146 E116.82835
G1 X-30.564 Y-70.623 E117.46598
G1 X-30.564 Y-69.842 E117.52974
G1 X-24.260 Y-76.146 E118.25754
G1 X-23.479 Y-76.146 E118.32130
G1 X-30.564 Y-69.061 E119.13928
G1 X-30.564 Y-68.280 E119.20305
G1 X-22.698 Y-76.146 E120.11120
G1 X-21.917 Y-76.146 E120.17496
G1 X-30.564 Y-67.498 E121.17330
G1 X-30.564 Y-66.717 E121.23706
G1 X-21.136 Y-76.146 E122.32557
G1 X-20.354 Y-76.146 E122.38934
G1 X-30.564 Y-65.936 E123.56802
G1 X-30.564 Y-65.155 E123.63179
G1 X-19.573 Y-76.146 E124.90065
G1 X-18.792 Y-76.146 E124.96442
G1 X-30.564 Y-64.374 E126.32346
G1 X-30.564 Y-63.593 E126.38723
G1 X-18.011 Y-76.146 E127.83645
G1 X-17.230 Y-76.146 E127.90021
G1 X-30.564 Y-62.812 E129.43961
G1 X-30.564 Y-62.031 E129.50337
G1 X-16.449 Y-76.146 E131.13295
G1 X-15.668 Y-76.146 E131.19672
G1 X-30.564 Y-61.249 E132.91647
G1 X-30.564 Y-60.468 E132.98023
G1 X-14.887 Y-76.146 E134.79017
G1 X-14.105 Y-76.146 E134.85393
G1 X-30.564 Y-59.687 E136.75404
G1 X-30.564 Y-58.906 E136.81780
G1 X-13.324 Y-76.146 E138.80809
G1 X-12.543 Y-76.146 E138.87186
G1 X-30.564 Y-58.125 E140.95232
G1 X-30.564 Y-57.344 E141.01609
G1 X-11.762 Y-76.146 E143.18673
G1 X-10.981 Y-76.146 E143.25049
G1 X-30.564 Y-56.563 E145.51131
G1 X-30.564 Y-55.782 E145.57508
G1 X-10.200 Y-76.146 E147.92608
G1 X-9.419 Y-76.146 E147.98984
G1 X-30.564 Y-55.000 E150.43102
G1 X-30.564 Y-54.219 E150.49478
G1 X-8.638 Y-76.146 E153.02614
G1 X-7.856 Y-76.146 E153.08990
G1 X-30.564 Y-53.438 E155.71143
G1 X-30.564 Y-52.657 E155.77520
G1 X-7.075 Y-76.146 E158.48691
G1 X-6.294 Y-76.146 E158.55067
G1 X-30.564 Y-51.876 E161.35256
G1 X-30.564 Y-51.095 E161.41632
G1 X-5.513 Y-76.146 E164.30839
G1 X-4.732 Y-76.146 E164.37215
G1 X-30.564 Y-50.314 E167.35439
G1 X-30.564 Y-49.533 E167.41816
G1 X-3.951 Y-76.146 E170.49058
G1 X-3.170 Y-76.146 E170.55434
G1 X-30.564 Y-48.751 E173.71694
G1 X-30.564 Y-47.970 E173.78070
G1 X-2.389 Y-76.146 E177.03348
G1 X-1.607 Y-76.146 E177.09725
G1 X-30.564 Y-47.189 E180.44020
G1 X-30.564 Y-46.408 E180.50396
G1 X-0.826 Y-76.146 E183.93709
G1 X-0.045 Y-76.146 E184.00086
G1 X-30.564 Y-45.627 E187.52417
G1 X-30.564 Y-44.846 E187.58793
G1 X0.736 Y-76.146 E191.20142
G1 X1.517 Y-76.146 E191.26518
G1 X-30.564 Y-44.065 E194.96885
G1 X-30.564 Y-43.284 E195.03261
G1 X2.298 Y-76.146 E198.82645
G1 X3.079 Y-76.146 E198.89022
G1 X-30.564 Y-42.502 E202.77424
G1 X-30.564 Y-41.721 E202.83800
G1 X3.860 Y-76.146 E206.81220
G1 X4.642 Y-76.146 E206.87596
G1 X-30.564 Y-40.940 E210.94034
G1 X-30.564 Y-40.159 E211.00410
G1 X5.423 Y-76.146 E215.15866
G1 X6.204 Y-76.146 E215.22242
G1 X-30.564 Y-39.378 E219.46715
G1 X-30.564 Y-38.597 E219.53092
G1 X6.985 Y-76.146 E223.86582
G1 X7.766 Y-76.146 E223.92959
G1 X-30.564 Y-37.816 E228.35468
G1 X-30.564 Y-37.035 E228.41844
G1 X8.547 Y-76.146 E232.93370
G1 X9.328 Y-76.146 E232.99747
G1 X-30.564 Y-36.253 E237.60291
G1 X-30.564 Y-35.472 E237.66668
G1 X10.109 Y-76.146 E242.36229
G1 X10.891 Y-76.146 E242.42606
G1 X-30.564 Y-34.691 E247.21186
G1 X-30.564 Y-33.910 E247.27562
G1 X11.672 Y-76.146 E252.15159
G1 X12.453 Y-76.146 E252.21536
G1 X-30.564 Y-33.129 E257.18151
G1 X-30.564 Y-32.348 E257.24528
G1 X13.234 Y-76.146 E262.30161
G1 X14.015 Y-76.146 E262.36537
G1 X-30.564 Y-31.567 E267.51188
G1 X-30.564 Y-30.786 E267.57564
G1 X14.796 Y-76.146 E272.81233
G1 X15.577 Y-76.146 E272.87609
G1 X-30.564 Y-30.004 E278.20296
G1 X-30.564 Y-29.223 E278.26672
G1 X16.358 Y-76.146 E283.68376
G1 X17.140 Y-76.146 E283.74753
G1 X-30.564 Y-28.442 E289.25475
G1 X-30.564 Y-27.661 E289.31851
G1 X17.921 Y-76.146 E294.91591
G1 X18.702 Y-76.146 E294.97967
G1 X-30.566 Y-26.878 E300.66750
G1 X-30.573 Y-26.090 E300.73183
G1 X19.483 Y-76.146 E306.51062
G1 X20.264 Y-76.146 E306.57438
G1 X-30.580 Y-25.302 E312.44414
G1 X-30.587 Y-24.514 E312.50847
G1 X21.045 Y-76.146 E318.46919
G1 X21.826 Y-76.146 E318.53295
G1 X-30.594 Y-23.726 E324.58464
G1 X-30.601 Y-22.938 E324.64896
G1 X22.607 Y-76.146 E330.79161
G1 X23.389 Y-76.146 E330.85537
G1 X-30.607 Y-22.150 E337.08899
G1 X-30.614 Y-21.362 E337.15331
G1 X24.170 Y-76.146 E343.47788
G1 X24.951 Y-76.146 E343.54165
G1 X-30.621 Y-20.574 E349.95719
G1 X-30.628 Y-19.786 E350.02151
G1 X25.732 Y-76.146 E356.52802
G1 X26.513 Y-76.146 E356.59178
G1 X-30.635 Y-18.998 E363.18925
G1 X-30.641 Y-18.210 E363.25357
G1 X27.294 Y-76.146 E369.94201
G1 X28.075 Y-76.146 E370.00577
G1 X-30.648 Y-17.422 E376.78517
G1 X-30.655 Y-16.635 E376.84949
G1 X28.856 Y-76.146 E383.71985
G1 X29.638 Y-76.146 E383.78361
G1 X-30.662 Y-15.847 E390.74494
G1 X-30.669 Y-15.059 E390.80926
G1 X30.419 Y-76.146 E397.86155
G1 X31.200 Y-76.146 E397.92531
G1 X-30.675 Y-14.271 E405.06856
G1 X-30.682 Y-13.483 E405.13289
G1 X31.981 Y-76.146 E412.36710
G1 X32.762 Y-76.146 E412.43087
G1 X-30.689 Y-12.695 E419.75604
G1 X-30.696 Y-11.907 E419.82037
G1 X33.411 Y-76.014 E427.22130
G1 X33.411 Y-75.233 E427.28507
G1 X-30.703 Y-11.119 E434.68679
G1 F6000.000 E428.68679
G1 Z4.600 F12000.000
G92 E0
G1 X-8.500 Y-8.326 F12000.000
G1 Z0.600 F12000.000
G1 E6.10000 F6000.000
G1 X10.440 Y-27.265 E8.28651 F1800
G1 X10.337 Y-26.382 E8.35910
G1 X-8.540 Y-7.504 E10.53844
G1 X-8.580 Y-6.683 E10.60555
G1 X10.235 Y-25.499 E12.77773
G1 X10.133 Y-24.615 E12.85031
G1 X-8.620 Y-5.862 E15.01531
G1 X-8.660 Y-5.041 E15.08242
G1 X10.031 Y-23.732 E17.24026
G1 X9.929 Y-22.849 E17.31284
G1 X-8.700 Y-4.220 E19.46350
G1 X-8.740 Y-3.399 E19.53061
G1 X9.827 Y-21.966 E21.67410
G1 X9.725 Y-21.082 E21.74669
G1 X-8.780 Y-2.577 E23.88301
G1 X-8.820 Y-1.756 E23.95012
G1 X9.622 Y-20.199 E26.07927
G1 X9.520 Y-19.316 E26.15185
G1 X-8.860 Y-0.935 E28.27383
G1 X-8.900 Y-0.114 E28.34095
G1 X9.418 Y-18.433 E30.45576
G1 X9.316 Y-17.549 E30.52834
G1 X-8.940 Y0.707 E32.63598
G1 X-8.980 Y1.528 E32.70309
G1 X9.214 Y-16.666 E34.80356
G1 X9.112 Y-15.783 E34.87614
G1 X-9.020 Y2.349 E36.96944
G1 X-9.061 Y3.171 E37.03655
G1 X9.010 Y-14.900 E39.12268
G1 X8.908 Y-14.016 E39.19527
G1 X-9.101 Y3.992 E41.27422
G1 X-9.141 Y4.813 E41.34134
G1 X8.805 Y-13.133 E43.41312
G1 X8.703 Y-12.250 E43.48571
G1 X-9.181 Y5.634 E45.55032
G1 X-9.221 Y6.455 E45.61744
G1 X8.601 Y-11.367 E47.67488
G1 X8.499 Y-10.483 E47.74747
G1 X-9.261 Y7.276 E49.79774
G1 X-9.301 Y8.098 E49.86485
G1 X8.397 Y-9.600 E51.90796
G1 X8.295 Y-8.717 E51.98054
G1 X-9.341 Y8.919 E54.01648
G1 X-9.381 Y9.740 E54.08359
G1 X8.193 Y-7.833 E56.11236
G1 X8.090 Y-6.950 E56.18494
G1 X-9.421 Y10.561 E58.20653
G1 X-9.461 Y11.382 E58.27365
G1 X7.988 Y-6.067 E60.28807
G1 X7.886 Y-5.184 E60.36065
G1 X-9.501 Y12.203 E62.36791
G1 X-9.541 Y13.024 E62.43502
G1 X7.784 Y-4.300 E64.43510
G1 X7.682 Y-3.417 E64.50769
G1 X-9.581 Y13.846 E66.50060
G1 X-9.621 Y14.667 E66.56771
G1 X7.580 Y-2.534 E68.55345
G1 X7.478 Y-1.651 E68.62604
G1 X-9.661 Y15.488 E70.60461
G1 X-9.701 Y16.309 E70.67172
G1 X7.375 Y-0.767 E72.64312
G1 X7.273 Y0.116 E72.71571
G1 X-9.741 Y17.130 E74.67994
G1 X-9.781 Y17.951 E74.74705
G1 X7.171 Y0.999 E76.70411
G1 X7.069 Y1.882 E76.77670
G1 X-9.821 Y18.772 E78.72659
G1 X-9.861 Y19.594 E78.79370
G1 X6.967 Y2.766 E80.73642
G1 X6.865 Y3.649 E80.80900
G1 X-9.901 Y20.415 E82.74455
G1 X-9.941 Y21.236 E82.81166
G1 X6.763 Y4.532 E84.74004
G1 X6.660 Y5.415 E84.81263
G1 X-9.981 Y22.057 E86.73384
G1 X-10.021 Y22.878 E86.80095
G1 X6.558 Y6.299 E88.71499
G1 X6.456 Y7.182 E88.78757
G1 X-10.061 Y23.699 E90.69444
G1 X-10.101 Y24.521 E90.76155
G1 X6.354 Y8.065 E92.66125
G1 X6.252 Y8.949 E92.73383
G1 X-10.141 Y25.342 E94.62636
G1 X-10.181 Y26.163 E94.69347
G1 X6.150 Y9.832 E96.57883
G1 X6.048 Y10.715 E96.65141
G1 X-10.221 Y26.984 E98.52960
G1 X-10.261 Y27.805 E98.59671
G1 X5.945 Y11.598 E100.46773
G1 X5.843 Y12.482 E100.54031
G1 X-10.301 Y28.626 E102.40416
G1 X-10.341 Y29.447 E102.47127
G1 X5.741 Y13.365 E104.32795
G1 X5.639 Y14.248 E104.40053
G1 X-10.381 Y30.269 E106.25003
G1 X-10.421 Y31.090 E106.31715
G1 X5.537 Y15.131 E108.15948
G1 X5.435 Y16.015 E108.23207
G1 X-10.462 Y31.911 E110.06723
G1 X-10.502 Y32.732 E110.13434
G1 X5.333 Y16.898 E111.96234
G1 X5.231 Y17.781 E112.03492
G1 X-10.542 Y33.553 E113.85574
G1 X-10.582 Y34.374 E113.92286
G1 X5.128 Y18.664 E115.73651
G1 X5.026 Y19.548 E115.80909
G1 X-10.622 Y35.196 E117.61557
G1 X-10.662 Y36.017 E117.68269
G1 X4.924 Y20.431 E119.48200
G1 X4.822 Y21.314 E119.55458
G1 X-10.702 Y36.838 E121.34672
G1 X-10.742 Y37.659 E121.41384
G1 X4.720 Y22.197 E123.19881
G1 X4.618 Y23.081 E123.27139
G1 X-10.782 Y38.480 E125.04919
G1 X-10.822 Y39.301 E125.11631
G1 X4.516 Y23.964 E126.88694
G1 X4.413 Y24.847 E126.95952
G1 X-10.862 Y40.122 E128.72298
G1 X-10.902 Y40.944 E128.79009
G1 X4.311 Y25.731 E130.54638
G1 X4.209 Y26.614 E130.61897
G1 X-10.942 Y41.765 E132.36809
G1 X-10.982 Y42.586 E132.43520
G1 X4.107 Y27.497 E134.17715
G1 X4.005 Y28.380 E134.24973
G1 X-11.022 Y43.407 E135.98451
G1 X-11.062 Y44.228 E136.05162
G1 X3.903 Y29.264 E137.77923
G1 X3.801 Y30.147 E137.85181
G1 X-11.102 Y45.049 E139.57225
G1 X-11.142 Y45.871 E139.63936
G1 X3.698 Y31.030 E141.35263
G1 X3.596 Y31.913 E141.42522
G1 X-11.108 Y46.618 E143.12277
G1 F6000.000 E137.12277
G1 Z4.600 F12000.000
G92 E0
G1 X-18.112 Y46.592 F12000.000
G1 Z0.600 F12000.000
G1 E6.10000 F6000.000
G1 X-18.466 Y46.946 E6.14088 F1800
G1 X-19.237 Y46.935 E6.20381
G1 X-18.048 Y45.747 E6.34105
G1 X-17.985 Y44.902 E6.41021
G1 X-20.008 Y46.925 E6.64380
G1 X-20.779 Y46.915 E6.70673
G1 X-17.921 Y44.057 E7.03667
G1 X-17.857 Y43.212 E7.10584
G1 X-21.550 Y46.905 E7.53213
G1 X-22.321 Y46.895 E7.59507
G1 X-17.793 Y42.367 E8.11772
G1 X-17.730 Y41.523 E8.18688
G1 X-23.092 Y46.884 E8.80589
G1 X-23.863 Y46.874 E8.86882
G1 X-17.666 Y40.678 E9.58418
G1 X-17.602 Y39.833 E9.65334
G1 X-24.633 Y46.864 E10.46506
G1 X-25.404 Y46.854 E10.52800
G1 X-17.539 Y38.988 E11.43606
G1 X-17.475 Y38.143 E11.50523
G1 X-26.175 Y46.844 E12.50965
G1 X-26.946 Y46.833 E12.57259
G1 X-17.411 Y37.298 E13.67336
G1 X-17.347 Y36.454 E13.74253
G1 X-27.717 Y46.823 E14.93966
G1 X-28.488 Y46.813 E15.00259
G1 X-17.284 Y35.609 E16.29608
G1 X-17.220 Y34.764 E16.36524
G1 X-29.259 Y46.803 E17.75508
G1 X-30.030 Y46.792 E17.81802
G1 X-17.156 Y33.919 E19.30422
G1 X-17.093 Y33.074 E19.37338
G1 X-30.801 Y46.782 E20.95593
G1 X-31.200 Y46.400 E21.00103
G1 X-17.029 Y32.229 E22.63700
G1 X-16.965 Y31.384 E22.70616
G1 X-31.193 Y45.612 E24.34870
G1 X-31.186 Y44.824 E24.41303
G1 X-16.901 Y30.540 E26.06214
G1 X-16.838 Y29.695 E26.13130
G1 X-31.179 Y44.036 E27.78698
G1 X-31.173 Y43.248 E27.85131
G1 X-16.774 Y28.850 E29.51356
G1 X-16.710 Y28.005 E29.58272
G1 X-31.166 Y42.461 E31.25154
G1 X-31.159 Y41.673 E31.31587
G1 X-16.647 Y27.160 E32.99126
G1 X-16.583 Y26.315 E33.06042
G1 X-31.152 Y40.885 E34.74238
G1 X-31.145 Y40.097 E34.80671
G1 X-16.519 Y25.471 E36.49524
G1 X-16.455 Y24.626 E36.56440
G1 X-31.138 Y39.309 E38.25950
G1 X-31.132 Y38.521 E38.32382
G1 X-16.392 Y23.781 E40.02550
G1 X-16.328 Y22.936 E40.09466
G1 X-31.125 Y37.733 E41.80290
G1 X-31.118 Y36.945 E41.86722
G1 X-16.264 Y22.091 E43.58203
G1 X-16.201 Y21.246 E43.65120
G1 X-31.111 Y36.157 E45.37258
G1 X-31.104 Y35.369 E45.43690
G1 X-16.137 Y20.401 E47.16485
G1 X-16.073 Y19.557 E47.23402
G1 X-31.098 Y34.581 E48.96854
G1 X-31.091 Y33.793 E49.03286
G1 X-16.009 Y18.712 E50.77395
G1 X-15.946 Y17.867 E50.84311
G1 X-31.084 Y33.005 E52.59078
G1 X-31.077 Y32.217 E52.65510
G1 X-15.882 Y17.022 E54.40933
G1 X-15.818 Y16.177 E54.47849
G1 X-31.070 Y31.429 E56.23929
G1 X-31.064 Y30.641 E56.30362
G1 X-15.754 Y15.332 E58.07099
G1 X-15.691 Y14.488 E58.14015
G1 X-31.057 Y29.854 E59.91409
G1 X-31.050 Y29.066 E59.97842
G1 X-15.627 Y13.643 E61.75893
G1 X-15.563 Y12.798 E61.82809
G1 X-31.043 Y28.278 E63.61517
G1 X-31.036 Y27.490 E63.67949
G1 X-15.500 Y11.953 E65.47314
G1 X-15.436 Y11.108 E65.54231
G1 X-31.030 Y26.702 E67.34253
G1 X-31.023 Y25.914 E67.40685
G1 X-15.372 Y10.263 E69.21364
G1 X-15.308 Y9.419 E69.28280
G1 X-31.016 Y25.126 E71.09617
G1 X-31.009 Y24.338 E71.16049
