; generated by Slic3r 1.0.0RC2 on 2014-04-07 at 20:05:47

; layer_height = 0.25
; perimeters = 3
; top_solid_layers = 3
; bottom_solid_layers = 3
; fill_density = 0.4
; perimeter_speed = 15
; infill_speed = 30
; travel_speed = 130
; nozzle_diameter = 0.35
; filament_diameter = 3
; extrusion_multiplier = 1
; perimeters extrusion width = 0.35mm
; infill extrusion width = 0.39mm
; solid infill extrusion width = 0.39mm
; top infill extrusion width = 0.39mm
; first layer extrusion width = 0.50mm

G21 ; set units to millimeters
M107
M104 S225 ; set temperature
; 8" i3 & i3v 3mm ABS for .35mm Jhead 4-5-14
G28 ; home all axes
M109 S225 ; wait for temperature to be reached
G90 ; use absolute coordinates
G92 E0
M82 ; use absolute distances for extrusion
G1 F1800.000 E-1.00000
G92 E0
G1 Z0.250 F7800.000
G1 X38.190 Y30.474 F7800.000
G1 E1.00000 F1800.000
G1 X38.790 Y29.384 E1.02059 F900.000
G1 X39.600 Y28.434 E1.04124
G1 X40.570 Y27.644 E1.06194
G1 X41.680 Y27.064 E1.08266
G1 X42.880 Y26.704 E1.10339
G1 X44.120 Y26.584 E1.12400
G1 X55.870 Y26.584 E1.31841
G1 X57.110 Y26.704 E1.33902
G1 X58.310 Y27.064 E1.35975
G1 X59.420 Y27.644 E1.38047
G1 X60.390 Y28.434 E1.40117
G1 X61.200 Y29.384 E1.42183
G1 X61.800 Y30.474 E1.44241
G1 X62.190 Y31.664 E1.46313
G1 X62.280 Y32.074 E1.47008
G1 X62.400 Y32.874 E1.48346
G1 X62.470 Y33.904 E1.50054
G1 X62.470 Y147.024 E3.37216
G1 X62.340 Y148.324 E3.39377
G1 X61.950 Y149.564 E3.41528
G1 X61.040 Y151.694 E3.45360
G1 X60.110 Y153.664 E3.48965
G1 X59.450 Y154.934 E3.51333
G1 X58.900 Y155.914 E3.53192
G1 X58.070 Y157.224 E3.55758
G1 X57.270 Y158.284 E3.57955
G1 X56.820 Y158.804 E3.59093
G1 X56.420 Y159.224 E3.60053
G1 X55.680 Y159.914 E3.61727
G1 X54.960 Y160.474 E3.63236
G1 X54.230 Y160.934 E3.64664
G1 X53.880 Y161.124 E3.65322
G1 X52.940 Y161.544 E3.67026
G1 X52.600 Y161.664 E3.67622
G1 X51.610 Y161.924 E3.69316
G1 X50.700 Y162.064 E3.70839
G1 X49.870 Y162.094 E3.72213
G1 X48.780 Y161.994 E3.74025
G1 X48.430 Y161.934 E3.74612
G1 X47.360 Y161.664 E3.76438
G1 X47.050 Y161.554 E3.76982
G1 X46.170 Y161.164 E3.78575
G1 X45.870 Y161.004 E3.79137
G1 X45.100 Y160.514 E3.80647
G1 X44.730 Y160.244 E3.81405
G1 X44.160 Y159.784 E3.82617
G1 X43.790 Y159.444 E3.83448
G1 X43.170 Y158.804 E3.84923
G1 X42.340 Y157.794 E3.87086
G1 X41.980 Y157.304 E3.88092
G1 X41.620 Y156.754 E3.89179
G1 X41.040 Y155.824 E3.90993
G1 X40.480 Y154.834 E3.92875
G1 X39.840 Y153.594 E3.95183
G1 X38.930 Y151.644 E3.98744
G1 X38.040 Y149.544 E4.02517
G1 X37.660 Y148.314 E4.04647
G1 X37.530 Y147.024 E4.06793
G1 X37.530 Y33.904 E5.93954
G1 X37.580 Y33.024 E5.95412
G1 X37.710 Y32.074 E5.96999
G1 X37.800 Y31.664 E5.97693
G1 X38.168 Y30.541 E5.99649
G1 F1800.000 E4.99649
G92 E0
G1 X45.186 Y34.234 F7800.000
G1 E1.00000 F1800.000
G1 X54.814 Y34.234 E1.15931 F900.000
G1 X54.814 Y146.800 E3.02175
G1 X54.006 Y148.683 E3.05566
G1 X53.651 Y149.460 E3.06979
G1 X52.990 Y150.805 E3.09459
G1 X52.684 Y151.381 E3.10538
G1 X52.112 Y152.362 E3.12417
G1 X51.440 Y153.347 E3.14390
G1 X51.311 Y153.306 E3.14614
G1 X51.311 Y111.067 E3.84500
G1 X48.689 Y111.067 E3.88837
G1 X48.689 Y153.309 E4.58728
G1 X48.557 Y153.350 E4.58958
G1 X47.837 Y152.280 E4.61092
G1 X47.274 Y151.304 E4.62956
G1 X46.657 Y150.104 E4.65188
G1 X46.325 Y149.408 E4.66464
G1 X45.609 Y147.807 E4.69365
G1 X45.186 Y146.800 E4.71174
G1 X45.186 Y34.304 E6.57301
G1 X55.282 Y33.766 F7800.000
G1 X55.282 Y146.890 E8.44469 F900.000
G1 X54.811 Y148.014 E8.46485
G1 X54.075 Y149.658 E8.49466
G1 X53.406 Y151.019 E8.51975
G1 X52.795 Y152.136 E8.54082
G1 X52.234 Y153.032 E8.55831
G1 X51.714 Y153.737 E8.57280
G1 X51.360 Y154.139 E8.58166
G1 X50.843 Y154.632 E8.59348
G1 X50.843 Y111.535 E9.30655
G1 X49.157 Y111.535 E9.33444
G1 X49.157 Y154.648 E10.04776
G1 X48.573 Y154.069 E10.06136
G1 X48.219 Y153.654 E10.07039
G1 X47.709 Y152.947 E10.08481
G1 X47.158 Y152.054 E10.10218
G1 X46.556 Y150.947 E10.12303
G1 X45.901 Y149.606 E10.14772
G1 X45.180 Y147.993 E10.17695
G1 X44.718 Y146.890 E10.19673
G1 X44.718 Y33.766 E12.06841
G1 X55.212 Y33.766 E12.24204
G1 X55.742 Y33.699 F7800.000
G1 X55.750 Y146.981 E14.11634 F630.000
G1 X54.862 Y149.061 E14.15376
G1 X54.151 Y150.581 E14.18152
G1 X53.505 Y151.830 E14.20480
G1 X52.904 Y152.860 E14.22452
G1 X52.347 Y153.684 E14.24097
G1 X51.952 Y154.183 E14.25150
G1 X51.573 Y154.589 E14.26070
G1 X51.247 Y154.876 E14.26789
G1 X51.006 Y155.050 E14.27280
G1 X50.771 Y155.186 E14.27730
G1 X50.375 Y155.378 E14.28457
G1 X50.375 Y112.003 E15.00223
G1 X49.625 Y112.003 E15.01464
G1 X49.625 Y155.372 E15.73219
G1 X49.051 Y155.086 E15.74280
G1 X48.708 Y154.840 E15.74977
G1 X48.474 Y154.634 E15.75494
G1 X48.106 Y154.250 E15.76374
G1 X47.852 Y153.945 E15.77031
G1 X47.320 Y153.207 E15.78537
G1 X46.753 Y152.289 E15.80322
G1 X46.452 Y151.751 E15.81341
G1 X45.818 Y150.517 E15.83637
G1 X45.121 Y149.023 E15.86365
G1 X44.250 Y146.981 E15.90037
G1 X44.252 Y33.801 E17.77298
G1 X44.307 Y33.299 E17.78134
G1 X55.693 Y33.299 E17.96974
G1 X55.736 Y33.629 E17.97525
G1 X55.347 Y33.949 F7800.000
G1 X53.787 Y34.550 F7800.000
G1 X54.499 Y35.262 E17.99199 F1800.000
G1 X54.499 Y35.927 E18.00305
G1 X53.122 Y34.550 E18.03544
G1 X52.457 Y34.550 E18.04650
G1 X54.499 Y36.592 E18.09452
G1 X54.499 Y37.257 E18.10558
G1 X51.792 Y34.550 E18.16925
G1 X51.127 Y34.550 E18.18031
G1 X54.499 Y37.922 E18.25962
G1 X54.499 Y38.587 E18.27068
G1 X50.462 Y34.550 E18.36563
G1 X49.797 Y34.550 E18.37669
G1 X54.499 Y39.252 E18.48728
G1 X54.499 Y39.917 E18.49834
G1 X49.132 Y34.550 E18.62458
G1 X48.467 Y34.550 E18.63564
G1 X54.499 Y40.582 E18.77751
G1 X54.499 Y41.247 E18.78857
G1 X47.802 Y34.550 E18.94609
G1 X47.137 Y34.550 E18.95715
G1 X54.499 Y41.912 E19.13030
G1 X54.499 Y42.577 E19.14136
G1 X46.472 Y34.550 E19.33016
G1 X45.807 Y34.550 E19.34122
G1 X54.499 Y43.242 E19.54566
G1 X54.499 Y43.907 E19.55672
G1 X45.501 Y34.910 E19.76835
G1 X45.501 Y35.575 E19.77941
G1 X54.499 Y44.572 E19.99103
G1 X54.499 Y45.237 E20.00209
G1 X45.501 Y36.240 E20.21372
G1 X45.501 Y36.905 E20.22478
G1 X54.499 Y45.902 E20.43640
G1 X54.499 Y46.567 E20.44746
G1 X45.501 Y37.570 E20.65908
G1 X45.501 Y38.235 E20.67014
G1 X54.499 Y47.232 E20.88177
G1 X54.499 Y47.897 E20.89283
G1 X45.501 Y38.900 E21.10445
G1 X45.501 Y39.565 E21.11551
G1 X54.499 Y48.562 E21.32713
G1 X54.499 Y49.227 E21.33819
G1 X45.501 Y40.230 E21.54982
G1 X45.501 Y40.895 E21.56088
G1 X54.499 Y49.892 E21.77250
G1 X54.499 Y50.557 E21.78356
G1 X45.501 Y41.560 E21.99519
G1 X45.501 Y42.225 E22.00625
G1 X54.499 Y51.222 E22.21787
G1 X54.499 Y51.887 E22.22893
G1 X45.501 Y42.890 E22.44055
G1 X45.501 Y43.555 E22.45161
G1 X54.499 Y52.552 E22.66324
G1 X54.499 Y53.217 E22.67430
G1 X45.501 Y44.220 E22.88592
G1 X45.501 Y44.885 E22.89698
G1 X54.499 Y53.882 E23.10860
G1 X54.499 Y54.547 E23.11966
G1 X45.501 Y45.550 E23.33129
G1 X45.501 Y46.215 E23.34235
G1 X54.499 Y55.212 E23.55397
G1 X54.499 Y55.877 E23.56503
G1 X45.501 Y46.880 E23.77666
G1 X45.501 Y47.545 E23.78772
G1 X54.499 Y56.542 E23.99934
G1 X54.499 Y57.207 E24.01040
G1 X45.501 Y48.210 E24.22202
G1 X45.501 Y48.875 E24.23308
G1 X54.499 Y57.872 E24.44471
G1 X54.499 Y58.537 E24.45577
G1 X45.501 Y49.540 E24.66739
G1 X45.501 Y50.205 E24.67845
G1 X54.499 Y59.202 E24.89007
G1 X54.499 Y59.867 E24.90113
G1 X45.501 Y50.870 E25.11276
G1 X45.501 Y51.535 E25.12382
G1 X54.499 Y60.533 E25.33544
G1 X54.499 Y61.198 E25.34650
G1 X45.501 Y52.200 E25.55813
G1 X45.501 Y52.865 E25.56919
G1 X54.499 Y61.863 E25.78081
G1 X54.499 Y62.528 E25.79187
G1 X45.501 Y53.530 E26.00349
G1 X45.501 Y54.195 E26.01455
G1 X54.499 Y63.193 E26.22618
G1 X54.499 Y63.858 E26.23724
G1 X45.501 Y54.860 E26.44886
G1 X45.501 Y55.525 E26.45992
G1 X54.499 Y64.523 E26.67154
G1 X54.499 Y65.188 E26.68261
G1 X45.501 Y56.190 E26.89423
G1 X45.501 Y56.855 E26.90529
G1 X54.499 Y65.853 E27.11691
G1 X54.499 Y66.518 E27.12797
G1 X45.501 Y57.520 E27.33960
G1 X45.501 Y58.185 E27.35066
G1 X54.499 Y67.183 E27.56228
G1 X54.499 Y67.848 E27.57334
G1 X45.501 Y58.850 E27.78496
G1 X45.501 Y59.515 E27.79602
G1 X54.499 Y68.513 E28.00765
G1 X54.499 Y69.178 E28.01871
G1 X45.501 Y60.180 E28.23033
G1 X45.501 Y60.845 E28.24139
G1 X54.499 Y69.843 E28.45302
G1 X54.499 Y70.508 E28.46408
G1 X45.501 Y61.510 E28.67570
G1 X45.501 Y62.175 E28.68676
G1 X54.499 Y71.173 E28.89838
G1 X54.499 Y71.838 E28.90944
G1 X45.501 Y62.840 E29.12107
G1 X45.501 Y63.505 E29.13213
G1 X54.499 Y72.503 E29.34375
G1 X54.499 Y73.168 E29.35481
G1 X45.501 Y64.170 E29.56643
G1 X45.501 Y64.835 E29.57749
G1 X54.499 Y73.833 E29.78912
G1 X54.499 Y74.498 E29.80018
G1 X45.501 Y65.500 E30.01180
G1 X45.501 Y66.165 E30.02286
G1 X54.499 Y75.163 E30.23449
G1 X54.499 Y75.828 E30.24555
G1 X45.501 Y66.830 E30.45717
G1 X45.501 Y67.495 E30.46823
G1 X54.499 Y76.493 E30.67985
G1 X54.499 Y77.158 E30.69091
G1 X45.501 Y68.161 E30.90254
G1 X45.501 Y68.826 E30.91360
G1 X54.499 Y77.823 E31.12522
G1 X54.499 Y78.488 E31.13628
G1 X45.501 Y69.491 E31.34790
G1 X45.501 Y70.156 E31.35896
G1 X54.499 Y79.153 E31.57059
G1 X54.499 Y79.818 E31.58165
G1 X45.501 Y70.821 E31.79327
G1 X45.501 Y71.486 E31.80433
G1 X54.499 Y80.483 E32.01596
G1 X54.499 Y81.148 E32.02702
G1 X45.501 Y72.151 E32.23864
G1 X45.501 Y72.816 E32.24970
G1 X54.499 Y81.813 E32.46132
G1 X54.499 Y82.478 E32.47238
G1 X45.501 Y73.481 E32.68401
G1 X45.501 Y74.146 E32.69507
G1 X54.499 Y83.143 E32.90669
G1 X54.499 Y83.808 E32.91775
G1 X45.501 Y74.811 E33.12937
G1 X45.501 Y75.476 E33.14043
G1 X54.499 Y84.473 E33.35206
G1 X54.499 Y85.138 E33.36312
G1 X45.501 Y76.141 E33.57474
G1 X45.501 Y76.806 E33.58580
G1 X54.499 Y85.803 E33.79743
G1 X54.499 Y86.468 E33.80849
G1 X45.501 Y77.471 E34.02011
G1 X45.501 Y78.136 E34.03117
G1 X54.499 Y87.133 E34.24279
G1 X54.499 Y87.798 E34.25385
G1 X45.501 Y78.801 E34.46548
G1 X45.501 Y79.466 E34.47654
G1 X54.499 Y88.463 E34.68816
G1 X54.499 Y89.128 E34.69922
G1 X45.501 Y80.131 E34.91084
G1 X45.501 Y80.796 E34.92190
G1 X54.499 Y89.793 E35.13353
G1 X54.499 Y90.458 E35.14459
G1 X45.501 Y81.461 E35.35621
G1 X45.501 Y82.126 E35.36727
G1 X54.499 Y91.123 E35.57890
G1 X54.499 Y91.788 E35.58996
G1 X45.501 Y82.791 E35.80158
G1 X45.501 Y83.456 E35.81264
G1 X54.499 Y92.453 E36.02426
G1 X54.499 Y93.118 E36.03532
G1 X45.501 Y84.121 E36.24695
G1 X45.501 Y84.786 E36.25801
G1 X54.499 Y93.784 E36.46963
G1 X54.499 Y94.449 E36.48069
G1 X45.501 Y85.451 E36.69231
G1 X45.501 Y86.116 E36.70337
G1 X54.499 Y95.114 E36.91500
G1 X54.499 Y95.779 E36.92606
G1 X45.501 Y86.781 E37.13768
G1 X45.501 Y87.446 E37.14874
G1 X54.499 Y96.444 E37.36037
G1 X54.499 Y97.109 E37.37143
G1 X45.501 Y88.111 E37.58305
G1 X45.501 Y88.776 E37.59411
G1 X54.499 Y97.774 E37.80573
G1 X54.499 Y98.439 E37.81679
G1 X45.501 Y89.441 E38.02842
G1 X45.501 Y90.106 E38.03948
G1 X54.499 Y99.104 E38.25110
G1 X54.499 Y99.769 E38.26216
G1 X45.501 Y90.771 E38.47378
G1 X45.501 Y91.436 E38.48485
G1 X54.499 Y100.434 E38.69647
G1 X54.499 Y101.099 E38.70753
G1 X45.501 Y92.101 E38.91915
G1 X45.501 Y92.766 E38.93021
G1 X54.499 Y101.764 E39.14184
G1 X54.499 Y102.429 E39.15290
G1 X45.501 Y93.431 E39.36452
G1 X45.501 Y94.096 E39.37558
G1 X54.499 Y103.094 E39.58720
G1 X54.499 Y103.759 E39.59826
G1 X45.501 Y94.761 E39.80989
G1 X45.501 Y95.426 E39.82095
G1 X54.499 Y104.424 E40.03257
G1 X54.499 Y105.089 E40.04363
G1 X45.501 Y96.091 E40.25526
G1 X45.501 Y96.756 E40.26632
G1 X54.499 Y105.754 E40.47794
G1 X54.499 Y106.419 E40.48900
G1 X45.501 Y97.421 E40.70062
G1 X45.501 Y98.086 E40.71168
G1 X54.499 Y107.084 E40.92331
G1 X54.499 Y107.749 E40.93437
G1 X45.501 Y98.751 E41.14599
G1 X45.501 Y99.416 E41.15705
G1 X54.499 Y108.414 E41.36867
G1 X54.499 Y109.079 E41.37973
G1 X45.501 Y100.081 E41.59136
G1 X45.501 Y100.746 E41.60242
G1 X54.499 Y109.744 E41.81404
G1 X54.499 Y110.409 E41.82510
G1 X45.501 Y101.411 E42.03673
G1 X45.501 Y102.077 E42.04779
G1 X54.499 Y111.074 E42.25941
G1 X54.499 Y111.739 E42.27047
G1 X45.501 Y102.742 E42.48209
G1 X45.501 Y103.407 E42.49315
G1 X54.499 Y112.404 E42.70478
G1 X54.499 Y113.069 E42.71584
G1 X45.501 Y104.072 E42.92746
G1 X45.501 Y104.737 E42.93852
G1 X51.282 Y110.517 E43.07449
G1 X50.617 Y110.517 E43.08555
G1 X45.501 Y105.402 E43.20588
G1 X45.501 Y106.067 E43.21694
G1 X49.952 Y110.517 E43.32162
G1 X49.287 Y110.517 E43.33268
G1 X45.501 Y106.732 E43.42172
G1 X45.501 Y107.397 E43.43279
G1 X48.622 Y110.517 E43.50619
G1 X48.140 Y110.700 E43.51476
G1 X45.501 Y108.062 E43.57682
G1 X45.501 Y108.727 E43.58788
G1 X48.140 Y111.365 E43.64995
G1 X48.140 Y112.030 E43.66101
G1 X45.501 Y109.392 E43.72307
G1 X45.501 Y110.057 E43.73413
G1 X48.140 Y112.695 E43.79619
G1 X48.140 Y113.360 E43.80725
G1 X45.501 Y110.722 E43.86931
G1 X45.501 Y111.387 E43.88037
G1 X48.140 Y114.025 E43.94243
G1 X48.140 Y114.690 E43.95349
G1 X45.501 Y112.052 E44.01555
G1 X45.501 Y112.717 E44.02661
G1 X48.140 Y115.355 E44.08867
G1 X48.140 Y116.020 E44.09973
G1 X45.501 Y113.382 E44.16179
G1 X45.501 Y114.047 E44.17285
G1 X48.140 Y116.685 E44.23491
G1 X48.140 Y117.350 E44.24597
G1 X45.501 Y114.712 E44.30803
G1 X45.501 Y115.377 E44.31909
G1 X48.140 Y118.016 E44.38115
G1 X48.140 Y118.681 E44.39221
G1 X45.501 Y116.042 E44.45427
G1 X45.501 Y116.707 E44.46533
G1 X48.140 Y119.346 E44.52739
G1 X48.140 Y120.011 E44.53845
G1 X45.501 Y117.372 E44.60051
G1 X45.501 Y118.037 E44.61157
G1 X48.140 Y120.676 E44.67363
G1 X48.140 Y121.341 E44.68469
G1 X45.501 Y118.702 E44.74675
G1 X45.501 Y119.367 E44.75781
G1 X48.140 Y122.006 E44.81988
G1 X48.140 Y122.671 E44.83094
G1 X45.501 Y120.032 E44.89300
G1 X45.501 Y120.697 E44.90406
G1 X48.140 Y123.336 E44.96612
G1 X48.140 Y124.001 E44.97718
G1 X45.501 Y121.362 E45.03924
G1 X45.501 Y122.027 E45.05030
G1 X48.140 Y124.666 E45.11236
G1 X48.140 Y125.331 E45.12342
G1 X45.501 Y122.692 E45.18548
G1 X45.501 Y123.357 E45.19654
G1 X48.140 Y125.996 E45.25860
G1 X48.140 Y126.661 E45.26966
G1 X45.501 Y124.022 E45.33172
G1 X45.501 Y124.687 E45.34278
G1 X48.140 Y127.326 E45.40484
G1 X48.140 Y127.991 E45.41590
G1 X45.501 Y125.352 E45.47796
G1 X45.501 Y126.017 E45.48902
G1 X48.140 Y128.656 E45.55108
G1 X48.140 Y129.321 E45.56214
G1 X45.501 Y126.682 E45.62420
G1 X45.501 Y127.347 E45.63526
G1 X48.140 Y129.986 E45.69732
G1 X48.140 Y130.651 E45.70838
G1 X45.501 Y128.012 E45.77044
G1 X45.501 Y128.677 E45.78150
G1 X48.140 Y131.316 E45.84356
G1 X48.140 Y131.981 E45.85462
G1 X45.501 Y129.342 E45.91668
G1 X45.501 Y130.007 E45.92774
G1 X48.140 Y132.646 E45.98981
G1 X48.140 Y133.311 E46.00087
G1 X45.501 Y130.672 E46.06293
G1 X45.501 Y131.337 E46.07399
G1 X48.140 Y133.976 E46.13605
G1 X48.140 Y134.641 E46.14711
G1 X45.501 Y132.002 E46.20917
G1 X45.501 Y132.667 E46.22023
G1 X48.140 Y135.306 E46.28229
G1 X48.140 Y135.971 E46.29335
G1 X45.501 Y133.332 E46.35541
G1 X45.501 Y133.997 E46.36647
G1 X48.140 Y136.636 E46.42853
G1 X48.140 Y137.301 E46.43959
G1 X45.501 Y134.662 E46.50165
G1 X45.501 Y135.328 E46.51271
G1 X48.140 Y137.966 E46.57477
G1 X48.140 Y138.631 E46.58583
G1 X45.501 Y135.993 E46.64789
G1 X45.501 Y136.658 E46.65895
G1 X48.140 Y139.296 E46.72101
G1 X48.140 Y139.961 E46.73207
G1 X45.501 Y137.323 E46.79413
G1 X45.501 Y137.988 E46.80519
G1 X48.140 Y140.626 E46.86725
G1 X48.140 Y141.291 E46.87831
G1 X45.501 Y138.653 E46.94037
G1 X45.501 Y139.318 E46.95143
G1 X48.140 Y141.956 E47.01349
G1 X48.140 Y142.621 E47.02455
G1 X45.501 Y139.983 E47.08661
G1 X45.501 Y140.648 E47.09767
G1 X48.140 Y143.286 E47.15974
G1 X48.140 Y143.951 E47.17080
G1 X45.501 Y141.313 E47.23286
G1 X45.501 Y141.978 E47.24392
G1 X48.140 Y144.616 E47.30598
G1 X48.140 Y145.281 E47.31704
G1 X45.501 Y142.643 E47.37910
G1 X45.501 Y143.308 E47.39016
G1 X48.140 Y145.946 E47.45222
G1 X48.140 Y146.611 E47.46328
G1 X45.501 Y143.973 E47.52534
G1 X45.501 Y144.638 E47.53640
G1 X48.140 Y147.276 E47.59846
G1 X48.140 Y147.941 E47.60952
G1 X45.501 Y145.303 E47.67158
G1 X45.501 Y145.968 E47.68264
G1 X48.140 Y148.606 E47.74470
G1 X48.140 Y149.271 E47.75576
G1 X45.501 Y146.633 E47.81782
G1 X45.924 Y147.720 F7800.000
G1 X48.140 Y149.936 E47.86995 F1800.000
G1 X47.054 Y150.180 E47.88846
G1 X48.140 Y151.267 E47.91401
G1 X47.810 Y151.602 E47.92183
G1 X47.894 Y151.686 E47.92379
G1 X48.140 Y150.601 F7800.000
G1 X46.441 Y148.903 E47.96374 F1800.000
G1 F1800.000 E46.96374
G92 E0
