; generated by Slic3r 1.0.0RC2 on 2014-05-31 at 20:21:51

; layer_height = .2
; perimeters = 3
; top_solid_layers = 3
; bottom_solid_layers = 1
; fill_density = .3
; perimeter_speed = 30
; infill_speed = 30
; travel_speed = 200
; nozzle_diameter = 0.5
; filament_diameter = 1.75
; extrusion_multiplier = 1
; perimeters extrusion width = 0.45mm
; infill extrusion width = 0.45mm
; solid infill extrusion width = 0.45mm
; top infill extrusion width = 0.40mm
; support material extrusion width = 0.45mm
; first layer extrusion width = 0.60mm

G21 ; set units to millimeters
M107
G28
M104 S210,0
M190 S60
M109 S210,0
; BEGINNING OF HEAD MOVEMENT WARNING TONES
M120 S4 P10
G4 P40
M120 S4 P10
G4 P40
M120 S4 P10
G4 P40
M120 S4 P10
G4 P40
M120 S4 P10
G4 P40
M117 KEEP HANDS AWAY
G4 S3
; END OF HEAD WARNING TONES
G90 ; use absolute coordinates
G92 E0
M82 ; use absolute distances for extrusion
T0
G92 E0
G1 F6000.000 E-5.40000
G1 Z4.350 F12000.000
G92 E0
G1 X-18.900 Y-18.060 F12000.000
G1 Z0.350 F12000.000
G1 E5.50000 F6000.000
G1 X-19.910 Y-18.190 E5.56827 F900
G1 X-20.860 Y-18.580 E5.63712
G1 X-21.670 Y-19.210 E5.70592
G1 X-22.300 Y-20.020 E5.77471
G1 X-22.690 Y-20.970 E5.84356
G1 X-22.820 Y-21.980 E5.91183
G1 X-22.820 Y-27.230 E6.26380
G1 X-22.690 Y-28.240 E6.33207
G1 X-22.300 Y-29.190 E6.40092
G1 X-21.670 Y-30.000 E6.46972
G1 X-20.860 Y-30.630 E6.53851
G1 X-19.910 Y-31.020 E6.60736
G1 X-18.900 Y-31.150 E6.67563
G1 X21.100 Y-31.150 E9.35732
G1 X22.110 Y-31.020 E9.42560
G1 X23.060 Y-30.630 E9.49444
G1 X23.870 Y-30.000 E9.56324
G1 X24.500 Y-29.190 E9.63204
G1 X24.890 Y-28.240 E9.70088
G1 X25.020 Y-27.230 E9.76915
G1 X25.020 Y-21.980 E10.12113
G1 X24.890 Y-20.970 E10.18940
G1 X24.500 Y-20.020 E10.25825
G1 X23.870 Y-19.210 E10.32704
G1 X23.060 Y-18.580 E10.39584
G1 X22.110 Y-18.190 E10.46469
G1 X21.100 Y-18.060 E10.53296
G1 X-18.831 Y-18.060 E13.21001
G1 X-18.900 Y-18.520 F12000.000
G1 X-19.970 Y-18.690 E13.28265 F900
G1 X-20.930 Y-19.180 E13.35491
G1 X-21.700 Y-19.950 E13.42791
G1 X-22.190 Y-20.910 E13.50017
G1 X-22.360 Y-21.980 E13.57281
G1 X-22.360 Y-27.230 E13.92478
G1 X-22.190 Y-28.300 E13.99742
G1 X-21.700 Y-29.260 E14.06968
G1 X-20.930 Y-30.030 E14.14268
G1 X-19.970 Y-30.520 E14.21494
G1 X-18.900 Y-30.690 E14.28758
G1 X21.100 Y-30.690 E16.96927
G1 X22.170 Y-30.520 E17.04190
G1 X23.130 Y-30.030 E17.11416
G1 X23.900 Y-29.260 E17.18717
G1 X24.390 Y-28.300 E17.25943
G1 X24.560 Y-27.230 E17.33206
G1 X24.560 Y-21.980 E17.68403
G1 X24.390 Y-20.910 E17.75667
G1 X23.900 Y-19.950 E17.82893
G1 X23.130 Y-19.180 E17.90193
G1 X22.170 Y-18.690 E17.97419
G1 X21.100 Y-18.520 E18.04683
G1 X-18.831 Y-18.520 E20.72388
G1 F6000.000 E15.32388
G1 Z4.550 F12000.000
G92 E0
G1 X-17.754 Y-23.123 F12000.000
G1 Z0.550 F12000.000
G1 E5.50000 F6000.000
G1 X-17.754 Y-26.077 E5.74114 F1800
G1 X19.954 Y-26.077 E8.81927
G1 X19.954 Y-23.123 E9.06041
G1 X-17.684 Y-23.123 E12.13290
G1 X-18.214 Y-22.662 F12000.000
G1 X-18.214 Y-26.538 E12.44927 F1800
G1 X20.414 Y-26.538 E15.60262
G1 X20.414 Y-22.662 E15.91898
G1 X-18.145 Y-22.662 E19.06669
G1 X-18.675 Y-22.202 F12000.000
G1 X-18.675 Y-26.999 E19.45827 F1800
G1 X20.875 Y-26.999 E22.68684
G1 X20.875 Y-22.202 E23.07843
G1 X-18.606 Y-22.202 E26.30136
G1 X-18.445 Y-22.601 F12000.000
G1 F6000.000 E20.90136
G1 Z4.550 F12000.000
G92 E0
G1 X-17.447 Y-25.715 F12000.000
G1 Z0.550 F12000.000
G1 E5.50000 F6000.000
G1 X-17.392 Y-25.771 E5.50642 F1800
G1 X-16.605 Y-25.771 E5.57062
G1 X-17.447 Y-24.929 E5.66784
G1 X-17.447 Y-24.142 E5.73205
G1 X-15.819 Y-25.771 E5.92006
G1 X-15.032 Y-25.771 E5.98427
G1 X-17.374 Y-23.429 E6.25460
G1 X-16.587 Y-23.429 E6.31880
G1 X-14.246 Y-25.771 E6.58913
G1 X-13.459 Y-25.771 E6.65333
G1 X-15.801 Y-23.429 E6.92366
G1 X-15.014 Y-23.429 E6.98786
G1 X-12.673 Y-25.771 E7.25819
G1 X-11.886 Y-25.771 E7.32239
G1 X-14.228 Y-23.429 E7.59272
G1 X-13.441 Y-23.429 E7.65693
G1 X-11.100 Y-25.771 E7.92725
G1 X-10.313 Y-25.771 E7.99146
G1 X-12.655 Y-23.429 E8.26178
G1 X-11.868 Y-23.429 E8.32599
G1 X-9.527 Y-25.771 E8.59632
G1 X-8.740 Y-25.771 E8.66052
G1 X-11.082 Y-23.429 E8.93085
G1 X-10.295 Y-23.429 E8.99505
G1 X-7.954 Y-25.771 E9.26538
G1 X-7.167 Y-25.771 E9.32958
G1 X-9.509 Y-23.429 E9.59991
G1 X-8.722 Y-23.429 E9.66411
G1 X-6.381 Y-25.771 E9.93444
G1 X-5.594 Y-25.771 E9.99865
G1 X-7.936 Y-23.429 E10.26897
G1 X-7.149 Y-23.429 E10.33318
G1 X-4.808 Y-25.771 E10.60350
G1 X-4.021 Y-25.771 E10.66771
G1 X-6.363 Y-23.429 E10.93804
G1 X-5.576 Y-23.429 E11.00224
G1 X-3.235 Y-25.771 E11.27257
G1 X-2.448 Y-25.771 E11.33677
G1 X-4.790 Y-23.429 E11.60710
G1 X-4.003 Y-23.429 E11.67130
G1 X-1.662 Y-25.771 E11.94163
G1 X-0.875 Y-25.771 E12.00583
G1 X-3.217 Y-23.429 E12.27616
G1 X-2.430 Y-23.429 E12.34037
G1 X-0.089 Y-25.771 E12.61069
G1 X0.698 Y-25.771 E12.67490
G1 X-1.644 Y-23.429 E12.94522
G1 X-0.857 Y-23.429 E13.00943
G1 X1.484 Y-25.771 E13.27976
G1 X2.271 Y-25.771 E13.34396
G1 X-0.071 Y-23.429 E13.61429
G1 X0.716 Y-23.429 E13.67849
G1 X3.057 Y-25.771 E13.94882
G1 X3.844 Y-25.771 E14.01302
G1 X1.502 Y-23.429 E14.28335
G1 X2.289 Y-23.429 E14.34755
G1 X4.630 Y-25.771 E14.61788
G1 X5.417 Y-25.771 E14.68209
G1 X3.075 Y-23.429 E14.95241
G1 X3.862 Y-23.429 E15.01662
G1 X6.203 Y-25.771 E15.28694
G1 X6.990 Y-25.771 E15.35115
G1 X4.648 Y-23.429 E15.62148
G1 X5.435 Y-23.429 E15.68568
G1 X7.776 Y-25.771 E15.95601
G1 X8.563 Y-25.771 E16.02021
G1 X6.221 Y-23.429 E16.29054
G1 X7.008 Y-23.429 E16.35474
G1 X9.349 Y-25.771 E16.62507
G1 X10.136 Y-25.771 E16.68927
G1 X7.794 Y-23.429 E16.95960
G1 X8.581 Y-23.429 E17.02381
G1 X10.922 Y-25.771 E17.29413
G1 X11.709 Y-25.771 E17.35834
G1 X9.367 Y-23.429 E17.62866
G1 X10.154 Y-23.429 E17.69287
G1 X12.495 Y-25.771 E17.96320
G1 X13.282 Y-25.771 E18.02740
G1 X10.940 Y-23.429 E18.29773
G1 X11.727 Y-23.429 E18.36193
G1 X14.068 Y-25.771 E18.63226
G1 X14.855 Y-25.771 E18.69646
G1 X12.513 Y-23.429 E18.96679
G1 X13.300 Y-23.429 E19.03099
G1 X15.641 Y-25.771 E19.30132
G1 X16.428 Y-25.771 E19.36553
G1 X14.086 Y-23.429 E19.63585
G1 X14.873 Y-23.429 E19.70006
G1 X17.214 Y-25.771 E19.97038
G1 X18.001 Y-25.771 E20.03459
G1 X15.659 Y-23.429 E20.30492
G1 X16.446 Y-23.429 E20.36912
G1 X18.787 Y-25.771 E20.63945
G1 X19.574 Y-25.771 E20.70365
G1 X17.232 Y-23.429 E20.97398
G1 X18.019 Y-23.429 E21.03818
G1 X19.647 Y-25.058 E21.22620
G1 X19.647 Y-24.271 E21.29040
G1 X18.805 Y-23.429 E21.38762
G1 X19.592 Y-23.429 E21.45183
G1 X19.647 Y-23.485 E21.45825
M106 S255
G1 F6000.000 E16.05825
G1 Z4.750 F12000.000
G92 E0
G1 X20.414 Y-22.914 F12000.000
G1 Z0.750 F12000.000
G1 E5.50000 F6000.000
G1 X20.414 Y-22.233 E5.52609 F607.580
G1 X-18.214 Y-22.233 E7.00595
G1 X-18.214 Y-22.914 E7.03204
G1 X20.345 Y-22.914 E8.50925
G1 X20.875 Y-23.375 F12000.000
G1 X20.875 Y-21.977 E8.56282 F607.580
M106 S255
G1 X20.875 Y-21.773 E8.57949 F1800
G1 X-18.675 Y-21.773 E11.80806
G1 X-18.675 Y-21.977 E11.82472
M106 S255
G1 X-18.675 Y-23.375 E11.87830 F607.580
G1 X20.806 Y-23.375 E13.39080
G1 X20.645 Y-22.976 F12000.000
G1 F6000.000 E7.99080
G1 Z4.750 F12000.000
G92 E0
G1 X20.414 Y-26.286 F12000.000
G1 Z0.750 F12000.000
G1 E5.50000 F6000.000
G1 X-18.214 Y-26.286 E6.97985 F607.580
G1 X-18.214 Y-26.967 E7.00595
G1 X20.414 Y-26.967 E8.48580
G1 X20.414 Y-26.355 E8.50925
G1 X20.875 Y-25.825 F12000.000
G1 X-18.675 Y-25.825 E10.02440 F607.580
G1 X-18.675 Y-27.224 E10.07798
M106 S255
G1 X-18.675 Y-27.428 E10.09464 F1800
G1 X20.875 Y-27.428 E13.32321
G1 X20.875 Y-27.224 E13.33988
M106 S255
G1 X20.875 Y-25.894 E13.39081 F607.580
G1 X20.476 Y-26.056 F12000.000
G1 X20.106 Y-26.634 F12000.000
G1 X20.082 Y-26.659 E13.39153 F607.580
G1 X19.795 Y-26.594 E13.39762 F607.580
G1 X19.729 Y-26.659 E13.39953 F607.580
G1 X19.443 Y-26.594 E13.40562 F607.580
G1 X19.377 Y-26.659 E13.40753 F607.580
G1 X19.091 Y-26.594 E13.41362 F607.580
G1 X19.025 Y-26.659 E13.41554 F607.580
G1 X18.738 Y-26.594 E13.42163 F607.580
G1 X18.673 Y-26.659 E13.42354 F607.580
G1 X18.386 Y-26.594 E13.42963 F607.580
G1 X18.321 Y-26.659 E13.43154 F607.580
G1 X18.034 Y-26.594 E13.43763 F607.580
G1 X17.969 Y-26.659 E13.43954 F607.580
G1 X17.682 Y-26.594 E13.44563 F607.580
G1 X17.617 Y-26.659 E13.44754 F607.580
G1 X17.330 Y-26.594 E13.45363 F607.580
G1 X17.265 Y-26.659 E13.45555 F607.580
G1 X16.978 Y-26.594 E13.46164 F607.580
G1 X16.913 Y-26.659 E13.46355 F607.580
G1 X16.626 Y-26.594 E13.46964 F607.580
G1 X16.560 Y-26.659 E13.47155 F607.580
G1 X16.274 Y-26.594 E13.47764 F607.580
G1 X16.208 Y-26.659 E13.47955 F607.580
G1 X15.921 Y-26.594 E13.48564 F607.580
G1 X15.856 Y-26.659 E13.48755 F607.580
G1 X15.569 Y-26.594 E13.49364 F607.580
G1 X15.504 Y-26.659 E13.49555 F607.580
G1 X15.217 Y-26.594 E13.50164 F607.580
G1 X15.152 Y-26.659 E13.50356 F607.580
G1 X14.865 Y-26.594 E13.50965 F607.580
G1 X14.800 Y-26.659 E13.51156 F607.580
G1 X14.513 Y-26.594 E13.51765 F607.580
G1 X14.448 Y-26.659 E13.51956 F607.580
G1 X14.161 Y-26.594 E13.52565 F607.580
G1 X14.096 Y-26.659 E13.52756 F607.580
G1 X13.809 Y-26.594 E13.53365 F607.580
G1 X13.743 Y-26.659 E13.53556 F607.580
G1 X13.457 Y-26.594 E13.54165 F607.580
G1 X13.391 Y-26.659 E13.54356 F607.580
G1 X13.105 Y-26.594 E13.54965 F607.580
G1 X13.039 Y-26.659 E13.55157 F607.580
G1 X12.752 Y-26.594 E13.55766 F607.580
G1 X12.687 Y-26.659 E13.55957 F607.580
G1 X12.400 Y-26.594 E13.56566 F607.580
G1 X12.335 Y-26.659 E13.56757 F607.580
G1 X12.048 Y-26.594 E13.57366 F607.580
G1 X11.983 Y-26.659 E13.57557 F607.580
G1 X11.696 Y-26.594 E13.58166 F607.580
G1 X11.631 Y-26.659 E13.58357 F607.580
G1 X11.344 Y-26.594 E13.58966 F607.580
G1 X11.279 Y-26.659 E13.59157 F607.580
G1 X10.992 Y-26.594 E13.59766 F607.580
G1 X10.927 Y-26.659 E13.59958 F607.580
G1 X10.640 Y-26.594 E13.60567 F607.580
G1 X10.574 Y-26.659 E13.60758 F607.580
G1 X10.288 Y-26.594 E13.61367 F607.580
G1 X10.222 Y-26.659 E13.61558 F607.580
G1 X9.936 Y-26.594 E13.62167 F607.580
G1 X9.870 Y-26.659 E13.62358 F607.580
G1 X9.583 Y-26.594 E13.62967 F607.580
G1 X9.518 Y-26.659 E13.63158 F607.580
G1 X9.231 Y-26.594 E13.63767 F607.580
G1 X9.166 Y-26.659 E13.63959 F607.580
G1 X8.879 Y-26.594 E13.64567 F607.580
G1 X8.814 Y-26.659 E13.64759 F607.580
G1 X8.527 Y-26.594 E13.65368 F607.580
G1 X8.462 Y-26.659 E13.65559 F607.580
G1 X8.175 Y-26.594 E13.66168 F607.580
G1 X8.110 Y-26.659 E13.66359 F607.580
G1 X7.823 Y-26.594 E13.66968 F607.580
G1 X7.758 Y-26.659 E13.67159 F607.580
G1 X7.471 Y-26.594 E13.67768 F607.580
G1 X7.405 Y-26.659 E13.67959 F607.580
G1 X7.119 Y-26.594 E13.68568 F607.580
G1 X7.053 Y-26.659 E13.68760 F607.580
G1 X6.767 Y-26.594 E13.69369 F607.580
G1 X6.701 Y-26.659 E13.69560 F607.580
G1 X6.414 Y-26.594 E13.70169 F607.580
G1 X6.349 Y-26.659 E13.70360 F607.580
G1 X6.062 Y-26.594 E13.70969 F607.580
G1 X5.997 Y-26.659 E13.71160 F607.580
G1 X5.710 Y-26.594 E13.71769 F607.580
G1 X5.645 Y-26.659 E13.71960 F607.580
G1 X5.358 Y-26.594 E13.72569 F607.580
G1 X5.293 Y-26.659 E13.72760 F607.580
G1 X5.006 Y-26.594 E13.73369 F607.580
G1 X4.941 Y-26.659 E13.73561 F607.580
G1 X4.654 Y-26.594 E13.74170 F607.580
G1 X4.589 Y-26.659 E13.74361 F607.580
G1 X4.302 Y-26.594 E13.74970 F607.580
G1 X4.236 Y-26.659 E13.75161 F607.580
G1 X3.950 Y-26.594 E13.75770 F607.580
G1 X3.884 Y-26.659 E13.75961 F607.580
G1 X3.597 Y-26.594 E13.76570 F607.580
G1 X3.532 Y-26.659 E13.76761 F607.580
G1 X3.245 Y-26.594 E13.77370 F607.580
G1 X3.180 Y-26.659 E13.77561 F607.580
G1 X2.893 Y-26.594 E13.78170 F607.580
G1 X2.828 Y-26.659 E13.78362 F607.580
G1 X2.541 Y-26.594 E13.78971 F607.580
G1 X2.476 Y-26.659 E13.79162 F607.580
G1 X2.189 Y-26.594 E13.79771 F607.580
G1 X2.124 Y-26.659 E13.79962 F607.580
G1 X1.837 Y-26.594 E13.80571 F607.580
G1 X1.772 Y-26.659 E13.80762 F607.580
G1 X1.485 Y-26.594 E13.81371 F607.580
G1 X1.420 Y-26.659 E13.81562 F607.580
G1 X1.133 Y-26.594 E13.82171 F607.580
G1 X1.067 Y-26.659 E13.82363 F607.580
G1 X0.781 Y-26.594 E13.82971 F607.580
G1 X0.715 Y-26.659 E13.83163 F607.580
G1 X0.428 Y-26.594 E13.83772 F607.580
G1 X0.363 Y-26.659 E13.83963 F607.580
G1 X0.076 Y-26.594 E13.84572 F607.580
G1 X0.011 Y-26.659 E13.84763 F607.580
G1 X-0.276 Y-26.594 E13.85372 F607.580
G1 X-0.341 Y-26.659 E13.85563 F607.580
G1 X-0.628 Y-26.594 E13.86172 F607.580
G1 X-0.693 Y-26.659 E13.86363 F607.580
G1 X-0.980 Y-26.594 E13.86972 F607.580
G1 X-1.045 Y-26.659 E13.87164 F607.580
G1 X-1.332 Y-26.594 E13.87773 F607.580
G1 X-1.397 Y-26.659 E13.87964 F607.580
G1 X-1.684 Y-26.594 E13.88573 F607.580
G1 X-1.750 Y-26.659 E13.88764 F607.580
G1 X-2.036 Y-26.594 E13.89373 F607.580
G1 X-2.102 Y-26.659 E13.89564 F607.580
G1 X-2.388 Y-26.594 E13.90173 F607.580
G1 X-2.454 Y-26.659 E13.90364 F607.580
G1 X-2.741 Y-26.594 E13.90973 F607.580
G1 X-2.806 Y-26.659 E13.91164 F607.580
G1 X-3.093 Y-26.594 E13.91773 F607.580
G1 X-3.158 Y-26.659 E13.91965 F607.580
G1 X-3.445 Y-26.594 E13.92574 F607.580
G1 X-3.510 Y-26.659 E13.92765 F607.580
G1 X-3.797 Y-26.594 E13.93374 F607.580
G1 X-3.862 Y-26.659 E13.93565 F607.580
G1 X-4.149 Y-26.594 E13.94174 F607.580
G1 X-4.214 Y-26.659 E13.94365 F607.580
G1 X-4.501 Y-26.594 E13.94974 F607.580
G1 X-4.566 Y-26.659 E13.95165 F607.580
G1 X-4.853 Y-26.594 E13.95774 F607.580
G1 X-4.919 Y-26.659 E13.95965 F607.580
G1 X-5.205 Y-26.594 E13.96574 F607.580
G1 X-5.271 Y-26.659 E13.96766 F607.580
G1 X-5.557 Y-26.594 E13.97375 F607.580
G1 X-5.623 Y-26.659 E13.97566 F607.580
G1 X-5.910 Y-26.594 E13.98175 F607.580
G1 X-5.975 Y-26.659 E13.98366 F607.580
G1 X-6.262 Y-26.594 E13.98975 F607.580
G1 X-6.327 Y-26.659 E13.99166 F607.580
G1 X-6.614 Y-26.594 E13.99775 F607.580
G1 X-6.679 Y-26.659 E13.99966 F607.580
G1 X-6.966 Y-26.594 E14.00575 F607.580
G1 X-7.031 Y-26.659 E14.00767 F607.580
G1 X-7.318 Y-26.594 E14.01375 F607.580
G1 X-7.383 Y-26.659 E14.01567 F607.580
G1 X-7.670 Y-26.594 E14.02176 F607.580
G1 X-7.735 Y-26.659 E14.02367 F607.580
G1 X-8.022 Y-26.594 E14.02976 F607.580
G1 X-8.088 Y-26.659 E14.03167 F607.580
G1 X-8.374 Y-26.594 E14.03776 F607.580
G1 X-8.440 Y-26.659 E14.03967 F607.580
G1 X-8.726 Y-26.594 E14.04576 F607.580
G1 X-8.792 Y-26.659 E14.04767 F607.580
G1 X-9.079 Y-26.594 E14.05376 F607.580
G1 X-9.144 Y-26.659 E14.05568 F607.580
G1 X-9.431 Y-26.594 E14.06177 F607.580
G1 X-9.496 Y-26.659 E14.06368 F607.580
G1 X-9.783 Y-26.594 E14.06977 F607.580
G1 X-9.848 Y-26.659 E14.07168 F607.580
G1 X-10.135 Y-26.594 E14.07777 F607.580
G1 X-10.200 Y-26.659 E14.07968 F607.580
G1 X-10.487 Y-26.594 E14.08577 F607.580
G1 X-10.552 Y-26.659 E14.08768 F607.580
G1 X-10.839 Y-26.594 E14.09377 F607.580
G1 X-10.904 Y-26.659 E14.09568 F607.580
G1 X-11.191 Y-26.594 E14.10177 F607.580
G1 X-11.257 Y-26.659 E14.10369 F607.580
G1 X-11.543 Y-26.594 E14.10978 F607.580
G1 X-11.609 Y-26.659 E14.11169 F607.580
G1 X-11.896 Y-26.594 E14.11778 F607.580
G1 X-11.961 Y-26.659 E14.11969 F607.580
G1 X-12.248 Y-26.594 E14.12578 F607.580
G1 X-12.313 Y-26.659 E14.12769 F607.580
G1 X-12.600 Y-26.594 E14.13378 F607.580
G1 X-12.665 Y-26.659 E14.13569 F607.580
G1 X-12.952 Y-26.594 E14.14178 F607.580
G1 X-13.017 Y-26.659 E14.14369 F607.580
G1 X-13.304 Y-26.594 E14.14978 F607.580
G1 X-13.369 Y-26.659 E14.15170 F607.580
G1 X-13.656 Y-26.594 E14.15779 F607.580
G1 X-13.721 Y-26.659 E14.15970 F607.580
G1 X-14.008 Y-26.594 E14.16579 F607.580
G1 X-14.074 Y-26.659 E14.16770 F607.580
G1 X-14.360 Y-26.594 E14.17379 F607.580
G1 X-14.426 Y-26.659 E14.17570 F607.580
G1 X-14.712 Y-26.594 E14.18179 F607.580
G1 X-14.778 Y-26.659 E14.18370 F607.580
G1 X-15.065 Y-26.594 E14.18979 F607.580
G1 X-15.130 Y-26.659 E14.19171 F607.580
G1 X-15.417 Y-26.594 E14.19780 F607.580
G1 X-15.482 Y-26.659 E14.19971 F607.580
G1 X-15.769 Y-26.594 E14.20580 F607.580
G1 X-15.834 Y-26.659 E14.20771 F607.580
G1 X-16.121 Y-26.594 E14.21380 F607.580
G1 X-16.186 Y-26.659 E14.21571 F607.580
G1 X-16.473 Y-26.594 E14.22180 F607.580
G1 X-16.538 Y-26.659 E14.22371 F607.580
G1 X-16.825 Y-26.594 E14.22980 F607.580
G1 X-16.890 Y-26.659 E14.23171 F607.580
G1 X-17.177 Y-26.594 E14.23780 F607.580
G1 X-17.243 Y-26.659 E14.23972 F607.580
G1 X-17.529 Y-26.594 E14.24581 F607.580
G1 X-17.595 Y-26.659 E14.24772 F607.580
G1 X-17.906 Y-26.619 E14.25422 F607.580
G1 X-17.881 Y-26.594 E14.25495 F607.580
G1 F6000.000 E8.85495
G1 Z4.750 F12000.000
G92 E0
