; generated by Slic3r 1.0.0RC2 on 2014-05-05 at 16:25:34

; layer_height = .2
; perimeters = 3
; top_solid_layers = 5
; bottom_solid_layers = 3
; fill_density = .3
; perimeter_speed = 30
; infill_speed = 30
; travel_speed = 200
; nozzle_diameter = 0.5
; filament_diameter = 1.75
; extrusion_multiplier = 1
; perimeters extrusion width = 0.45mm
; infill extrusion width = 0.45mm
; solid infill extrusion width = 0.45mm
; top infill extrusion width = 0.40mm
; first layer extrusion width = 0.60mm

G21 ; set units to millimeters
M107
G28
M104 S210,0
M190 S60
M109 S210,0
; BEGINNING OF HEAD MOVEMENT WARNING TONES
M120 S4 P10
G4 P40
M120 S4 P10
G4 P40
M120 S4 P10
G4 P40
M120 S4 P10
G4 P40
M120 S4 P10
G4 P40
M117 KEEP HANDS AWAY
G4 S3
; END OF HEAD WARNING TONES
G90 ; use absolute coordinates
G92 E0
M82 ; use absolute distances for extrusion
T0
G92 E0
G1 F6000.000 E-5.40000
G1 Z4.350 F12000.000
G92 E0
G1 X-17.783 Y-36.024 F12000.000
G1 Z0.350 F12000.000
G1 E5.50000 F6000.000
G1 X-17.133 Y-37.454 E5.63224 F900
G1 X-16.613 Y-38.414 E5.72415
G1 X-15.763 Y-39.774 E5.85916
G1 X-15.133 Y-40.654 E5.95027
G1 X-14.503 Y-41.434 E6.03468
G1 X-13.813 Y-42.214 E6.12235
G1 X-12.833 Y-43.204 E6.23962
G1 X-12.023 Y-43.934 E6.33142
G1 X-10.753 Y-44.924 E6.46698
G1 X-9.593 Y-45.714 E6.58513
G1 X-8.653 Y-46.264 E6.67682
G1 X-7.653 Y-46.784 E6.77170
G1 X-7.023 Y-47.074 E6.83009
G1 X-5.763 Y-47.574 E6.94421
G1 X-4.513 Y-47.994 E7.05522
G1 X-3.203 Y-48.344 E7.16937
G1 X-2.893 Y-48.404 E7.19595
G1 X-1.593 Y-48.634 E7.30709
G1 X-0.513 Y-48.764 E7.39867
G1 X0.647 Y-48.834 E7.49650
G1 X1.437 Y-48.844 E7.56301
G1 X2.937 Y-48.784 E7.68939
G1 X4.017 Y-48.674 E7.78078
G1 X5.627 Y-48.404 E7.91821
G1 X6.647 Y-48.164 E8.00643
G1 X7.627 Y-47.874 E8.09247
G1 X8.827 Y-47.454 E8.19950
G1 X10.367 Y-46.794 E8.34055
G1 X11.327 Y-46.294 E8.43167
G1 X12.697 Y-45.464 E8.56652
G1 X13.597 Y-44.844 E8.65852
G1 X14.887 Y-43.824 E8.79697
G1 X15.837 Y-42.954 E8.90541
G1 X16.507 Y-42.264 E8.98638
G1 X17.227 Y-41.454 E9.07762
G1 X18.077 Y-40.364 E9.19398
G1 X18.977 Y-39.034 E9.32917
G1 X19.527 Y-38.094 E9.42086
G1 X20.047 Y-37.094 E9.51574
G1 X20.337 Y-36.464 E9.57413
G1 X20.837 Y-35.204 E9.68825
G1 X28.027 Y-15.624 E11.44422
G1 X28.147 Y-15.244 E11.47776
G1 X28.357 Y-14.374 E11.55311
G1 X28.487 Y-13.634 E11.61636
G1 X28.547 Y-13.134 E11.65875
G1 X28.577 Y-12.704 E11.69504
G1 X28.587 Y-12.144 E11.74219
G1 X28.527 Y-10.954 E11.84250
G1 X28.467 Y-10.464 E11.88406
G1 X28.317 Y-9.654 E11.95341
G1 X28.227 Y-9.314 E11.98302
G1 X28.007 Y-8.584 E12.04720
G1 X27.837 Y-8.114 E12.08928
G1 X27.537 Y-7.404 E12.15417
G1 X27.377 Y-7.084 E12.18428
G1 X26.867 Y-6.164 E12.27284
G1 X26.587 Y-5.744 E12.31533
G1 X26.157 Y-5.164 E12.37612
G1 X25.917 Y-4.874 E12.40781
G1 X25.467 Y-4.374 E12.46444
G1 X25.187 Y-4.094 E12.49777
G1 X24.437 Y-3.414 E12.58300
G1 X24.037 Y-3.104 E12.62560
G1 X23.317 Y-2.624 E12.69845
G1 X22.387 Y-2.104 E12.78815
G1 X21.787 Y-1.824 E12.84389
G1 X21.007 Y-1.524 E12.91424
G1 X19.977 Y-1.224 E13.00456
G1 X19.487 Y-1.114 E13.04683
G1 X18.397 Y-0.964 E13.13946
G1 X17.477 Y-0.914 E13.21703
G1 X-14.853 Y-0.374 E15.93911
G1 X-15.613 Y-0.414 E16.00318
G1 X-16.453 Y-0.514 E16.07439
G1 X-17.193 Y-0.654 E16.13780
G1 X-18.093 Y-0.894 E16.21621
G1 X-19.253 Y-1.314 E16.32007
G1 X-19.723 Y-1.524 E16.36341
G1 X-20.793 Y-2.114 E16.46627
G1 X-21.333 Y-2.464 E16.52044
G1 X-21.633 Y-2.674 E16.55127
G1 X-22.303 Y-3.214 E16.62372
G1 X-23.003 Y-3.874 E16.70471
G1 X-23.673 Y-4.604 E16.78812
G1 X-24.063 Y-5.104 E16.84151
G1 X-24.493 Y-5.714 E16.90434
G1 X-24.713 Y-6.074 E16.93985
G1 X-25.213 Y-6.994 E17.02800
G1 X-25.563 Y-7.784 E17.10074
G1 X-25.903 Y-8.744 E17.18648
G1 X-26.053 Y-9.304 E17.23529
G1 X-26.233 Y-10.234 E17.31503
G1 X-26.343 Y-11.034 E17.38301
G1 X-26.393 Y-11.824 E17.44965
G1 X-26.353 Y-13.094 E17.55662
G1 X-26.233 Y-14.084 E17.64057
G1 X-26.063 Y-14.934 E17.71355
G1 X-25.913 Y-15.454 E17.75911
G1 X-25.563 Y-16.474 E17.84989
G1 X-17.815 Y-35.944 E19.61394
G1 X-17.243 Y-35.804 F12000.000
G1 X-16.623 Y-37.174 E19.74054 F900
G1 X-16.103 Y-38.134 E19.83245
G1 X-15.293 Y-39.434 E19.96139
G1 X-14.523 Y-40.504 E20.07237
G1 X-14.063 Y-41.064 E20.13338
G1 X-13.393 Y-41.814 E20.21804
G1 X-12.453 Y-42.774 E20.33115
G1 X-11.643 Y-43.504 E20.42295
G1 X-10.423 Y-44.454 E20.55312
G1 X-9.303 Y-45.214 E20.66707
G1 X-8.363 Y-45.764 E20.75875
G1 X-7.413 Y-46.254 E20.84874
G1 X-6.593 Y-46.624 E20.92447
G1 X-5.363 Y-47.104 E21.03563
G1 X-4.333 Y-47.444 E21.12694
G1 X-3.053 Y-47.784 E21.23843
G1 X-2.793 Y-47.834 E21.26072
G1 X-1.523 Y-48.054 E21.36923
G1 X-0.213 Y-48.204 E21.48023
G1 X0.657 Y-48.254 E21.55359
G1 X1.567 Y-48.264 E21.63021
G1 X2.647 Y-48.224 E21.72119
G1 X4.187 Y-48.064 E21.85153
G1 X5.267 Y-47.884 E21.94371
G1 X6.727 Y-47.544 E22.06991
G1 X7.457 Y-47.324 E22.13409
G1 X8.857 Y-46.824 E22.25924
G1 X9.857 Y-46.394 E22.35088
G1 X11.257 Y-45.674 E22.48341
G1 X12.367 Y-44.994 E22.59300
G1 X13.457 Y-44.234 E22.70486
G1 X14.497 Y-43.404 E22.81688
G1 X15.417 Y-42.554 E22.92233
G1 X15.947 Y-42.014 E22.98602
G1 X16.787 Y-41.074 E23.09215
G1 X17.617 Y-40.014 E23.20549
G1 X18.347 Y-38.944 E23.31453
G1 X19.027 Y-37.804 E23.42628
G1 X19.447 Y-36.994 E23.50309
G1 X19.807 Y-36.224 E23.57465
G1 X20.327 Y-34.914 E23.69330
G1 X27.487 Y-15.434 E25.44050
G1 X27.737 Y-14.514 E25.52076
G1 X27.877 Y-13.764 E25.58498
G1 X27.967 Y-13.064 E25.64440
G1 X27.997 Y-12.694 E25.67565
G1 X28.007 Y-12.134 E25.72280
G1 X27.967 Y-11.284 E25.79444
G1 X27.887 Y-10.544 E25.85710
G1 X27.847 Y-10.274 E25.88008
G1 X27.677 Y-9.474 E25.94893
G1 X27.467 Y-8.774 E26.01045
G1 X27.297 Y-8.304 E26.05253
G1 X26.877 Y-7.354 E26.13997
G1 X26.557 Y-6.764 E26.19648
G1 X26.107 Y-6.064 E26.26653
G1 X25.487 Y-5.264 E26.35174
G1 X24.797 Y-4.514 E26.43753
G1 X24.307 Y-4.064 E26.49354
G1 X23.427 Y-3.384 E26.58716
G1 X23.007 Y-3.114 E26.62920
G1 X22.397 Y-2.764 E26.68840
G1 X21.287 Y-2.244 E26.79159
G1 X20.487 Y-1.964 E26.86295
G1 X19.357 Y-1.684 E26.96095
G1 X18.997 Y-1.624 E26.99168
G1 X18.047 Y-1.514 E27.07219
G1 X-14.853 Y-0.954 E29.84228
G1 X-15.863 Y-1.014 E29.92746
G1 X-16.373 Y-1.084 E29.97079
G1 X-17.373 Y-1.294 E30.05681
G1 X-18.183 Y-1.534 E30.12793
G1 X-19.013 Y-1.844 E30.20252
G1 X-19.483 Y-2.054 E30.24586
G1 X-20.253 Y-2.464 E30.31930
G1 X-21.023 Y-2.954 E30.39613
G1 X-21.913 Y-3.644 E30.49094
G1 X-22.583 Y-4.274 E30.56836
G1 X-23.213 Y-4.964 E30.64702
G1 X-23.713 Y-5.614 E30.71606
G1 X-24.213 Y-6.354 E30.79124
G1 X-24.553 Y-6.964 E30.85003
G1 X-24.923 Y-7.754 E30.92347
G1 X-25.343 Y-8.894 E31.02575
G1 X-25.553 Y-9.714 E31.09701
G1 X-25.673 Y-10.344 E31.15100
G1 X-25.783 Y-11.324 E31.23402
G1 X-25.823 Y-12.174 E31.30565
G1 X-25.783 Y-13.034 E31.37813
G1 X-25.713 Y-13.664 E31.43149
G1 X-25.493 Y-14.814 E31.53006
G1 X-25.373 Y-15.274 E31.57008
G1 X-25.093 Y-16.094 E31.64303
G1 X-17.275 Y-35.724 E33.42177
G1 F6000.000 E28.02177
G1 Z4.350 F12000.000
G92 E0
G1 X-7.273 Y-33.870 F12000.000
G1 Z0.350 F12000.000
G1 E5.50000 F6000.000
G1 X-7.095 Y-34.701 E5.57150 F900
G1 X-6.828 Y-35.554 E5.64678
G1 X-6.483 Y-36.379 E5.72207
G1 X-6.061 Y-37.168 E5.79735
G1 X-5.568 Y-37.913 E5.87263
G1 X-5.006 Y-38.609 E5.94791
G1 X-4.382 Y-39.250 E6.02320
G1 X-3.701 Y-39.829 E6.09848
G1 X-3.217 Y-40.178 E6.14868
G1 X-2.770 Y-40.462 E6.19326
G1 X-2.770 Y-40.532 E6.19920
G1 X-1.650 Y-41.036 E6.30257
G1 X-0.770 Y-41.364 E6.38163
G1 X0.050 Y-41.586 E6.45313
G1 X0.930 Y-41.739 E6.52841
G1 X1.822 Y-41.809 E6.60369
G1 X2.716 Y-41.795 E6.67898
G1 X3.605 Y-41.697 E6.75426
G1 X4.481 Y-41.517 E6.82955
G1 X5.336 Y-41.255 E6.90483
G1 X6.163 Y-40.914 E6.98011
G1 X6.954 Y-40.497 E7.05539
G1 X7.702 Y-40.007 E7.13067
G1 X8.401 Y-39.450 E7.20596
G1 X9.045 Y-38.829 E7.28124
G1 X9.628 Y-38.151 E7.35652
G1 X10.145 Y-37.421 E7.43181
G1 X10.450 Y-36.909 E7.48201
G1 X10.847 Y-36.108 E7.55729
G1 X11.167 Y-35.273 E7.63257
G1 X11.407 Y-34.411 E7.70785
G1 X11.521 Y-33.826 E7.75805
G1 X11.708 Y-32.559 E7.86587
G1 X9.824 Y-31.596 E8.04407
G1 X8.717 Y-32.664 E8.17361
G1 X8.323 Y-33.001 E8.21719
G1 X7.914 Y-33.315 E8.26064
G1 X7.488 Y-33.607 E8.30408
G1 X7.048 Y-33.877 E8.34752
G1 X6.595 Y-34.123 E8.39096
G1 X6.129 Y-34.345 E8.43441
G1 X5.652 Y-34.543 E8.47784
G1 X5.159 Y-34.717 E8.52187
G1 X4.421 Y-34.925 E8.58644
G1 X3.916 Y-35.032 E8.62988
G1 X3.407 Y-35.113 E8.67333
G1 X2.636 Y-35.184 E8.73848
G1 X2.120 Y-35.197 E8.78192
G1 X1.604 Y-35.184 E8.82536
G1 X1.090 Y-35.143 E8.86880
G1 X0.578 Y-35.076 E8.91225
G1 X0.071 Y-34.982 E8.95568
G1 X-0.431 Y-34.861 E8.99913
G1 X-0.926 Y-34.715 E9.04257
G1 X-1.412 Y-34.543 E9.08601
G1 X-1.889 Y-34.345 E9.12946
G1 X-2.355 Y-34.123 E9.17290
G1 X-2.808 Y-33.877 E9.21634
G1 X-3.248 Y-33.607 E9.25978
G1 X-3.880 Y-33.160 E9.32493
G1 X-4.475 Y-32.666 E9.39008
G1 X-5.583 Y-31.596 E9.51976
G1 X-7.468 Y-32.559 E9.69797
G1 X-7.287 Y-33.785 E9.80226
G1 X-6.710 Y-33.733 F12000.000
G1 X-6.536 Y-34.554 E9.87297 F900
G1 X-6.285 Y-35.356 E9.94368
G1 X-5.960 Y-36.130 E10.01439
G1 X-5.564 Y-36.871 E10.08510
G1 X-5.101 Y-37.572 E10.15581
G1 X-4.573 Y-38.225 E10.22652
G1 X-3.987 Y-38.827 E10.29723
G1 X-3.538 Y-39.218 E10.34740
G1 X-2.893 Y-39.699 E10.41509
G1 X-2.192 Y-40.128 E10.48430
G1 X-2.192 Y-40.158 E10.48688
G1 X-1.421 Y-40.505 E10.55799
G1 X-0.635 Y-40.800 E10.62870
G1 X0.175 Y-41.021 E10.69941
G1 X1.003 Y-41.165 E10.77012
G1 X1.840 Y-41.231 E10.84083
G1 X2.680 Y-41.218 E10.91154
G1 X3.515 Y-41.126 E10.98225
G1 X4.338 Y-40.956 E11.05296
G1 X5.141 Y-40.710 E11.12367
G1 X5.917 Y-40.390 E11.19438
G1 X6.448 Y-40.119 E11.24455
G1 X7.134 Y-39.699 E11.31224
G1 X7.806 Y-39.196 E11.38295
G1 X8.429 Y-38.633 E11.45366
G1 X8.996 Y-38.013 E11.52437
G1 X9.341 Y-37.572 E11.57152
G1 X9.805 Y-36.871 E11.64223
G1 X10.201 Y-36.130 E11.71294
G1 X10.525 Y-35.356 E11.78365
G1 X10.776 Y-34.554 E11.85436
G1 X10.950 Y-33.733 E11.92507
G1 X11.076 Y-32.885 E11.99718
G1 X9.930 Y-32.300 E12.10548
G1 X9.104 Y-33.094 E12.20198
G1 X8.687 Y-33.450 E12.24812
G1 X8.254 Y-33.783 E12.29411
G1 X7.804 Y-34.092 E12.34011
G1 X7.338 Y-34.378 E12.38610
G1 X6.613 Y-34.759 E12.45507
G1 X6.114 Y-34.982 E12.50107
G1 X5.604 Y-35.177 E12.54706
G1 X5.084 Y-35.346 E12.59305
G1 X4.556 Y-35.488 E12.63904
G1 X3.753 Y-35.647 E12.70802
G1 X3.211 Y-35.719 E12.75401
G1 X2.666 Y-35.762 E12.80000
G1 X2.120 Y-35.776 E12.84600
G1 X1.574 Y-35.762 E12.89199
G1 X1.029 Y-35.719 E12.93798
G1 X0.474 Y-35.645 E12.98519
G1 X-0.316 Y-35.488 E13.05295
G1 X-0.844 Y-35.346 E13.09894
G1 X-1.363 Y-35.177 E13.14493
G1 X-1.873 Y-34.982 E13.19092
G1 X-2.372 Y-34.759 E13.23692
G1 X-2.859 Y-34.511 E13.28291
G1 X-3.332 Y-34.238 E13.32890
G1 X-3.790 Y-33.941 E13.37489
G1 X-4.232 Y-33.620 E13.42088
G1 X-4.657 Y-33.276 E13.46688
G1 X-5.063 Y-32.910 E13.51287
G1 X-5.690 Y-32.300 E13.58652
G1 X-6.835 Y-32.885 E13.69483
G1 X-6.723 Y-33.647 E13.75963
G1 X-6.139 Y-33.639 F12000.000
G1 X-5.976 Y-34.408 E13.82577 F900
G1 X-5.741 Y-35.157 E13.89190
G1 X-5.438 Y-35.882 E13.95804
G1 X-5.185 Y-36.371 E14.00440
G1 X-4.785 Y-37.016 E14.06828
G1 X-4.311 Y-37.643 E14.13442
G1 X-3.781 Y-38.222 E14.20055
G1 X-3.198 Y-38.749 E14.26669
G1 X-2.569 Y-39.220 E14.33283
G1 X-1.898 Y-39.629 E14.39897
G1 X-1.613 Y-39.784 E14.42630
G1 X-1.192 Y-39.973 E14.46515
G1 X-0.679 Y-40.174 E14.51150
G1 X0.046 Y-40.396 E14.57539
G1 X0.816 Y-40.554 E14.64152
G1 X1.597 Y-40.640 E14.70766
G1 X2.382 Y-40.653 E14.77380
G1 X3.165 Y-40.591 E14.83994
G1 X3.939 Y-40.457 E14.90607
G1 X4.697 Y-40.250 E14.97221
G1 X5.433 Y-39.973 E15.03835
G1 X6.139 Y-39.629 E15.10449
G1 X6.809 Y-39.220 E15.17062
G1 X7.255 Y-38.896 E15.21698
G1 X7.833 Y-38.404 E15.28086
G1 X8.381 Y-37.841 E15.34700
G1 X8.732 Y-37.417 E15.39335
G1 X9.170 Y-36.798 E15.45723
G1 X9.562 Y-36.117 E15.52337
G1 X9.888 Y-35.402 E15.58951
G1 X10.146 Y-34.660 E15.65565
G1 X10.333 Y-33.897 E15.72178
G1 X10.443 Y-33.211 E15.78023
G1 X10.036 Y-33.004 E15.81864
G1 X9.705 Y-33.336 E15.85813
G1 X9.051 Y-33.900 E15.93082
G1 X8.594 Y-34.251 E15.97937
G1 X8.119 Y-34.578 E16.02791
G1 X7.627 Y-34.879 E16.07645
G1 X7.120 Y-35.154 E16.12499
G1 X6.600 Y-35.402 E16.17353
G1 X6.067 Y-35.623 E16.22208
G1 X5.524 Y-35.815 E16.27062
G1 X4.971 Y-35.979 E16.31916
G1 X4.127 Y-36.170 E16.39196
G1 X3.271 Y-36.294 E16.46476
G1 X2.409 Y-36.351 E16.53757
G1 X1.544 Y-36.339 E16.61037
G1 X0.661 Y-36.257 E16.68502
G1 X0.113 Y-36.170 E16.73171
G1 X-0.451 Y-36.050 E16.78025
G1 X-1.283 Y-35.815 E16.85306
G1 X-1.827 Y-35.623 E16.90160
G1 X-2.379 Y-35.393 E16.95199
G1 X-3.135 Y-35.020 E17.02294
G1 X-3.634 Y-34.732 E17.07148
G1 X-4.136 Y-34.405 E17.12187
G1 X-4.811 Y-33.900 E17.19283
G1 X-5.249 Y-33.526 E17.24137
G1 X-5.796 Y-33.004 E17.30498
G1 X-6.202 Y-33.211 E17.34339
G1 X-6.152 Y-33.553 E17.37248
G1 X-6.577 Y-34.017 F12000.000
G1 F6000.000 E11.97248
G1 Z4.350 F12000.000
G92 E0
G1 X5.734 Y-25.127 F12000.000
G1 Z0.350 F12000.000
G1 E5.50000 F6000.000
G1 X5.931 Y-25.369 E5.52624 F900
G1 X6.152 Y-25.588 E5.55246
G1 X6.562 Y-25.894 E5.59556
G1 X6.794 Y-26.024 E5.61797
G1 X7.080 Y-26.149 E5.64419
G1 X7.377 Y-26.243 E5.67040
G1 X7.682 Y-26.306 E5.69663
G1 X7.992 Y-26.335 E5.72285
G1 X8.303 Y-26.332 E5.74907
G1 X8.810 Y-26.256 E5.79218
G1 X9.066 Y-26.183 E5.81458
G1 X9.355 Y-26.068 E5.84080
G1 X9.631 Y-25.923 E5.86702
G1 X9.890 Y-25.750 E5.89325
G1 X10.129 Y-25.551 E5.91947
G1 X10.346 Y-25.328 E5.94569
G1 X10.649 Y-24.914 E5.98880
G1 X10.776 Y-24.681 E6.01119
G1 X10.898 Y-24.394 E6.03741
G1 X10.989 Y-24.096 E6.06363
G1 X11.049 Y-23.791 E6.08985
G1 X11.076 Y-23.480 E6.11606
G1 X11.070 Y-23.169 E6.14230
G1 X10.989 Y-22.663 E6.18539
G1 X10.898 Y-22.366 E6.21159
G1 X10.795 Y-22.121 E6.23398
G1 X10.538 Y-21.678 E6.27707
G1 X10.346 Y-21.433 E6.30328
G1 X10.129 Y-21.210 E6.32948
G1 X9.889 Y-21.011 E6.35570
G1 X9.669 Y-20.862 E6.37809
G1 X9.211 Y-20.632 E6.42118
G1 X8.916 Y-20.533 E6.44740
G1 X8.613 Y-20.465 E6.47360
G1 X8.304 Y-20.429 E6.49979
G1 X7.992 Y-20.426 E6.52601
G1 X7.682 Y-20.456 E6.55223
G1 X7.421 Y-20.508 E6.57461
G1 X6.936 Y-20.671 E6.61771
G1 X6.658 Y-20.810 E6.64392
G1 X6.395 Y-20.978 E6.67014
G1 X6.153 Y-21.173 E6.69634
G1 X5.931 Y-21.392 E6.72255
G1 X5.734 Y-21.633 E6.74875
G1 X5.588 Y-21.855 E6.77116
G1 X5.361 Y-22.315 E6.81436
G1 X5.265 Y-22.610 E6.84043
G1 X5.200 Y-22.914 E6.86665
G1 X5.164 Y-23.425 E6.90974
G1 X5.179 Y-23.691 E6.93216
G1 X5.228 Y-23.998 E6.95838
G1 X5.309 Y-24.299 E6.98460
G1 X5.421 Y-24.590 E7.01081
G1 X5.684 Y-25.056 E7.05589
G1 X6.147 Y-24.708 F12000.000
G1 X6.446 Y-25.071 E7.09551 F900
G1 X6.633 Y-25.238 E7.11661
G1 X6.837 Y-25.384 E7.13770
G1 X7.196 Y-25.572 E7.17185
G1 X7.646 Y-25.712 E7.21147
G1 X7.894 Y-25.749 E7.23257
G1 X8.144 Y-25.759 E7.25367
G1 X8.548 Y-25.720 E7.28782
G1 X9.000 Y-25.591 E7.32743
G1 X9.228 Y-25.486 E7.34853
G1 X9.443 Y-25.358 E7.36963
G1 X9.644 Y-25.208 E7.39073
G1 X9.827 Y-25.037 E7.41182
G1 X10.084 Y-24.723 E7.44597
G1 X10.310 Y-24.310 E7.48559
G1 X10.395 Y-24.074 E7.50668
G1 X10.456 Y-23.831 E7.52779
G1 X10.490 Y-23.583 E7.54889
G1 X10.498 Y-23.332 E7.56998
G1 X10.455 Y-22.929 E7.60412
G1 X10.321 Y-22.478 E7.64372
G1 X10.136 Y-22.118 E7.67786
G1 X9.992 Y-21.913 E7.69895
G1 X9.827 Y-21.724 E7.72003
G1 X9.467 Y-21.421 E7.75964
G1 X9.115 Y-21.220 E7.79378
G1 X8.882 Y-21.127 E7.81487
G1 X8.641 Y-21.060 E7.83595
G1 X8.394 Y-21.018 E7.85704
G1 X8.144 Y-21.002 E7.87814
G1 X7.675 Y-21.044 E7.91774
G1 X7.285 Y-21.154 E7.95188
G1 X7.055 Y-21.254 E7.97297
G1 X6.837 Y-21.378 E7.99406
G1 X6.634 Y-21.524 E8.01515
G1 X6.447 Y-21.690 E8.03624
G1 X6.147 Y-22.053 E8.07584
G1 X5.950 Y-22.407 E8.10998
G1 X5.859 Y-22.641 E8.13105
G1 X5.794 Y-22.882 E8.15214
G1 X5.744 Y-23.285 E8.18630
G1 X5.771 Y-23.755 E8.22591
G1 X5.823 Y-24.000 E8.24700
G1 X5.901 Y-24.238 E8.26810
G1 X6.100 Y-24.635 E8.30549
G1 X6.572 Y-24.299 F12000.000
G1 X6.789 Y-24.592 E8.33615 F900
G1 X7.072 Y-24.844 E8.36806
G1 X7.329 Y-24.997 E8.39325
G1 X7.670 Y-25.124 E8.42392
G1 X8.045 Y-25.179 E8.45583
G1 X8.344 Y-25.167 E8.48102
G1 X8.699 Y-25.085 E8.51168
G1 X9.043 Y-24.926 E8.54359
G1 X9.346 Y-24.699 E8.57550
G1 X9.548 Y-24.477 E8.60069
G1 X9.739 Y-24.167 E8.63135
G1 X9.868 Y-23.811 E8.66326
G1 X9.915 Y-23.515 E8.68845
G1 X9.905 Y-23.151 E8.71912
