; generated by Slic3r 1.0.0RC2 on 2014-06-14 at 18:20:48

; layer_height = .4
; perimeters = 2
; top_solid_layers = 0
; bottom_solid_layers = 0
; fill_density = 0
; perimeter_speed = 30
; infill_speed = 30
; travel_speed = 200
; nozzle_diameter = 0.5
; filament_diameter = 1.75
; extrusion_multiplier = 1
; perimeters extrusion width = 0.45mm
; infill extrusion width = 0.45mm
; solid infill extrusion width = 0.45mm
; top infill extrusion width = 0.40mm
; first layer extrusion width = 0.60mm

G21 ; set units to millimeters
M107
G28
M104 S235,0
M190 S60
M109 S235,0
; BEGINNING OF HEAD MOVEMENT WARNING TONES
M120 S4 P10
G4 P40
M120 S4 P10
G4 P40
M120 S4 P10
G4 P40
M120 S4 P10
G4 P40
M120 S4 P10
G4 P40
M117 KEEP HANDS AWAY
G4 S3
; END OF HEAD WARNING TONES
G90 ; use absolute coordinates
G92 E0
M82 ; use absolute distances for extrusion
T0
G92 E0
G1 F6000.000 E-6.00000
G1 Z4.350 F12000.000
G92 E0
G1 X34.241 Y-51.909 F12000.000
G1 Z0.350 F12000.000
G1 E6.10000 F6000.000
G1 X35.321 Y-51.769 E6.19168 F900
G1 X36.321 Y-51.349 E6.28299
G1 X37.181 Y-50.689 E6.37425
G1 X37.841 Y-49.829 E6.46551
G1 X38.261 Y-48.829 E6.55682
G1 X38.401 Y-47.749 E6.64850
G1 X38.401 Y18.541 E12.22913
G1 X38.261 Y19.621 E12.32082
G1 X37.841 Y20.621 E12.41212
G1 X37.181 Y21.481 E12.50339
G1 X36.321 Y22.141 E12.59465
G1 X35.321 Y22.561 E12.68596
G1 X34.241 Y22.701 E12.77764
G1 X-32.049 Y22.701 E18.35827
G1 X-33.129 Y22.561 E18.44995
G1 X-34.129 Y22.141 E18.54126
G1 X-34.989 Y21.481 E18.63252
G1 X-35.649 Y20.621 E18.72378
G1 X-36.069 Y19.621 E18.81509
G1 X-36.209 Y18.541 E18.90677
G1 X-36.209 Y-47.749 E24.48740
G1 X-36.069 Y-48.829 E24.57909
G1 X-35.649 Y-49.829 E24.67039
G1 X-34.989 Y-50.689 E24.76166
G1 X-34.129 Y-51.349 E24.85292
G1 X-33.129 Y-51.769 E24.94423
G1 X-32.049 Y-51.909 E25.03591
G1 X34.154 Y-51.909 E30.60923
G1 X34.241 Y-51.329 F12000.000
G1 X35.171 Y-51.209 E30.68818 F900
G1 X36.031 Y-50.849 E30.76666
G1 X36.771 Y-50.279 E30.84530
G1 X37.341 Y-49.539 E30.92393
G1 X37.701 Y-48.679 E31.00242
G1 X37.821 Y-47.749 E31.08136
G1 X37.821 Y18.541 E36.66199
G1 X37.701 Y19.471 E36.74093
G1 X37.341 Y20.331 E36.81942
G1 X36.771 Y21.071 E36.89805
G1 X36.031 Y21.641 E36.97669
G1 X35.171 Y22.001 E37.05518
G1 X34.241 Y22.121 E37.13412
G1 X-32.049 Y22.121 E42.71475
G1 X-32.979 Y22.001 E42.79369
G1 X-33.839 Y21.641 E42.87218
G1 X-34.579 Y21.071 E42.95081
G1 X-35.149 Y20.331 E43.02945
G1 X-35.509 Y19.471 E43.10793
G1 X-35.629 Y18.541 E43.18688
G1 X-35.629 Y-47.749 E48.76751
G1 X-35.509 Y-48.679 E48.84645
G1 X-35.149 Y-49.539 E48.92493
G1 X-34.579 Y-50.279 E49.00357
G1 X-33.839 Y-50.849 E49.08221
G1 X-32.979 Y-51.209 E49.16069
G1 X-32.049 Y-51.329 E49.23963
G1 X34.154 Y-51.329 E54.81296
G1 F6000.000 E48.81296
G1 Z4.350 F12000.000
G92 E0
G1 X33.949 Y-47.449 F12000.000
G1 Z0.350 F12000.000
G1 E6.10000 F6000.000
G1 X33.949 Y-34.787 E7.16599 F900
G1 X21.518 Y-34.787 E8.21249
G1 X21.518 Y5.587 E11.61134
G1 X33.949 Y5.587 E12.65785
G1 X33.949 Y18.249 E13.72384
G1 X21.287 Y18.249 E14.78983
G1 X21.287 Y5.818 E15.83633
G1 X-19.087 Y5.818 E19.23518
G1 X-19.087 Y18.249 E20.28169
G1 X-31.749 Y18.249 E21.34768
G1 X-31.749 Y5.587 E22.41366
G1 X-19.318 Y5.587 E23.46017
G1 X-19.318 Y-34.787 E26.85902
G1 X-31.749 Y-34.787 E27.90552
G1 X-31.749 Y-47.449 E28.97151
G1 X-19.087 Y-47.449 E30.03750
G1 X-19.087 Y-35.018 E31.08401
G1 X21.287 Y-35.018 E34.48286
G1 X21.287 Y-47.449 E35.52936
G1 X33.862 Y-47.449 E36.58805
G1 X33.660 Y-46.948 F12000.000
G1 X-19.665 Y6.165 F12000.000
G1 X-19.665 Y17.671 E37.55663 F900
G1 X-31.171 Y17.671 E38.52521
G1 X-31.171 Y6.165 E39.49379
G1 X-19.752 Y6.165 E40.45506
G1 F6000.000 E34.45506
G1 Z4.350 F12000.000
G92 E0
G1 X-19.665 Y-46.871 F12000.000
G1 Z0.350 F12000.000
G1 E6.10000 F6000.000
G1 X-19.665 Y-35.365 E7.06858 F900
G1 X-31.171 Y-35.365 E8.03716
G1 X-31.171 Y-46.871 E9.00574
G1 X-19.752 Y-46.871 E9.96702
G1 X-18.618 Y-26.009 F12000.000
G1 X21.865 Y-35.365 F12000.000
G1 X21.865 Y-46.871 E10.93560 F900
G1 X33.371 Y-46.871 E11.90418
G1 X33.371 Y-35.365 E12.87276
G1 X21.952 Y-35.365 E13.83403
G1 X-18.740 Y5.240 F12000.000
G1 X-18.740 Y-34.440 E17.17444 F900
G1 X20.940 Y-34.440 E20.51485
G1 X20.940 Y5.240 E23.85526
G1 X-18.653 Y5.240 E27.18836
G1 X20.255 Y5.118 F12000.000
G1 X33.371 Y17.671 F12000.000
G1 X21.865 Y17.671 E28.15694 F900
G1 X21.865 Y6.165 E29.12552
G1 X33.371 Y6.165 E30.09410
G1 X33.371 Y17.584 E31.05538
G1 F6000.000 E25.05538
G1 Z4.750 F12000.000
G92 E0
G1 X34.024 Y18.324 F12000.000
G1 Z0.750 F12000.000
G1 E6.10000 F6000.000
G1 X21.206 Y18.324 E7.08214 F1069.555
G1 X21.206 Y5.893 E8.03460
G1 X-19.006 Y5.893 E11.11561
G1 X-19.006 Y18.324 E12.06807
G1 X-31.824 Y18.324 E13.05021
G1 X-31.824 Y5.506 E14.03234
G1 X-19.393 Y5.506 E14.98480
G1 X-19.393 Y-34.706 E18.06582
G1 X-31.824 Y-34.706 E19.01828
G1 X-31.824 Y-47.524 E20.00041
G1 X-19.006 Y-47.524 E20.98255
G1 X-19.006 Y-35.093 E21.93501
G1 X21.206 Y-35.093 E25.01602
G1 X21.206 Y-47.524 E25.96848
G1 X34.024 Y-47.524 E26.95062
G1 X34.024 Y-34.706 E27.93275
G1 X21.593 Y-34.706 E28.88521
G1 X21.593 Y5.506 E31.96623
G1 X34.024 Y5.506 E32.91869
G1 X34.024 Y18.255 E33.89553
G1 X33.625 Y18.094 F12000.000
G1 X20.255 Y5.118 F12000.000
G1 X-19.467 Y5.967 F12000.000
G1 X-19.467 Y17.863 E34.80706 F1069.555
G1 X-31.363 Y17.863 E35.71860
G1 X-31.363 Y5.967 E36.63013
G1 X-19.536 Y5.967 E37.53637
G1 X-19.467 Y-35.167 F12000.000
G1 X-31.363 Y-35.167 E38.44791 F1069.555
G1 X-31.363 Y-47.063 E39.35944
G1 X-19.467 Y-47.063 E40.27098
G1 X-19.467 Y-35.236 E41.17722
G1 X33.563 Y-35.167 F12000.000
G1 X21.667 Y-35.167 E42.08875 F1069.555
G1 X21.667 Y-47.063 E43.00029
G1 X33.563 Y-47.063 E43.91182
G1 X33.563 Y-35.236 E44.81806
G1 X13.073 Y-34.318 F12000.000
G1 X21.132 Y5.432 F12000.000
G1 X-18.932 Y5.432 E47.88783 F1069.555
G1 X-18.932 Y-34.632 E50.95759
G1 X21.132 Y-34.632 E54.02735
G1 X21.132 Y5.363 E57.09182
G1 X21.667 Y5.967 F12000.000
G1 X33.563 Y5.967 E58.00336 F1069.555
G1 X33.563 Y17.863 E58.91489
G1 X21.667 Y17.863 E59.82643
G1 X21.667 Y6.036 E60.73267
M106 S255
G1 F6000.000 E54.73267
G1 Z5.150 F12000.000
G92 E0
G1 X21.189 Y5.893 F12000.000
G1 Z1.150 F12000.000
G1 E6.10000 F6000.000
G1 X-18.989 Y5.893 E9.17849 F1069.951
G1 X-18.989 Y18.324 E10.13094
G1 X-31.824 Y18.324 E11.11435
G1 X-31.824 Y5.489 E12.09775
G1 X-19.393 Y5.489 E13.05021
G1 X-19.393 Y-34.689 E16.12869
G1 X-31.824 Y-34.689 E17.08115
G1 X-31.824 Y-47.524 E18.06455
G1 X-18.989 Y-47.524 E19.04795
G1 X-18.989 Y-35.093 E20.00041
G1 X21.189 Y-35.093 E23.07890
G1 X21.189 Y-47.524 E24.03136
G1 X34.024 Y-47.524 E25.01476
G1 X34.024 Y-34.689 E25.99816
G1 X21.593 Y-34.689 E26.95062
G1 X21.593 Y5.489 E30.02910
G1 X34.024 Y5.489 E30.98156
G1 X34.024 Y18.324 E31.96496
G1 X21.189 Y18.324 E32.94836
G1 X21.189 Y5.962 E33.89553
G1 X21.189 Y5.432 F12000.000
G1 X-19.450 Y5.950 F12000.000
G1 X-19.450 Y17.863 E34.80833 F1069.951
G1 X-31.363 Y17.863 E35.72113
G1 X-31.363 Y5.950 E36.63392
G1 X-19.519 Y5.950 E37.54143
G1 X-19.450 Y-47.063 F12000.000
G1 X-19.450 Y-35.150 E38.45423 F1069.951
G1 X-31.363 Y-35.150 E39.36702
G1 X-31.363 Y-47.063 E40.27982
G1 X-19.519 Y-47.063 E41.18733
G1 X-18.618 Y-26.009 F12000.000
G1 X20.818 Y-24.318 F12000.000
G1 X21.650 Y-47.063 F12000.000
G1 X33.563 Y-47.063 E42.10013 F1069.951
G1 X33.563 Y-35.150 E43.01292
G1 X21.650 Y-35.150 E43.92572
G1 X21.650 Y-46.994 E44.83323
G1 X21.132 Y5.432 F12000.000
G1 X-18.932 Y5.432 E47.90299 F1069.951
G1 X-18.932 Y-34.632 E50.97276
G1 X21.132 Y-34.632 E54.04252
G1 X21.132 Y5.363 E57.10699
G1 X33.563 Y5.950 F12000.000
G1 X33.563 Y17.863 E58.01979 F1069.951
G1 X21.650 Y17.863 E58.93259
G1 X21.650 Y5.950 E59.84538
G1 X33.494 Y5.950 E60.75289
G1 F6000.000 E54.75289
G1 Z5.550 F12000.000
G92 E0
G1 X34.024 Y5.467 F12000.000
G1 Z1.550 F12000.000
G1 E6.10000 F6000.000
G1 X34.024 Y18.324 E7.08509 F1070.480
G1 X21.167 Y18.324 E8.07018
G1 X21.167 Y5.893 E9.02264
G1 X-18.967 Y5.893 E12.09775
G1 X-18.967 Y18.324 E13.05021
G1 X-31.824 Y18.324 E14.03530
G1 X-31.824 Y5.467 E15.02039
G1 X-19.393 Y5.467 E15.97285
G1 X-19.393 Y-34.667 E19.04795
G1 X-31.824 Y-34.667 E20.00041
G1 X-31.824 Y-47.524 E20.98550
G1 X-18.967 Y-47.524 E21.97059
G1 X-18.967 Y-35.093 E22.92305
G1 X21.167 Y-35.093 E25.99816
G1 X21.167 Y-47.524 E26.95062
G1 X34.024 Y-47.524 E27.93571
G1 X34.024 Y-34.667 E28.92080
G1 X21.593 Y-34.667 E29.87326
G1 X21.593 Y5.467 E32.94836
G1 X33.955 Y5.467 E33.89553
G1 X33.794 Y5.866 F12000.000
G1 X10.255 Y5.118 F12000.000
G1 X20.818 Y-34.318 F12000.000
G1 X-31.363 Y17.863 F12000.000
G1 X-31.363 Y5.928 E34.81002 F1070.480
G1 X-19.428 Y5.928 E35.72450
G1 X-19.428 Y17.863 E36.63899
G1 X-31.294 Y17.863 E37.54819
G1 X20.818 Y-34.318 F12000.000
G1 X20.255 Y5.118 F12000.000
G1 X-31.363 Y-47.063 F12000.000
G1 X-19.428 Y-47.063 E38.46267 F1070.480
G1 X-19.428 Y-35.128 E39.37716
G1 X-31.363 Y-35.128 E40.29165
G1 X-31.363 Y-46.994 E41.20084
G1 X20.255 Y5.118 F12000.000
G1 X21.628 Y-35.128 F12000.000
G1 X21.628 Y-47.063 E42.11533 F1070.480
G1 X33.563 Y-47.063 E43.02982
G1 X33.563 Y-35.128 E43.94431
G1 X21.697 Y-35.128 E44.85350
G1 X-18.932 Y-34.632 F12000.000
G1 X21.132 Y-34.632 E47.92326 F1070.480
G1 X21.132 Y5.432 E50.99303
G1 X-18.932 Y5.432 E54.06279
G1 X-18.932 Y-34.563 E57.12726
G1 X33.563 Y17.863 F12000.000
G1 X21.628 Y17.863 E58.04175 F1070.480
G1 X21.628 Y5.928 E58.95624
G1 X33.563 Y5.928 E59.87073
G1 X33.563 Y17.794 E60.77992
G1 F6000.000 E54.77992
G1 Z5.950 F12000.000
G92 E0
G1 X33.980 Y18.280 F12000.000
G1 Z1.950 F12000.000
G1 E6.10000 F6000.000
G1 X21.136 Y18.280 E7.08415 F1069.135
G1 X21.136 Y5.893 E8.03326
G1 X-18.936 Y5.893 E11.10353
G1 X-18.936 Y18.280 E12.05264
G1 X-31.780 Y18.280 E13.03679
G1 X-31.780 Y5.436 E14.02094
G1 X-19.393 Y5.436 E14.97004
G1 X-19.393 Y-34.636 E18.04032
G1 X-31.780 Y-34.636 E18.98942
G1 X-31.780 Y-47.480 E19.97357
G1 X-18.936 Y-47.480 E20.95773
G1 X-18.936 Y-35.093 E21.90683
G1 X21.136 Y-35.093 E24.97711
G1 X21.136 Y-47.480 E25.92621
G1 X33.980 Y-47.480 E26.91036
G1 X33.980 Y-34.636 E27.89451
G1 X21.593 Y-34.636 E28.84362
G1 X21.593 Y5.436 E31.91389
G1 X33.980 Y5.436 E32.86300
G1 X33.980 Y18.211 E33.84185
G1 X33.581 Y18.050 F12000.000
G1 F6000.000 E27.84185
G1 Z5.950 F12000.000
G92 E0
G1 X20.255 Y5.118 F12000.000
G1 X-18.618 Y3.991 F12000.000
G1 X-19.397 Y17.820 F12000.000
G1 Z1.950 F12000.000
G1 E6.10000 F6000.000
G1 X-31.320 Y17.820 E7.01355 F1069.135
G1 X-31.320 Y5.897 E7.92710
G1 X-19.397 Y5.897 E8.84065
G1 X-19.397 Y17.751 E9.74890
G1 X-19.397 Y-47.020 F12000.000
G1 X-19.397 Y-35.097 E10.66245 F1069.135
G1 X-31.320 Y-35.097 E11.57600
G1 X-31.320 Y-47.020 E12.48955
G1 X-19.466 Y-47.020 E13.39780
G1 X-18.618 Y-26.009 F12000.000
G1 X21.597 Y-35.097 F12000.000
G1 X21.597 Y-47.020 E14.31135 F1069.135
G1 X33.520 Y-47.020 E15.22490
G1 X33.520 Y-35.097 E16.13845
G1 X21.666 Y-35.097 E17.04670
G1 X-18.932 Y-34.632 F12000.000
G1 X21.132 Y-34.632 E20.11647 F1069.135
G1 X21.132 Y5.432 E23.18623
G1 X-18.932 Y5.432 E26.25600
G1 X-18.932 Y-34.563 E29.32047
G1 X21.597 Y5.897 F12000.000
G1 X33.520 Y5.897 E30.23402 F1069.135
G1 X33.520 Y17.820 E31.14757
G1 X21.597 Y17.820 E32.06112
G1 X21.597 Y5.966 E32.96937
G1 F6000.000 E26.96937
G1 Z6.350 F12000.000
G92 E0
G1 X21.096 Y5.893 F12000.000
G1 Z2.350 F12000.000
G1 E6.10000 F6000.000
G1 X-18.896 Y5.893 E9.16410 F1043.200
G1 X-18.896 Y17.720 E10.07027
G1 X-31.220 Y17.720 E11.01456
G1 X-31.220 Y5.396 E11.95886
G1 X-19.393 Y5.396 E12.86502
G1 X-19.393 Y-34.596 E15.92912
G1 X-31.220 Y-34.596 E16.83529
G1 X-31.220 Y-46.920 E17.77958
G1 X-18.896 Y-46.920 E18.72388
G1 X-18.896 Y-35.093 E19.63004
G1 X21.096 Y-35.093 E22.69414
G1 X21.096 Y-46.920 E23.60031
G1 X33.420 Y-46.920 E24.54461
G1 X33.420 Y-34.596 E25.48890
G1 X21.593 Y-34.596 E26.39507
G1 X21.593 Y5.396 E29.45917
G1 X33.420 Y5.396 E30.36533
G1 X33.420 Y17.720 E31.30963
G1 X21.096 Y17.720 E32.25392
G1 X21.096 Y5.962 E33.15479
G1 X21.096 Y5.432 F12000.000
G1 X-18.618 Y3.991 F12000.000
G1 X-19.356 Y17.259 F12000.000
G1 X-30.759 Y17.259 E34.02849 F1043.200
G1 X-30.759 Y5.856 E34.90218
G1 X-19.356 Y5.856 E35.77588
G1 X-19.356 Y17.190 E36.64428
G1 X-16.927 Y-34.318 F12000.000
G1 X-30.759 Y-35.056 F12000.000
G1 X-30.759 Y-46.459 E37.51797 F1043.200
G1 X-19.356 Y-46.459 E38.39166
G1 X-19.356 Y-35.056 E39.26536
G1 X-30.690 Y-35.056 E40.13376
G1 X20.818 Y-34.318 F12000.000
G1 X32.959 Y-46.459 F12000.000
G1 X32.959 Y-35.056 E41.00745 F1043.200
G1 X21.556 Y-35.056 E41.88115
G1 X21.556 Y-46.459 E42.75484
G1 X32.890 Y-46.459 E43.62324
G1 X20.818 Y-34.318 F12000.000
G1 X-18.932 Y-34.632 F12000.000
G1 X21.132 Y-34.632 E46.69300 F1043.200
G1 X21.132 Y5.432 E49.76277
G1 X-18.932 Y5.432 E52.83253
G1 X-18.932 Y-34.563 E55.89700
G1 X21.556 Y5.856 F12000.000
G1 X32.959 Y5.856 E56.77070 F1043.200
G1 X32.959 Y17.259 E57.64439
G1 X21.556 Y17.259 E58.51809
G1 X21.556 Y5.925 E59.38649
G1 F6000.000 E53.38649
G1 Z6.750 F12000.000
G92 E0
G1 X21.050 Y5.893 F12000.000
G1 Z2.750 F12000.000
G1 E6.10000 F6000.000
G1 X-18.850 Y5.893 E9.15706 F1021.201
G1 X-18.850 Y17.239 E10.02635
G1 X-30.739 Y17.239 E10.93729
G1 X-30.739 Y5.350 E11.84823
G1 X-19.393 Y5.350 E12.71751
G1 X-19.393 Y-34.550 E15.77457
G1 X-30.739 Y-34.550 E16.64386
G1 X-30.739 Y-46.439 E17.55480
G1 X-18.850 Y-46.439 E18.46574
G1 X-18.850 Y-35.093 E19.33503
G1 X21.050 Y-35.093 E22.39209
G1 X21.050 Y-46.439 E23.26138
G1 X32.939 Y-46.439 E24.17232
G1 X32.939 Y-34.550 E25.08326
G1 X21.593 Y-34.550 E25.95254
G1 X21.593 Y5.350 E29.00960
G1 X32.939 Y5.350 E29.87889
G1 X32.939 Y17.239 E30.78983
G1 X21.050 Y17.239 E31.70077
G1 X21.050 Y5.962 E32.56476
G1 X21.050 Y5.432 F12000.000
G1 X-19.625 Y6.125 F12000.000
G1 X-19.310 Y16.778 F12000.000
G1 X-30.278 Y16.778 E33.40510 F1021.201
G1 X-30.278 Y5.810 E34.24544
G1 X-19.310 Y5.810 E35.08578
G1 X-19.310 Y16.709 E35.92082
G1 X-19.625 Y-35.664 F12000.000
G1 X-30.278 Y-45.978 F12000.000
G1 X-19.310 Y-45.978 E36.76116 F1021.201
G1 X-19.310 Y-35.010 E37.60150
G1 X-30.278 Y-35.010 E38.44184
G1 X-30.278 Y-45.909 E39.27688
G1 X-29.285 Y-35.325 F12000.000
G1 X21.510 Y-35.010 F12000.000
G1 X21.510 Y-45.978 E40.11722 F1021.201
G1 X32.478 Y-45.978 E40.95756
G1 X32.478 Y-35.010 E41.79790
G1 X21.579 Y-35.010 E42.63294
G1 X21.132 Y5.432 F12000.000
G1 X-18.932 Y5.432 E45.70271 F1021.201
G1 X-18.932 Y-34.632 E48.77247
G1 X21.132 Y-34.632 E51.84224
G1 X21.132 Y5.363 E54.90671
G1 X21.510 Y5.810 F12000.000
G1 X32.478 Y5.810 E55.74705 F1021.201
G1 X32.478 Y16.778 E56.58739
G1 X21.510 Y16.778 E57.42772
G1 X21.510 Y5.879 E58.26277
G1 F6000.000 E52.26277
G1 Z7.150 F12000.000
G92 E0
G1 X20.993 Y5.893 F12000.000
G1 Z3.150 F12000.000
G1 E6.10000 F6000.000
G1 X-18.793 Y5.893 E9.14833 F999.593
G1 X-18.793 Y16.760 E9.98094
G1 X-30.260 Y16.760 E10.85957
G1 X-30.260 Y5.293 E11.73821
G1 X-19.393 Y5.293 E12.57082
G1 X-19.393 Y-34.493 E15.61915
G1 X-30.260 Y-34.493 E16.45176
G1 X-30.260 Y-45.960 E17.33039
G1 X-18.793 Y-45.960 E18.20902
G1 X-18.793 Y-35.093 E19.04164
G1 X20.993 Y-35.093 E22.08997
G1 X20.993 Y-45.960 E22.92258
G1 X32.460 Y-45.960 E23.80121
G1 X32.460 Y-34.493 E24.67984
G1 X21.593 Y-34.493 E25.51246
G1 X21.593 Y5.293 E28.56079
G1 X32.460 Y5.293 E29.39340
G1 X32.460 Y16.760 E30.27203
G1 X20.993 Y16.760 E31.15066
G1 X20.993 Y5.962 E31.97798
G1 X20.993 Y5.432 F12000.000
G1 X-19.253 Y5.753 F12000.000
G1 X-19.253 Y16.299 E32.78601 F999.593
G1 X-29.799 Y16.299 E33.59404
G1 X-29.799 Y5.753 E34.40207
G1 X-19.322 Y5.753 E35.20480
G1 X-19.253 Y-34.953 F12000.000
G1 X-29.799 Y-34.953 E36.01283 F999.593
G1 X-29.799 Y-45.499 E36.82086
G1 X-19.253 Y-45.499 E37.62889
G1 X-19.253 Y-35.022 E38.43163
G1 X21.453 Y-34.953 F12000.000
G1 X21.453 Y-45.499 E39.23966 F999.593
G1 X31.999 Y-45.499 E40.04769
G1 X31.999 Y-34.953 E40.85572
G1 X21.522 Y-34.953 E41.65845
G1 X21.132 Y5.432 F12000.000
G1 X-18.932 Y5.432 E44.72821 F999.593
G1 X-18.932 Y-34.632 E47.79798
G1 X21.132 Y-34.632 E50.86774
G1 X21.132 Y5.363 E53.93221
G1 X21.453 Y16.299 F12000.000
G1 X21.453 Y5.753 E54.74024 F999.593
G1 X31.999 Y5.753 E55.54827
G1 X31.999 Y16.299 E56.35630
G1 X21.522 Y16.299 E57.15904
G1 F6000.000 E51.15904
G1 Z7.550 F12000.000
G92 E0
G1 X20.928 Y16.354 F12000.000
