; generated by Slic3r 1.0.0RC2 on 2014-05-06 at 13:47:42

; layer_height = .2
; perimeters = 3
; top_solid_layers = 3
; bottom_solid_layers = 1
; fill_density = .3
; perimeter_speed = 30
; infill_speed = 30
; travel_speed = 200
; nozzle_diameter = 0.5
; filament_diameter = 1.75
; extrusion_multiplier = 1
; perimeters extrusion width = 0.45mm
; infill extrusion width = 0.45mm
; solid infill extrusion width = 0.45mm
; top infill extrusion width = 0.40mm
; first layer extrusion width = 0.60mm

G21 ; set units to millimeters
M107
G28
M104 S210,0
M190 S60
M109 S210,0
; BEGINNING OF HEAD MOVEMENT WARNING TONES
M120 S4 P10
G4 P40
M120 S4 P10
G4 P40
M120 S4 P10
G4 P40
M120 S4 P10
G4 P40
M120 S4 P10
G4 P40
M117 KEEP HANDS AWAY
G4 S3
; END OF HEAD WARNING TONES
G90 ; use absolute coordinates
G92 E0
M82 ; use absolute distances for extrusion
T0
G92 E0
G1 F6000.000 E-5.40000
G1 Z4.350 F12000.000
G92 E0
G1 X23.147 Y-21.690 F12000.000
G1 Z0.350 F12000.000
G1 E5.50000 F6000.000
G1 X23.377 Y-20.590 E5.59461 F900
G1 X23.477 Y-19.870 E5.65580
G1 X23.597 Y-18.490 E5.77242
G1 X23.617 Y-17.570 E5.84988
G1 X23.597 Y-16.460 E5.94334
G1 X23.497 Y-15.010 E6.06570
G1 X23.247 Y-13.040 E6.23288
G1 X22.987 Y-11.650 E6.35192
G1 X22.567 Y-9.900 E6.50343
G1 X22.127 Y-8.460 E6.63019
G1 X21.507 Y-6.740 E6.78411
G1 X20.867 Y-5.160 E6.92762
G1 X20.107 Y-3.530 E7.07902
G1 X19.267 Y-1.930 E7.23116
G1 X18.457 Y-0.530 E7.36732
G1 X17.437 Y1.090 E7.52848
G1 X16.237 Y2.840 E7.70711
G1 X14.847 Y4.730 E7.90462
G1 X12.397 Y7.900 E8.24190
G1 X11.487 Y9.010 E8.36274
G1 X10.777 Y9.800 E8.45215
G1 X10.217 Y10.360 E8.51883
G1 X9.507 Y11.000 E8.59930
G1 X9.107 Y11.320 E8.64242
G1 X8.197 Y11.870 E8.73193
G1 X7.187 Y12.170 E8.82063
G1 X-6.753 Y14.490 E10.01031
G1 X-7.433 Y14.550 E10.06778
G1 X-7.703 Y14.550 E10.09051
G1 X-8.713 Y14.420 E10.17624
G1 X-9.663 Y14.060 E10.26177
G1 X-10.493 Y13.470 E10.34750
G1 X-11.163 Y12.700 E10.43342
G1 X-15.093 Y6.810 E11.02952
G1 X-16.003 Y5.210 E11.18447
G1 X-16.513 Y4.270 E11.27450
G1 X-16.933 Y3.430 E11.35357
G1 X-17.643 Y1.850 E11.49939
G1 X-18.183 Y0.530 E11.61945
G1 X-18.783 Y-1.090 E11.76489
G1 X-19.243 Y-2.490 E11.88895
G1 X-19.703 Y-4.080 E12.02829
G1 X-20.153 Y-5.820 E12.17959
G1 X-20.513 Y-7.380 E12.31437
G1 X-20.953 Y-9.550 E12.50077
G1 X-21.143 Y-10.690 E12.59807
G1 X-21.273 Y-11.870 E12.69801
G1 X-21.373 Y-13.160 E12.80693
G1 X-21.423 Y-14.350 E12.90720
G1 X-21.423 Y-15.400 E12.99559
G1 X-21.373 Y-16.650 E13.10091
G1 X-19.683 Y-46.640 E15.62963
G1 X-19.563 Y-47.680 E15.71776
G1 X-19.383 Y-48.700 E15.80495
G1 X-19.263 Y-49.240 E15.85152
G1 X-19.013 Y-50.200 E15.93504
G1 X-18.743 Y-51.040 E16.00932
G1 X-18.473 Y-51.800 E16.07721
G1 X-18.163 Y-52.540 E16.14476
G1 X-17.733 Y-53.480 E16.23178
G1 X-17.503 Y-53.940 E16.27507
G1 X-16.913 Y-54.970 E16.37500
G1 X-16.513 Y-55.600 E16.43783
G1 X-15.993 Y-56.350 E16.51466
G1 X-15.073 Y-57.500 E16.63864
G1 X-14.293 Y-58.350 E16.73576
G1 X-13.613 Y-59.000 E16.81495
G1 X-12.983 Y-59.530 E16.88426
G1 X-12.303 Y-60.050 E16.95632
G1 X-11.583 Y-60.550 E17.03012
G1 X-10.833 Y-61.020 E17.10463
G1 X-9.953 Y-61.530 E17.19026
G1 X-9.333 Y-61.850 E17.24899
G1 X-8.353 Y-62.310 E17.34013
G1 X-7.713 Y-62.570 E17.39828
G1 X-6.813 Y-62.890 E17.47870
G1 X-5.613 Y-63.230 E17.58370
G1 X-4.693 Y-63.430 E17.66296
G1 X-3.923 Y-63.560 E17.72870
G1 X-2.843 Y-63.700 E17.82038
G1 X-2.313 Y-63.740 E17.86512
G1 X-1.383 Y-63.760 E17.94343
G1 X-0.343 Y-63.740 E18.03100
G1 X0.007 Y-63.710 E18.06057
G1 X1.317 Y-63.560 E18.17158
G1 X2.297 Y-63.380 E18.25546
G1 X3.557 Y-63.060 E18.36490
G1 X4.737 Y-62.670 E18.46952
G1 X5.017 Y-62.560 E18.49485
G1 X6.167 Y-62.070 E18.60008
G1 X7.017 Y-61.640 E18.68028
G1 X8.277 Y-60.900 E18.80329
G1 X9.047 Y-60.380 E18.88151
G1 X9.777 Y-59.810 E18.95948
G1 X10.487 Y-59.220 E19.03719
G1 X11.347 Y-58.420 E19.13608
G1 X12.167 Y-57.560 E19.23611
G1 X12.907 Y-56.690 E19.33226
G1 X13.767 Y-55.500 E19.45587
G1 X13.907 Y-55.280 E19.47782
G1 X14.507 Y-54.300 E19.57455
G1 X15.007 Y-53.340 E19.66568
G1 X15.447 Y-52.330 E19.75842
G1 X15.827 Y-51.240 E19.85560
G1 X16.117 Y-50.240 E19.94325
G1 X23.126 Y-21.774 E22.41122
G1 X22.577 Y-21.560 F12000.000
G1 X22.797 Y-20.510 E22.50154 F900
G1 X22.917 Y-19.620 E22.57714
G1 X23.017 Y-18.480 E22.67348
G1 X23.037 Y-17.560 E22.75095
G1 X23.017 Y-16.470 E22.84273
G1 X22.897 Y-14.860 E22.97864
G1 X22.677 Y-13.140 E23.12462
G1 X22.417 Y-11.750 E23.24366
G1 X22.067 Y-10.280 E23.37088
G1 X21.517 Y-8.460 E23.53094
G1 X20.977 Y-6.960 E23.66515
G1 X20.337 Y-5.380 E23.80866
G1 X19.597 Y-3.800 E23.95554
G1 X18.767 Y-2.220 E24.10579
G1 X17.887 Y-0.700 E24.25364
G1 X17.037 Y0.650 E24.38795
G1 X15.687 Y2.610 E24.58830
G1 X14.387 Y4.380 E24.77318
G1 X11.957 Y7.530 E25.10810
G1 X11.047 Y8.640 E25.22893
G1 X10.357 Y9.400 E25.31535
G1 X9.827 Y9.930 E25.37845
G1 X9.147 Y10.540 E25.45535
G1 X8.747 Y10.860 E25.49848
G1 X7.967 Y11.340 E25.57558
G1 X7.097 Y11.600 E25.65202
G1 X-6.843 Y13.920 E26.84170
G1 X-7.433 Y13.970 E26.89155
G1 X-7.703 Y13.970 E26.91428
G1 X-8.853 Y13.780 E27.01241
G1 X-9.883 Y13.230 E27.11070
G1 X-10.683 Y12.380 E27.20897
G1 X-14.613 Y6.490 E27.80506
G1 X-15.453 Y5.020 E27.94760
G1 X-15.993 Y4.010 E28.04401
G1 X-16.413 Y3.170 E28.12307
G1 X-17.103 Y1.630 E28.26514
G1 X-17.693 Y0.200 E28.39537
G1 X-18.193 Y-1.150 E28.51656
G1 X-18.733 Y-2.790 E28.66192
G1 X-19.153 Y-4.240 E28.78900
G1 X-19.593 Y-5.950 E28.93765
G1 X-19.973 Y-7.600 E29.08019
G1 X-20.363 Y-9.520 E29.24513
G1 X-20.603 Y-10.990 E29.37052
G1 X-20.713 Y-12.030 E29.45856
G1 X-20.803 Y-13.180 E29.55567
G1 X-20.843 Y-14.210 E29.64244
G1 X-20.843 Y-15.540 E29.75441
G1 X-20.803 Y-16.560 E29.84034
G1 X-19.103 Y-46.610 E32.37415
G1 X-18.993 Y-47.580 E32.45633
G1 X-18.853 Y-48.400 E32.52636
G1 X-18.663 Y-49.250 E32.59969
G1 X-18.453 Y-50.050 E32.66932
G1 X-18.193 Y-50.850 E32.74013
G1 X-17.843 Y-51.820 E32.82695
G1 X-17.213 Y-53.220 E32.95619
G1 X-16.883 Y-53.870 E33.01756
G1 X-16.503 Y-54.530 E33.08167
G1 X-16.023 Y-55.290 E33.15734
G1 X-15.513 Y-56.020 E33.23231
G1 X-15.363 Y-56.230 E33.25404
G1 X-14.623 Y-57.140 E33.35278
G1 X-13.883 Y-57.940 E33.44452
G1 X-13.243 Y-58.560 E33.51953
G1 X-12.773 Y-58.960 E33.57149
G1 X-11.943 Y-59.590 E33.65921
G1 X-11.113 Y-60.170 E33.74446
G1 X-10.533 Y-60.530 E33.80193
G1 X-9.683 Y-61.020 E33.88452
G1 X-8.943 Y-61.400 E33.95455
G1 X-8.303 Y-61.700 E34.01406
G1 X-7.513 Y-62.020 E34.08581
G1 X-6.653 Y-62.330 E34.16277
G1 X-5.463 Y-62.670 E34.26696
G1 X-4.573 Y-62.870 E34.34375
G1 X-3.693 Y-63.010 E34.41877
G1 X-2.803 Y-63.120 E34.49426
G1 X-2.053 Y-63.170 E34.55754
G1 X-1.373 Y-63.180 E34.61479
G1 X-0.053 Y-63.140 E34.72597
G1 X0.957 Y-63.030 E34.81150
G1 X2.197 Y-62.810 E34.91752
G1 X3.407 Y-62.500 E35.02267
G1 X4.797 Y-62.030 E35.14620
G1 X5.677 Y-61.660 E35.22656
G1 X6.757 Y-61.120 E35.32821
G1 X7.947 Y-60.420 E35.44444
G1 X8.717 Y-59.900 E35.52266
G1 X9.417 Y-59.360 E35.59709
G1 X10.097 Y-58.800 E35.67125
G1 X10.767 Y-58.180 E35.74810
G1 X11.747 Y-57.160 E35.86718
G1 X12.467 Y-56.310 E35.96095
G1 X13.417 Y-54.980 E36.09855
G1 X13.857 Y-54.270 E36.16887
G1 X14.617 Y-52.810 E36.30743
G1 X14.917 Y-52.100 E36.37232
G1 X15.327 Y-50.900 E36.47908
G1 X15.517 Y-50.240 E36.53690
G1 X22.556 Y-21.644 E39.01610
G1 F6000.000 E33.61610
G1 Z4.350 F12000.000
G92 E0
G1 X-4.014 Y-40.961 F12000.000
G1 Z0.350 F12000.000
G1 E5.50000 F6000.000
G1 X-4.191 Y-40.737 E5.52404 F900
G1 X-4.358 Y-40.564 E5.54423
G1 X-4.728 Y-40.269 E5.58414
G1 X-4.975 Y-40.123 E5.60821
G1 X-5.235 Y-40.005 E5.63226
G1 X-5.506 Y-39.915 E5.65631
G1 X-5.739 Y-39.861 E5.67650
G1 X-6.023 Y-39.825 E5.70054
G1 X-6.308 Y-39.819 E5.72460
G1 X-6.779 Y-39.875 E5.76453
G1 X-7.056 Y-39.949 E5.78860
G1 X-7.323 Y-40.050 E5.81264
G1 X-7.537 Y-40.157 E5.83282
G1 X-7.779 Y-40.309 E5.85687
G1 X-8.142 Y-40.614 E5.89680
G1 X-8.333 Y-40.827 E5.92086
G1 X-8.500 Y-41.059 E5.94492
G1 X-8.642 Y-41.307 E5.96897
G1 X-8.757 Y-41.568 E5.99300
G1 X-8.832 Y-41.796 E6.01319
G1 X-8.894 Y-42.075 E6.03724
G1 X-8.926 Y-42.359 E6.06131
G1 X-8.929 Y-42.645 E6.08536
G1 X-8.866 Y-43.115 E6.12530
G1 X-8.789 Y-43.390 E6.14936
G1 X-8.703 Y-43.613 E6.16950
G1 X-8.475 Y-44.029 E6.20945
G1 X-8.304 Y-44.258 E6.23351
G1 X-8.142 Y-44.435 E6.25369
G1 X-7.930 Y-44.627 E6.27774
G1 X-7.699 Y-44.795 E6.30180
G1 X-7.452 Y-44.938 E6.32585
G1 X-7.191 Y-45.054 E6.34990
G1 X-6.734 Y-45.183 E6.38984
G1 X-6.451 Y-45.222 E6.41391
G1 X-6.166 Y-45.231 E6.43794
G1 X-5.926 Y-45.215 E6.45814
G1 X-5.645 Y-45.169 E6.48217
G1 X-5.192 Y-45.027 E6.52211
G1 X-4.974 Y-44.926 E6.54230
G1 X-4.728 Y-44.781 E6.56634
G1 X-4.499 Y-44.611 E6.59040
G1 X-4.289 Y-44.417 E6.61445
G1 X-3.988 Y-44.050 E6.65439
G1 X-3.862 Y-43.847 E6.67456
G1 X-3.736 Y-43.590 E6.69862
G1 X-3.637 Y-43.322 E6.72267
G1 X-3.568 Y-43.045 E6.74673
G1 X-3.518 Y-42.573 E6.78666
G1 X-3.528 Y-42.288 E6.81071
G1 X-3.568 Y-42.005 E6.83476
G1 X-3.624 Y-41.772 E6.85495
G1 X-3.718 Y-41.502 E6.87900
G1 X-3.840 Y-41.244 E6.90304
G1 X-3.966 Y-41.033 E6.92370
G1 X-4.467 Y-41.323 F12000.000
G1 X-4.700 Y-41.039 E6.95466 F900
G1 X-5.046 Y-40.752 E6.99242
G1 X-5.415 Y-40.556 E7.02762
G1 X-5.766 Y-40.446 E7.05856
G1 X-6.212 Y-40.396 E7.09633
G1 X-6.628 Y-40.435 E7.13152
G1 X-7.057 Y-40.566 E7.16930
G1 X-7.382 Y-40.738 E7.20025
G1 X-7.708 Y-40.999 E7.23542
G1 X-7.949 Y-41.277 E7.26638
G1 X-8.159 Y-41.638 E7.30158
G1 X-8.302 Y-42.064 E7.33934
G1 X-8.351 Y-42.428 E7.37029
G1 X-8.324 Y-42.876 E7.40807
G1 X-8.215 Y-43.279 E7.44326
G1 X-8.012 Y-43.680 E7.48103
G1 X-7.787 Y-43.970 E7.51197
G1 X-7.474 Y-44.248 E7.54716
G1 X-7.085 Y-44.471 E7.58494
G1 X-6.738 Y-44.591 E7.61588
G1 X-6.324 Y-44.651 E7.65107
G1 X-5.876 Y-44.625 E7.68884
G1 X-5.520 Y-44.533 E7.71978
G1 X-5.115 Y-44.341 E7.75756
G1 X-4.781 Y-44.089 E7.79275
G1 X-4.485 Y-43.752 E7.83052
G1 X-4.300 Y-43.434 E7.86146
G1 X-4.152 Y-43.011 E7.89923
G1 X-4.097 Y-42.596 E7.93444
G1 X-4.129 Y-42.149 E7.97220
G1 X-4.225 Y-41.794 E8.00316
G1 X-4.420 Y-41.396 E8.04049
G1 X-4.911 Y-41.702 F12000.000
G1 X-5.101 Y-41.456 E8.06668 F900
G1 X-5.350 Y-41.245 E8.09419
G1 X-5.577 Y-41.116 E8.11615
G1 X-5.887 Y-41.012 E8.14366
G1 X-6.212 Y-40.975 E8.17116
G1 X-6.522 Y-41.004 E8.19736
G1 X-6.772 Y-41.075 E8.21932
G1 X-7.051 Y-41.214 E8.24552
G1 X-7.307 Y-41.416 E8.27302
G1 X-7.478 Y-41.613 E8.29498
G1 X-7.635 Y-41.882 E8.32119
G1 X-7.738 Y-42.192 E8.34869
G1 X-7.773 Y-42.451 E8.37065
G1 X-7.756 Y-42.762 E8.39685
G1 X-7.695 Y-43.015 E8.41880
G1 X-7.559 Y-43.312 E8.44631
G1 X-7.375 Y-43.563 E8.47251
G1 X-7.185 Y-43.741 E8.49447
G1 X-6.908 Y-43.916 E8.52197
G1 X-6.617 Y-44.024 E8.54817
G1 X-6.360 Y-44.069 E8.57013
G1 X-6.033 Y-44.063 E8.59764
G1 X-5.715 Y-43.989 E8.62514
G1 X-5.433 Y-43.857 E8.65134
G1 X-5.220 Y-43.706 E8.67330
G1 X-5.005 Y-43.481 E8.69950
G1 X-4.862 Y-43.263 E8.72146
G1 X-4.737 Y-42.961 E8.74897
G1 X-4.680 Y-42.655 E8.77517
G1 X-4.687 Y-42.329 E8.80268
G1 X-4.741 Y-42.074 E8.82463
G1 X-4.867 Y-41.777 E8.85172
G1 X-4.771 Y-41.424 F12000.000
G1 X1.961 Y-42.217 F12000.000
G1 X1.948 Y-42.691 E8.89165 F900
G1 X1.974 Y-42.929 E8.91184
G1 X2.031 Y-43.209 E8.93588
G1 X2.118 Y-43.481 E8.95994
G1 X2.233 Y-43.743 E8.98399
G1 X2.482 Y-44.146 E9.02392
G1 X2.634 Y-44.332 E9.04410
G1 X2.836 Y-44.534 E9.06815
G1 X3.058 Y-44.714 E9.09222
G1 X3.297 Y-44.870 E9.11627
G1 X3.727 Y-45.070 E9.15619
G1 X4.001 Y-45.153 E9.18025
G1 X4.281 Y-45.207 E9.20430
G1 X4.520 Y-45.229 E9.22449
G1 X4.806 Y-45.227 E9.24852
G1 X5.275 Y-45.159 E9.28848
G1 X5.549 Y-45.078 E9.31251
G1 X5.772 Y-44.989 E9.33270
G1 X6.025 Y-44.857 E9.35675
G1 X6.263 Y-44.699 E9.38080
G1 X6.484 Y-44.517 E9.40487
G1 X6.683 Y-44.313 E9.42891
G1 X6.964 Y-43.930 E9.46885
G1 X7.099 Y-43.679 E9.49290
G1 X7.192 Y-43.457 E9.51309
G1 X7.276 Y-43.184 E9.53715
G1 X7.331 Y-42.904 E9.56120
G1 X7.356 Y-42.619 E9.58525
G1 X7.351 Y-42.334 E9.60930
G1 X7.276 Y-41.865 E9.64922
G1 X7.192 Y-41.592 E9.67328
G1 X7.099 Y-41.371 E9.69347
G1 X6.964 Y-41.119 E9.71752
G1 X6.803 Y-40.883 E9.74156
G1 X6.618 Y-40.665 E9.76563
G1 X6.411 Y-40.469 E9.78967
G1 X6.025 Y-40.193 E9.82961
G1 X5.772 Y-40.061 E9.85367
G1 X5.549 Y-39.971 E9.87386
G1 X5.275 Y-39.891 E9.89789
G1 X4.994 Y-39.840 E9.92195
G1 X4.709 Y-39.818 E9.94601
G1 X4.424 Y-39.827 E9.97005
G1 X3.956 Y-39.908 E10.01000
G1 X3.727 Y-39.980 E10.03018
G1 X3.464 Y-40.091 E10.05423
G1 X3.214 Y-40.230 E10.07829
G1 X2.981 Y-40.394 E10.10233
G1 X2.634 Y-40.718 E10.14227
G1 X2.455 Y-40.941 E10.16634
G1 X2.300 Y-41.181 E10.19037
G1 X2.172 Y-41.436 E10.21443
G1 X2.085 Y-41.660 E10.23461
G1 X1.972 Y-42.131 E10.27539
G1 X2.546 Y-42.204 F12000.000
G1 X2.524 Y-42.622 E10.31058 F900
G1 X2.592 Y-43.065 E10.34836
G1 X2.751 Y-43.485 E10.38613
G1 X2.944 Y-43.797 E10.41707
G1 X3.226 Y-44.106 E10.45226
G1 X3.519 Y-44.328 E10.48321
G1 X3.922 Y-44.525 E10.52098
G1 X4.327 Y-44.629 E10.55617
G1 X4.775 Y-44.650 E10.59394
G1 X5.139 Y-44.596 E10.62490
G1 X5.534 Y-44.461 E10.66008
G1 X5.921 Y-44.233 E10.69786
G1 X6.196 Y-43.989 E10.72880
G1 X6.452 Y-43.658 E10.76399
G1 X6.620 Y-43.332 E10.79494
G1 X6.745 Y-42.901 E10.83271
G1 X6.778 Y-42.453 E10.87048
G1 X6.723 Y-42.039 E10.90567
G1 X6.608 Y-41.690 E10.93662
G1 X6.390 Y-41.298 E10.97439
G1 X6.116 Y-40.981 E11.00958
G1 X5.829 Y-40.752 E11.04053
G1 X5.431 Y-40.545 E11.07830
G1 X5.029 Y-40.430 E11.11350
G1 X4.582 Y-40.397 E11.15126
G1 X4.217 Y-40.441 E11.18221
G1 X3.789 Y-40.578 E11.21999
G1 X3.426 Y-40.784 E11.25517
G1 X3.144 Y-41.021 E11.28612
G1 X2.862 Y-41.370 E11.32390
G1 X2.671 Y-41.742 E11.35909
G1 X2.561 Y-42.119 E11.39217
G1 X3.133 Y-42.208 F12000.000
G1 X3.100 Y-42.515 E11.41821 F900
G1 X3.121 Y-42.777 E11.44033
G1 X3.208 Y-43.092 E11.46783
G1 X3.350 Y-43.369 E11.49403
G1 X3.556 Y-43.623 E11.52154
G1 X3.756 Y-43.790 E11.54350
G1 X4.027 Y-43.944 E11.56969
G1 X4.338 Y-44.043 E11.59720
G1 X4.597 Y-44.074 E11.61916
G1 X4.923 Y-44.051 E11.64666
G1 X5.222 Y-43.965 E11.67286
G1 X5.511 Y-43.814 E11.70037
G1 X5.715 Y-43.651 E11.72233
G1 X5.919 Y-43.416 E11.74853
G1 X6.050 Y-43.190 E11.77048
G1 X6.159 Y-42.882 E11.79799
G1 X6.200 Y-42.574 E11.82419
G1 X6.175 Y-42.248 E11.85170
G1 X6.107 Y-41.996 E11.87365
G1 X5.972 Y-41.716 E11.89985
G1 X5.818 Y-41.505 E11.92181
G1 X5.578 Y-41.283 E11.94932
G1 X5.297 Y-41.116 E11.97683
G1 X5.003 Y-41.015 E12.00302
G1 X4.745 Y-40.978 E12.02498
G1 X4.418 Y-40.992 E12.05249
G1 X4.117 Y-41.070 E12.07869
G1 X3.880 Y-41.180 E12.10065
G1 X3.616 Y-41.371 E12.12815
G1 X3.406 Y-41.601 E12.15435
G1 X3.269 Y-41.823 E12.17631
G1 X3.153 Y-42.123 E12.20340
G1 X2.842 Y-42.311 F12000.000
G1 F6000.000 E6.80340
G1 Z4.350 F12000.000
G92 E0
G1 X9.587 Y-38.736 F12000.000
G1 Z0.350 F12000.000
G1 E5.50000 F6000.000
G1 X8.799 Y-37.213 E5.64436 F900
G1 X9.387 Y-36.122 E5.74866
G1 X9.809 Y-35.261 E5.82943
G1 X11.500 Y-31.384 E6.18548
G1 X11.972 Y-30.378 E6.27901
G1 X12.488 Y-29.384 E6.37336
G1 X12.941 Y-28.604 E6.44932
G1 X13.483 Y-27.759 E6.53375
G1 X15.819 Y-24.405 E6.87785
G1 X16.295 Y-23.646 E6.95330
G1 X16.799 Y-22.737 E7.04083
G1 X17.111 Y-22.071 E7.10273
G1 X17.387 Y-21.376 E7.16568
G1 X17.621 Y-20.647 E7.23008
G1 X17.779 Y-20.001 E7.28612
G1 X17.883 Y-19.392 E7.33815
G1 X17.966 Y-18.596 E7.40549
G1 X17.996 Y-18.043 E7.45210
G1 X18.004 Y-17.188 E7.52410
G1 X17.931 Y-15.732 E7.64680
G1 X17.842 Y-14.865 E7.72016
G1 X17.725 Y-14.022 E7.79185
G1 X17.586 Y-13.216 E7.86066
G1 X17.429 Y-12.464 E7.92535
G1 X17.261 Y-11.782 E7.98452
G1 X17.023 Y-10.940 E8.05817
G1 X16.495 Y-9.326 E8.20114
G1 X16.205 Y-8.550 E8.27084
G1 X15.793 Y-7.546 E8.36225
G1 X15.124 Y-6.095 E8.49670
G1 X14.398 Y-4.703 E8.62886
G1 X13.620 Y-3.359 E8.75961
G1 X12.509 Y-1.625 E8.93300
G1 X11.628 Y-0.355 E9.06316
G1 X10.710 Y0.900 E9.19398
G1 X8.262 Y4.091 E9.53257
G1 X7.764 Y4.728 E9.60066
G1 X7.626 Y4.680 E9.61302
G1 X7.634 Y3.729 E9.69311
G1 X7.678 Y2.766 E9.77425
G1 X7.763 Y1.819 E9.85431
G1 X7.919 Y0.651 E9.95350
G1 X8.217 Y-0.967 E10.09203
G1 X8.532 Y-2.351 E10.21145
G1 X9.910 Y-7.629 E10.67070
G1 X10.953 Y-14.397 E11.24723
G1 X11.049 Y-15.439 E11.33525
G1 X11.074 Y-16.125 E11.39307
G1 X11.071 Y-16.805 E11.45029
G1 X11.016 Y-17.810 E11.53510
G1 X10.860 Y-19.125 E11.64656
G1 X10.624 Y-20.409 E11.75644
