; generated by Slic3r 1.0.0RC2 on 2014-04-26 at 12:12:38

; layer_height = .2
; perimeters = 3
; top_solid_layers = 5
; bottom_solid_layers = 3
; fill_density = .3
; perimeter_speed = 30
; infill_speed = 30
; travel_speed = 200
; nozzle_diameter = 0.5
; filament_diameter = 1.75
; extrusion_multiplier = 1
; perimeters extrusion width = 0.45mm
; infill extrusion width = 0.45mm
; solid infill extrusion width = 0.45mm
; top infill extrusion width = 0.40mm
; first layer extrusion width = 0.60mm

G21 ; set units to millimeters
M107
G28
M104 S210,0
M190 S60
M109 S210,0
; BEGINNING OF HEAD MOVEMENT WARNING TONES
M120 S4 P10
G4 P40
M120 S4 P10
G4 P40
M120 S4 P10
G4 P40
M120 S4 P10
G4 P40
M120 S4 P10
G4 P40
M117 KEEP HANDS AWAY
G4 S3
; END OF HEAD WARNING TONES
G90 ; use absolute coordinates
G92 E0
M82 ; use absolute distances for extrusion
T0
G92 E0
G1 F6000.000 E-5.40000
G1 Z4.350 F12000.000
G92 E0
G1 X-20.000 Y-47.130 F12000.000
G1 Z0.350 F12000.000
G1 E5.50000 F6000.000
G1 X20.000 Y-47.130 E8.86740 F900
G1 X22.090 Y-46.960 E9.04393
G1 X22.800 Y-46.840 E9.10455
G1 X24.490 Y-46.390 E9.25178
G1 X25.160 Y-46.140 E9.31198
G1 X27.080 Y-45.240 E9.49050
G1 X28.810 Y-44.040 E9.66774
G1 X29.360 Y-43.580 E9.72811
G1 X30.600 Y-42.340 E9.87573
G1 X30.850 Y-42.070 E9.90671
G1 X31.070 Y-41.780 E9.93736
G1 X32.070 Y-40.350 E10.08426
G1 X32.260 Y-40.050 E10.11415
G1 X32.430 Y-39.720 E10.14540
G1 X33.300 Y-37.820 E10.32132
G1 X33.410 Y-37.470 E10.35221
G1 X33.860 Y-35.780 E10.49944
G1 X33.980 Y-35.090 E10.55840
G1 X34.140 Y-33.350 E10.70550
G1 X34.160 Y-32.970 E10.73753
G1 X34.160 Y7.020 E14.10410
G1 X33.980 Y9.140 E14.28321
G1 X33.860 Y9.830 E14.34217
G1 X33.410 Y11.520 E14.48940
G1 X33.300 Y11.870 E14.52029
G1 X32.430 Y13.770 E14.69621
G1 X32.260 Y14.100 E14.72746
G1 X32.070 Y14.400 E14.75735
G1 X30.850 Y16.120 E14.93488
G1 X29.360 Y17.630 E15.11347
G1 X28.810 Y18.090 E15.17383
G1 X27.080 Y19.290 E15.35108
G1 X25.160 Y20.190 E15.52959
G1 X24.490 Y20.440 E15.58979
G1 X22.800 Y20.890 E15.73702
G1 X22.110 Y21.010 E15.79598
G1 X20.380 Y21.170 E15.94224
G1 X20.000 Y21.190 E15.97428
G1 X-20.000 Y21.190 E19.34168
G1 X-22.120 Y21.010 E19.52080
G1 X-22.810 Y20.890 E19.57976
G1 X-24.500 Y20.440 E19.72699
G1 X-24.850 Y20.330 E19.75787
G1 X-26.750 Y19.460 E19.93379
G1 X-27.080 Y19.290 E19.96504
G1 X-27.380 Y19.100 E19.99494
G1 X-29.100 Y17.880 E20.17246
G1 X-30.610 Y16.390 E20.35105
G1 X-30.860 Y16.120 E20.38203
G1 X-31.080 Y15.830 E20.41267
G1 X-32.080 Y14.400 E20.55957
G1 X-32.270 Y14.100 E20.58947
G1 X-32.440 Y13.770 E20.62072
G1 X-33.310 Y11.870 E20.79664
G1 X-33.420 Y11.520 E20.82753
G1 X-33.870 Y9.830 E20.97476
G1 X-33.940 Y9.480 E21.00481
G1 X-33.990 Y9.120 E21.03540
G1 X-34.140 Y7.380 E21.18243
G1 X-34.160 Y7.020 E21.21278
G1 X-34.160 Y-32.970 E24.57934
G1 X-33.990 Y-35.070 E24.75671
G1 X-33.940 Y-35.430 E24.78731
G1 X-33.870 Y-35.780 E24.81736
G1 X-33.420 Y-37.470 E24.96459
G1 X-33.170 Y-38.140 E25.02479
G1 X-32.270 Y-40.060 E25.20330
G1 X-31.070 Y-41.790 E25.38055
G1 X-30.610 Y-42.340 E25.44091
G1 X-29.100 Y-43.830 E25.61950
G1 X-27.380 Y-45.050 E25.79702
G1 X-27.080 Y-45.240 E25.82692
G1 X-26.750 Y-45.410 E25.85817
G1 X-24.850 Y-46.280 E26.03409
G1 X-24.500 Y-46.390 E26.06498
G1 X-22.810 Y-46.840 E26.21221
G1 X-22.460 Y-46.910 E26.24226
G1 X-22.100 Y-46.960 E26.27285
G1 X-20.087 Y-47.125 E26.44292
G1 X-20.000 Y-46.550 F12000.000
G1 X20.000 Y-46.550 E29.81032 F900
G1 X20.310 Y-46.540 E29.83643
G1 X22.040 Y-46.390 E29.98262
G1 X22.650 Y-46.280 E30.03480
G1 X24.340 Y-45.830 E30.18203
G1 X24.920 Y-45.620 E30.23396
G1 X26.790 Y-44.740 E30.40795
G1 X27.060 Y-44.570 E30.43481
G1 X28.480 Y-43.570 E30.58102
G1 X28.950 Y-43.170 E30.63297
G1 X30.190 Y-41.930 E30.78060
G1 X30.400 Y-41.700 E30.80682
G1 X30.590 Y-41.450 E30.83326
G1 X31.760 Y-39.760 E31.00630
G1 X32.630 Y-37.910 E31.17840
G1 X32.750 Y-37.620 E31.20482
G1 X32.850 Y-37.320 E31.23145
G1 X33.300 Y-35.630 E31.37868
G1 X33.400 Y-35.040 E31.42905
G1 X33.560 Y-33.300 E31.57615
G1 X33.580 Y-32.970 E31.60399
G1 X33.580 Y7.020 E34.97055
G1 X33.400 Y9.090 E35.14547
G1 X33.300 Y9.680 E35.19585
G1 X32.850 Y11.370 E35.34308
G1 X32.750 Y11.670 E35.36970
G1 X31.900 Y13.530 E35.54186
G1 X31.760 Y13.810 E35.56821
G1 X31.590 Y14.070 E35.59436
G1 X30.400 Y15.750 E35.76768
G1 X28.950 Y17.220 E35.94151
G1 X28.480 Y17.620 E35.99346
G1 X27.060 Y18.620 E36.13967
G1 X26.790 Y18.790 E36.16653
G1 X24.920 Y19.670 E36.34052
G1 X24.340 Y19.880 E36.39245
G1 X22.650 Y20.330 E36.53968
G1 X22.060 Y20.430 E36.59006
G1 X20.330 Y20.590 E36.73632
G1 X20.000 Y20.610 E36.76415
G1 X-20.000 Y20.610 E40.13156
G1 X-22.070 Y20.430 E40.30648
G1 X-22.660 Y20.330 E40.35685
G1 X-24.350 Y19.880 E40.50408
G1 X-24.650 Y19.780 E40.53071
G1 X-26.510 Y18.930 E40.70287
G1 X-26.790 Y18.790 E40.72922
G1 X-27.050 Y18.620 E40.75537
G1 X-28.730 Y17.430 E40.92869
G1 X-30.200 Y15.980 E41.10251
G1 X-30.410 Y15.750 E41.12873
G1 X-30.600 Y15.500 E41.15517
G1 X-31.770 Y13.810 E41.32821
G1 X-32.640 Y11.960 E41.50031
G1 X-32.760 Y11.670 E41.52674
G1 X-32.860 Y11.370 E41.55336
G1 X-33.310 Y9.680 E41.70059
G1 X-33.370 Y9.380 E41.72634
G1 X-33.420 Y9.070 E41.75278
G1 X-33.570 Y7.330 E41.89980
G1 X-33.580 Y-32.970 E45.29246
G1 X-33.570 Y-33.280 E45.31857
G1 X-33.380 Y-35.330 E45.49189
G1 X-32.860 Y-37.320 E45.66505
G1 X-32.650 Y-37.900 E45.71698
G1 X-31.770 Y-39.770 E45.89096
G1 X-31.600 Y-40.040 E45.91782
G1 X-30.600 Y-41.460 E46.06403
G1 X-30.200 Y-41.930 E46.11599
G1 X-28.730 Y-43.380 E46.28982
G1 X-26.790 Y-44.740 E46.48927
G1 X-24.940 Y-45.610 E46.66137
G1 X-24.650 Y-45.730 E46.68779
G1 X-24.350 Y-45.830 E46.71442
G1 X-22.360 Y-46.350 E46.88757
G1 X-22.050 Y-46.390 E46.91388
G1 X-20.087 Y-46.547 E47.07969
G1 F6000.000 E41.67969
G1 Z4.350 F12000.000
G92 E0
G1 X-19.936 Y-41.513 F12000.000
G1 Z0.350 F12000.000
G1 E5.50000 F6000.000
G1 X19.936 Y-41.513 E8.85669 F900
G1 X21.482 Y-41.378 E8.98735
G1 X22.920 Y-40.992 E9.11263
G1 X24.269 Y-40.364 E9.23791
G1 X25.488 Y-39.510 E9.36319
G1 X26.540 Y-38.458 E9.48847
G1 X27.394 Y-37.239 E9.61376
G1 X28.022 Y-35.890 E9.73904
G1 X28.408 Y-34.452 E9.86432
G1 X28.543 Y-32.906 E9.99497
G1 X28.543 Y6.966 E13.35167
G1 X28.408 Y8.512 E13.48232
G1 X28.022 Y9.950 E13.60760
G1 X27.394 Y11.299 E13.73289
G1 X26.540 Y12.518 E13.85817
G1 X25.488 Y13.570 E13.98345
G1 X24.269 Y14.424 E14.10873
G1 X22.920 Y15.052 E14.23401
G1 X21.482 Y15.438 E14.35929
G1 X19.936 Y15.573 E14.48995
G1 X-19.936 Y15.573 E17.84664
G1 X-21.482 Y15.438 E17.97730
G1 X-22.920 Y15.052 E18.10258
G1 X-24.269 Y14.424 E18.22786
G1 X-25.342 Y13.672 E18.33819
G1 X-25.488 Y13.570 E18.35314
G1 X-26.540 Y12.518 E18.47842
G1 X-27.394 Y11.299 E18.60370
G1 X-28.022 Y9.950 E18.72898
G1 X-28.408 Y8.512 E18.85426
G1 X-28.543 Y6.966 E18.98492
G1 X-28.543 Y-32.906 E22.34161
G1 X-28.408 Y-34.452 E22.47227
G1 X-28.022 Y-35.890 E22.59755
G1 X-27.394 Y-37.239 E22.72283
G1 X-26.540 Y-38.458 E22.84811
G1 X-25.488 Y-39.510 E22.97339
G1 X-24.269 Y-40.364 E23.09867
G1 X-22.920 Y-40.992 E23.22396
G1 X-21.482 Y-41.378 E23.34924
G1 X-20.023 Y-41.505 E23.47259
G1 X-19.962 Y-42.091 F12000.000
G1 X19.962 Y-42.091 E26.83353 F900
G1 X21.583 Y-41.950 E26.97058
G1 X23.119 Y-41.538 E27.10438
G1 X24.559 Y-40.867 E27.23818
G1 X25.861 Y-39.955 E27.37199
G1 X26.985 Y-38.831 E27.50579
G1 X27.897 Y-37.529 E27.63959
G1 X28.568 Y-36.089 E27.77340
G1 X28.980 Y-34.553 E27.90720
G1 X29.121 Y-32.932 E28.04424
G1 X29.121 Y6.992 E31.40519
G1 X28.980 Y8.613 E31.54223
G1 X28.568 Y10.149 E31.67604
G1 X27.897 Y11.589 E31.80984
G1 X26.985 Y12.891 E31.94364
G1 X25.861 Y14.015 E32.07745
G1 X24.559 Y14.927 E32.21125
G1 X23.119 Y15.598 E32.34505
G1 X21.583 Y16.010 E32.47886
G1 X19.962 Y16.151 E32.61590
G1 X-19.962 Y16.151 E35.97685
G1 X-21.583 Y16.010 E36.11389
G1 X-23.119 Y15.598 E36.24769
G1 X-24.559 Y14.927 E36.38150
G1 X-25.674 Y14.146 E36.49609
G1 X-25.861 Y14.015 E36.51530
G1 X-26.985 Y12.891 E36.64910
G1 X-27.897 Y11.589 E36.78291
G1 X-28.568 Y10.149 E36.91671
G1 X-28.980 Y8.613 E37.05051
G1 X-29.121 Y6.992 E37.18756
G1 X-29.121 Y-32.932 E40.54850
G1 X-28.980 Y-34.553 E40.68555
G1 X-28.568 Y-36.089 E40.81935
G1 X-27.897 Y-37.529 E40.95315
G1 X-26.985 Y-38.831 E41.08696
G1 X-25.861 Y-39.955 E41.22076
G1 X-24.559 Y-40.867 E41.35456
G1 X-23.119 Y-41.538 E41.48837
G1 X-21.583 Y-41.950 E41.62217
G1 X-20.048 Y-42.084 E41.75191
G1 X-19.963 Y-42.670 F12000.000
G1 X19.987 Y-42.670 E45.11512 F900
G1 X21.684 Y-42.522 E45.25855
G1 X23.317 Y-42.084 E45.40087
G1 X24.849 Y-41.369 E45.54320
G1 X26.234 Y-40.400 E45.68552
G1 X27.430 Y-39.204 E45.82785
G1 X28.399 Y-37.819 E45.97017
G1 X29.114 Y-36.287 E46.11250
G1 X29.552 Y-34.654 E46.25482
G1 X29.700 Y-32.957 E46.39826
G1 X29.700 Y7.017 E49.76346
G1 X29.552 Y8.714 E49.90689
G1 X29.114 Y10.347 E50.04921
G1 X28.399 Y11.879 E50.19154
G1 X27.430 Y13.264 E50.33386
G1 X26.234 Y14.460 E50.47619
G1 X24.849 Y15.429 E50.61851
G1 X23.317 Y16.144 E50.76084
G1 X21.684 Y16.582 E50.90316
G1 X19.987 Y16.730 E51.04660
G1 X-19.987 Y16.730 E54.41180
G1 X-21.684 Y16.582 E54.55523
G1 X-23.317 Y16.144 E54.69755
G1 X-24.849 Y15.429 E54.83988
G1 X-26.006 Y14.620 E54.95873
G1 X-26.234 Y14.460 E54.98220
G1 X-27.430 Y13.264 E55.12453
G1 X-28.399 Y11.879 E55.26685
G1 X-29.114 Y10.347 E55.40918
G1 X-29.552 Y8.714 E55.55150
G1 X-29.700 Y7.017 E55.69494
G1 X-29.700 Y-32.957 E59.06014
G1 X-29.552 Y-34.654 E59.20357
G1 X-29.114 Y-36.287 E59.34589
G1 X-28.399 Y-37.819 E59.48822
G1 X-27.430 Y-39.204 E59.63054
G1 X-26.234 Y-40.400 E59.77287
G1 X-24.849 Y-41.369 E59.91519
G1 X-23.317 Y-42.084 E60.05752
G1 X-21.684 Y-42.522 E60.19984
G1 X-20.048 Y-42.665 E60.33814
G1 X-19.660 Y-42.177 F12000.000
G1 X-25.133 Y-39.087 F12000.000
G1 X-23.993 Y-39.886 E60.45560 F900
G1 X-22.731 Y-40.474 E60.57305
G1 X-21.387 Y-40.834 E60.69050
G1 X-19.912 Y-40.963 E60.81538
G1 X19.912 Y-40.963 E64.17572
G1 X21.387 Y-40.834 E64.30060
G1 X22.731 Y-40.474 E64.41805
G1 X23.993 Y-39.886 E64.53550
G1 X25.133 Y-39.087 E64.65296
G1 X26.117 Y-38.103 E64.77041
G1 X26.916 Y-36.963 E64.88787
G1 X27.504 Y-35.701 E65.00532
G1 X27.864 Y-34.357 E65.12277
G1 X27.993 Y-32.882 E65.24765
G1 X27.993 Y6.942 E68.60799
G1 X27.864 Y8.417 E68.73287
G1 X27.504 Y9.761 E68.85032
G1 X26.916 Y11.023 E68.96777
G1 X26.117 Y12.163 E69.08523
G1 X25.133 Y13.147 E69.20268
G1 X23.993 Y13.946 E69.32014
G1 X22.731 Y14.534 E69.43759
G1 X21.387 Y14.894 E69.55504
G1 X19.912 Y15.023 E69.67992
G1 X-19.912 Y15.023 E73.04026
G1 X-21.387 Y14.894 E73.16514
G1 X-22.731 Y14.534 E73.28259
G1 X-23.993 Y13.946 E73.40004
G1 X-25.133 Y13.147 E73.51750
G1 X-26.117 Y12.163 E73.63495
G1 X-26.916 Y11.023 E73.75240
G1 X-27.504 Y9.761 E73.86986
G1 X-27.864 Y8.417 E73.98731
G1 X-27.993 Y6.942 E74.11219
G1 X-27.993 Y-32.882 E77.47253
G1 X-27.864 Y-34.357 E77.59740
G1 X-27.504 Y-35.701 E77.71486
G1 X-26.916 Y-36.963 E77.83231
G1 X-26.117 Y-38.103 E77.94977
G1 X-25.195 Y-39.026 E78.05988
G1 X-24.759 Y-38.641 F12000.000
G1 X-23.702 Y-39.382 E78.16877 F900
G1 X-22.532 Y-39.927 E78.27767
G1 X-21.286 Y-40.261 E78.38656
G1 X-19.887 Y-40.383 E78.50502
G1 X19.887 Y-40.383 E81.86109
G1 X21.286 Y-40.261 E81.97954
G1 X22.532 Y-39.927 E82.08844
G1 X23.702 Y-39.382 E82.19733
G1 X24.759 Y-38.641 E82.30622
G1 X25.671 Y-37.729 E82.41512
G1 X26.412 Y-36.672 E82.52401
G1 X26.957 Y-35.502 E82.63290
G1 X27.291 Y-34.256 E82.74179
G1 X27.413 Y-32.857 E82.86025
G1 X27.413 Y6.917 E86.21632
G1 X27.291 Y8.316 E86.33478
G1 X26.957 Y9.562 E86.44367
G1 X26.412 Y10.732 E86.55256
G1 X25.671 Y11.789 E86.66146
G1 X24.759 Y12.701 E86.77035
G1 X23.702 Y13.442 E86.87924
G1 X22.532 Y13.987 E86.98813
G1 X21.286 Y14.321 E87.09703
G1 X19.887 Y14.443 E87.21548
G1 X-19.887 Y14.443 E90.57155
G1 X-21.286 Y14.321 E90.69001
G1 X-22.532 Y13.987 E90.79891
G1 X-23.702 Y13.442 E90.90780
G1 X-24.694 Y12.747 E91.01005
G1 X-24.759 Y12.701 E91.01669
G1 X-25.671 Y11.789 E91.12558
G1 X-26.412 Y10.732 E91.23448
G1 X-26.957 Y9.562 E91.34337
G1 X-27.291 Y8.316 E91.45226
G1 X-27.413 Y6.917 E91.57072
G1 X-27.413 Y-32.857 E94.92679
G1 X-27.291 Y-34.256 E95.04525
G1 X-26.957 Y-35.502 E95.15414
G1 X-26.412 Y-36.672 E95.26303
G1 X-25.671 Y-37.729 E95.37192
G1 X-24.820 Y-38.580 E95.47348
G1 X-24.385 Y-38.196 F12000.000
G1 X-23.411 Y-38.878 E95.57381 F900
G1 X-22.333 Y-39.380 E95.67414
G1 X-21.185 Y-39.688 E95.77447
G1 X-19.862 Y-39.804 E95.88651
G1 X19.862 Y-39.804 E99.23831
G1 X21.185 Y-39.688 E99.35035
G1 X22.333 Y-39.380 E99.45068
G1 X23.411 Y-38.878 E99.55101
G1 X24.385 Y-38.196 E99.65134
G1 X25.226 Y-37.355 E99.75168
G1 X25.908 Y-36.381 E99.85201
G1 X26.410 Y-35.303 E99.95234
G1 X26.718 Y-34.155 E100.05267
G1 X26.834 Y-32.832 E100.16471
G1 X26.834 Y6.892 E103.51651
G1 X26.718 Y8.215 E103.62855
G1 X26.410 Y9.363 E103.72888
G1 X25.908 Y10.441 E103.82921
G1 X25.226 Y11.415 E103.92954
G1 X24.385 Y12.256 E104.02988
G1 X23.411 Y12.938 E104.13021
G1 X22.333 Y13.440 E104.23054
G1 X21.185 Y13.748 E104.33087
G1 X19.862 Y13.864 E104.44291
G1 X-19.862 Y13.864 E107.79471
G1 X-21.185 Y13.748 E107.90675
G1 X-22.333 Y13.440 E108.00708
G1 X-23.411 Y12.938 E108.10741
G1 X-24.362 Y12.272 E108.20538
G1 X-25.226 Y11.415 E108.30804
G1 X-25.908 Y10.441 E108.40837
G1 X-26.410 Y9.363 E108.50870
G1 X-26.718 Y8.215 E108.60903
G1 X-26.834 Y6.892 E108.72107
G1 X-26.834 Y-32.832 E112.07287
G1 X-26.718 Y-34.155 E112.18491
G1 X-26.410 Y-35.303 E112.28524
G1 X-25.908 Y-36.381 E112.38557
G1 X-25.226 Y-37.355 E112.48591
G1 X-24.446 Y-38.134 E112.57890
G1 X-24.011 Y-37.750 F12000.000
G1 X-23.120 Y-38.373 E112.67067 F900
G1 X-22.134 Y-38.833 E112.76244
G1 X-21.083 Y-39.115 E112.85421
G1 X-19.836 Y-39.224 E112.95983
G1 X19.836 Y-39.224 E116.30736
G1 X21.083 Y-39.115 E116.41298
G1 X22.134 Y-38.833 E116.50475
G1 X23.120 Y-38.373 E116.59652
G1 X24.011 Y-37.750 E116.68829
G1 X24.780 Y-36.981 E116.78006
G1 X25.403 Y-36.090 E116.87183
G1 X25.863 Y-35.104 E116.96360
G1 X26.145 Y-34.053 E117.05537
G1 X26.254 Y-32.806 E117.16099
G1 X26.254 Y6.866 E120.50852
G1 X26.145 Y8.113 E120.61414
G1 X25.863 Y9.164 E120.70591
G1 X25.403 Y10.150 E120.79768
G1 X24.780 Y11.041 E120.88945
G1 X24.011 Y11.810 E120.98122
G1 X23.120 Y12.433 E121.07299
G1 X22.134 Y12.893 E121.16476
G1 X21.083 Y13.175 E121.25653
G1 X19.836 Y13.284 E121.36216
G1 X-19.836 Y13.284 E124.70968
G1 X-21.083 Y13.175 E124.81531
G1 X-22.134 Y12.893 E124.90708
G1 X-23.120 Y12.433 E124.99885
G1 X-24.011 Y11.810 E125.09062
G1 X-24.780 Y11.041 E125.18239
G1 X-25.403 Y10.150 E125.27416
G1 X-25.863 Y9.164 E125.36593
G1 X-26.145 Y8.113 E125.45770
G1 X-26.254 Y6.866 E125.56332
G1 X-26.254 Y-32.806 E128.91085
G1 X-26.145 Y-34.053 E129.01647
G1 X-25.863 Y-35.104 E129.10824
G1 X-25.404 Y-36.090 E129.20001
G1 X-24.780 Y-36.981 E129.29178
G1 X-24.072 Y-37.688 E129.37621
G1 X-23.636 Y-37.304 F12000.000
G1 X-22.829 Y-37.869 E129.45942 F900
G1 X-21.935 Y-38.286 E129.54263
G1 X-20.982 Y-38.541 E129.62584
G1 X-19.811 Y-38.644 E129.72504
G1 X19.811 Y-38.644 E133.06830
G1 X20.982 Y-38.541 E133.16750
G1 X21.935 Y-38.286 E133.25071
G1 X22.829 Y-37.869 E133.33392
G1 X23.636 Y-37.304 E133.41713
G1 X24.334 Y-36.606 E133.50034
G1 X24.899 Y-35.799 E133.58355
G1 X25.316 Y-34.905 E133.66675
G1 X25.571 Y-33.952 E133.74996
G1 X25.674 Y-32.781 E133.84917
G1 X25.674 Y6.841 E137.19242
G1 X25.571 Y8.012 E137.29163
G1 X25.316 Y8.965 E137.37484
G1 X24.899 Y9.859 E137.45805
G1 X24.334 Y10.666 E137.54126
G1 X23.636 Y11.364 E137.62447
G1 X22.829 Y11.929 E137.70767
G1 X21.935 Y12.346 E137.79088
G1 X20.982 Y12.601 E137.87409
G1 X19.811 Y12.704 E137.97330
G1 X-19.811 Y12.704 E141.31655
G1 X-20.982 Y12.601 E141.41576
G1 X-21.935 Y12.346 E141.49897
G1 X-22.829 Y11.929 E141.58218
G1 X-23.636 Y11.364 E141.66538
G1 X-24.334 Y10.666 E141.74859
G1 X-24.899 Y9.859 E141.83180
G1 X-25.316 Y8.965 E141.91501
G1 X-25.571 Y8.012 E141.99822
G1 X-25.674 Y6.841 E142.09743
G1 X-25.674 Y-32.781 E145.44068
G1 X-25.571 Y-33.952 E145.53989
G1 X-25.316 Y-34.905 E145.62309
G1 X-24.899 Y-35.799 E145.70630
G1 X-24.334 Y-36.606 E145.78951
G1 X-23.698 Y-37.242 E145.86538
G1 X-23.262 Y-36.858 F12000.000
G1 X-22.538 Y-37.365 E145.94003 F900
G1 X-21.736 Y-37.739 E146.01468
