; generated by Slic3r 1.0.0RC2 on 2014-04-04 at 11:37:11

; layer_height = .2
; perimeters = 3
; top_solid_layers = 2
; bottom_solid_layers = 2
; fill_density = 0.3
; perimeter_speed = 30
; infill_speed = 30
; travel_speed = 200
; nozzle_diameter = 0.5
; filament_diameter = 1.75
; extrusion_multiplier = 1.1
; perimeters extrusion width = 0.60mm
; infill extrusion width = 0.60mm
; solid infill extrusion width = 0.60mm
; top infill extrusion width = 0.60mm

G21 ; set units to millimeters
M107
M190 S100 ; wait for bed temperature to be reached
M104 S235 T0 ; set temperature
G28 ; home all axes
G1 Z300 F3000 ; lift nozzle
M109 S235 T0 ; wait for temperature to be reached
G90 ; use absolute coordinates
G92 E0
M82 ; use absolute distances for extrusion
T0
G92 E0
G1 Z0.300 F12000.000
G1 X-20.000 Y-27.770 F12000.000
G1 X20.000 Y-27.770 E3.17498 F1800
G1 X21.010 Y-27.720 E3.25525
G1 X22.740 Y-27.570 E3.39308
G1 X23.750 Y-27.440 E3.47391
G1 X24.750 Y-27.220 E3.55518
G1 X26.440 Y-26.770 E3.69400
G1 X28.340 Y-26.080 E3.85445
G1 X29.920 Y-25.350 E3.99260
G1 X30.860 Y-24.870 E4.07638
G1 X31.760 Y-24.300 E4.16094
G1 X33.180 Y-23.300 E4.29879
G1 X34.720 Y-22.000 E4.45876
G1 X35.960 Y-20.760 E4.59795
G1 X37.260 Y-19.220 E4.75792
G1 X38.260 Y-17.800 E4.89577
G1 X38.830 Y-16.900 E4.98033
G1 X39.310 Y-15.960 E5.06411
G1 X40.040 Y-14.380 E5.20226
G1 X40.730 Y-12.480 E5.36271
G1 X41.180 Y-10.790 E5.50153
G1 X41.530 Y-8.840 E5.65878
G1 X41.690 Y-7.100 E5.79747
G1 X41.740 Y-6.030 E5.88250
G1 X41.740 Y33.970 E9.05748
G1 X41.690 Y35.050 E9.14330
G1 X41.530 Y36.780 E9.28120
G1 X41.180 Y38.720 E9.43767
G1 X40.730 Y40.410 E9.57649
G1 X40.040 Y42.310 E9.73694
G1 X39.310 Y43.890 E9.87509
G1 X38.830 Y44.830 E9.95886
G1 X38.260 Y45.730 E10.04342
G1 X37.260 Y47.150 E10.18128
G1 X35.960 Y48.690 E10.34125
G1 X34.720 Y49.930 E10.48044
G1 X33.180 Y51.230 E10.64041
G1 X31.760 Y52.230 E10.77826
G1 X30.860 Y52.800 E10.86282
G1 X29.920 Y53.280 E10.94660
G1 X28.340 Y54.010 E11.08475
G1 X26.440 Y54.700 E11.24520
G1 X24.750 Y55.150 E11.38401
G1 X22.800 Y55.500 E11.54127
G1 X21.060 Y55.660 E11.67996
G1 X19.990 Y55.710 E11.76499
G1 X-20.000 Y55.710 E14.93917
G1 X-21.070 Y55.660 E15.02420
G1 X-22.810 Y55.500 E15.16289
G1 X-24.760 Y55.150 E15.32015
G1 X-26.450 Y54.700 E15.45896
G1 X-28.350 Y54.010 E15.61941
G1 X-29.930 Y53.280 E15.75756
G1 X-30.870 Y52.800 E15.84134
G1 X-31.760 Y52.230 E15.92523
G1 X-33.250 Y51.180 E16.06991
G1 X-34.730 Y49.930 E16.22368
G1 X-35.970 Y48.690 E16.36287
G1 X-37.270 Y47.150 E16.52284
G1 X-38.270 Y45.730 E16.66069
G1 X-38.840 Y44.830 E16.74525
G1 X-39.320 Y43.890 E16.82903
G1 X-40.050 Y42.310 E16.96718
G1 X-40.730 Y40.460 E17.12363
G1 X-41.260 Y38.440 E17.28939
G1 X-41.540 Y36.710 E17.42850
G1 X-41.690 Y34.970 E17.56712
G1 X-41.740 Y33.960 E17.64739
G1 X-41.740 Y-6.030 E20.82158
G1 X-41.690 Y-7.040 E20.90184
G1 X-41.540 Y-8.780 E21.04047
G1 X-41.410 Y-9.790 E21.12130
G1 X-41.190 Y-10.790 E21.20257
G1 X-40.740 Y-12.480 E21.34139
G1 X-40.050 Y-14.380 E21.50183
G1 X-39.320 Y-15.960 E21.63998
G1 X-38.840 Y-16.900 E21.72376
G1 X-38.270 Y-17.800 E21.80832
G1 X-37.270 Y-19.220 E21.94618
G1 X-35.970 Y-20.760 E22.10614
G1 X-34.730 Y-22.000 E22.24534
G1 X-33.190 Y-23.300 E22.40530
G1 X-31.770 Y-24.300 E22.54316
G1 X-30.870 Y-24.870 E22.62772
G1 X-29.930 Y-25.350 E22.71150
G1 X-28.350 Y-26.080 E22.84965
G1 X-26.450 Y-26.770 E23.01009
G1 X-24.760 Y-27.220 E23.14891
G1 X-23.760 Y-27.440 E23.23018
G1 X-22.750 Y-27.570 E23.31101
G1 X-21.010 Y-27.720 E23.44964
G1 X-20.087 Y-27.766 E23.52302
G1 X-20.000 Y-27.190 F12000.000
G1 X20.000 Y-27.190 E26.69800 F1800
G1 X20.960 Y-27.150 E26.77426
G1 X22.690 Y-27.000 E26.91210
G1 X23.650 Y-26.870 E26.98899
G1 X24.600 Y-26.660 E27.06622
G1 X26.290 Y-26.210 E27.20503
G1 X28.100 Y-25.560 E27.35769
G1 X29.680 Y-24.830 E27.49584
G1 X30.570 Y-24.360 E27.57572
G1 X31.420 Y-23.820 E27.65566
G1 X32.840 Y-22.820 E27.79351
G1 X34.310 Y-21.590 E27.94565
G1 X35.550 Y-20.350 E28.08484
G1 X36.780 Y-18.880 E28.23698
G1 X37.780 Y-17.460 E28.37484
G1 X38.320 Y-16.610 E28.45477
G1 X38.790 Y-15.720 E28.53466
G1 X39.520 Y-14.140 E28.67281
G1 X40.170 Y-12.330 E28.82546
G1 X40.620 Y-10.640 E28.96428
G1 X40.950 Y-8.790 E29.11344
G1 X41.110 Y-7.050 E29.25213
G1 X41.160 Y-6.030 E29.33319
G1 X41.160 Y33.970 E32.50817
G1 X41.110 Y35.000 E32.59003
G1 X40.950 Y36.730 E32.72793
G1 X40.620 Y38.570 E32.87631
G1 X40.170 Y40.260 E33.01513
G1 X39.520 Y42.070 E33.16778
G1 X38.790 Y43.650 E33.30593
G1 X38.320 Y44.540 E33.38582
G1 X37.780 Y45.390 E33.46575
G1 X36.780 Y46.810 E33.60361
G1 X35.550 Y48.280 E33.75574
G1 X34.310 Y49.520 E33.89494
G1 X32.840 Y50.750 E34.04708
G1 X31.420 Y51.750 E34.18493
G1 X30.570 Y52.290 E34.26486
G1 X29.680 Y52.760 E34.34475
G1 X28.100 Y53.490 E34.48290
G1 X26.290 Y54.140 E34.63555
G1 X24.600 Y54.590 E34.77437
G1 X22.750 Y54.920 E34.92353
G1 X21.010 Y55.080 E35.06223
G1 X19.990 Y55.130 E35.14329
G1 X-20.000 Y55.130 E38.31747
G1 X-21.020 Y55.080 E38.39853
G1 X-22.760 Y54.920 E38.53723
G1 X-24.610 Y54.590 E38.68639
G1 X-26.300 Y54.140 E38.82520
G1 X-28.110 Y53.490 E38.97786
G1 X-29.690 Y52.760 E39.11601
G1 X-30.580 Y52.300 E39.19553
G1 X-31.420 Y51.760 E39.27479
G1 X-32.910 Y50.710 E39.41947
G1 X-34.320 Y49.520 E39.56592
G1 X-35.560 Y48.280 E39.70512
G1 X-36.790 Y46.810 E39.85726
G1 X-37.790 Y45.390 E39.99511
G1 X-38.330 Y44.540 E40.07504
G1 X-38.800 Y43.650 E40.15493
G1 X-39.530 Y42.070 E40.29308
G1 X-40.170 Y40.310 E40.44173
G1 X-40.700 Y38.300 E40.60673
G1 X-40.970 Y36.660 E40.73865
G1 X-41.120 Y34.920 E40.87728
G1 X-41.160 Y33.960 E40.95354
G1 X-41.160 Y-6.030 E44.12773
G1 X-41.120 Y-6.990 E44.20400
G1 X-40.970 Y-8.730 E44.34262
G1 X-40.840 Y-9.690 E44.41952
G1 X-40.630 Y-10.640 E44.49674
G1 X-40.180 Y-12.330 E44.63556
G1 X-39.530 Y-14.140 E44.78821
G1 X-38.800 Y-15.720 E44.92636
G1 X-38.330 Y-16.610 E45.00625
G1 X-37.790 Y-17.460 E45.08618
G1 X-36.790 Y-18.880 E45.22404
G1 X-35.560 Y-20.350 E45.37618
G1 X-34.320 Y-21.590 E45.51537
G1 X-32.850 Y-22.820 E45.66751
G1 X-31.430 Y-23.820 E45.80536
G1 X-30.580 Y-24.360 E45.88530
G1 X-29.690 Y-24.830 E45.96519
G1 X-28.110 Y-25.560 E46.10334
G1 X-26.300 Y-26.210 E46.25599
G1 X-24.610 Y-26.660 E46.39480
G1 X-23.660 Y-26.870 E46.47203
G1 X-22.700 Y-27.000 E46.54893
G1 X-20.960 Y-27.150 E46.68755
G1 X-20.087 Y-27.186 E46.75693
G1 F2400.000 E31.75693
G1 Z6.300 F12000.000
G92 E0
T1
G1 x77.94 y-45 f3500
G1 E10 F500
T1
G92 E0
G1 X-18.000 Y-50.570 F12000.000
G1 Z0.300 F12000.000
G1 X22.000 Y-50.570 E0.72159 F1800
G1 X22.910 Y-50.530 E0.73802
G1 X24.640 Y-50.380 E0.76934
G1 X25.550 Y-50.260 E0.78590
G1 X26.450 Y-50.060 E0.80253
G1 X28.140 Y-49.610 E0.83408
G1 X29.860 Y-48.990 E0.86707
G1 X31.440 Y-48.260 E0.89846
G1 X32.290 Y-47.820 E0.91573
G1 X33.090 Y-47.310 E0.93285
G1 X34.510 Y-46.310 E0.96418
G1 X35.900 Y-45.140 E0.99695
G1 X37.140 Y-43.900 E1.02859
G1 X38.310 Y-42.510 E1.06136
G1 X39.310 Y-41.090 E1.09269
G1 X39.820 Y-40.290 E1.10981
G1 X40.260 Y-39.440 E1.12707
G1 X40.990 Y-37.860 E1.15847
G1 X41.610 Y-36.140 E1.19145
G1 X42.060 Y-34.450 E1.22300
G1 X42.370 Y-32.700 E1.25506
G1 X42.530 Y-30.960 E1.28659
G1 X42.580 Y-29.990 E1.30411
G1 X42.580 Y10.010 E2.02569
G1 X42.530 Y10.980 E2.04322
G1 X42.370 Y12.710 E2.07456
G1 X42.060 Y14.460 E2.10662
G1 X41.610 Y16.150 E2.13817
G1 X40.990 Y17.870 E2.17115
G1 X40.260 Y19.450 E2.20255
G1 X39.820 Y20.300 E2.21982
G1 X39.310 Y21.100 E2.23693
G1 X38.310 Y22.520 E2.26826
G1 X37.140 Y23.910 E2.30104
G1 X35.900 Y25.150 E2.33267
G1 X34.510 Y26.320 E2.36545
G1 X33.090 Y27.320 E2.39678
G1 X32.290 Y27.830 E2.41389
G1 X31.440 Y28.270 E2.43116
G1 X29.860 Y29.000 E2.46256
G1 X28.140 Y29.620 E2.49554
G1 X26.450 Y30.070 E2.52709
G1 X24.700 Y30.380 E2.55915
G1 X22.960 Y30.540 E2.59067
G1 X21.990 Y30.590 E2.60819
G1 X-18.000 Y30.590 E3.32960
G1 X-18.970 Y30.540 E3.34712
G1 X-20.710 Y30.380 E3.37864
G1 X-22.460 Y30.070 E3.41070
G1 X-24.150 Y29.620 E3.44225
G1 X-25.870 Y29.000 E3.47524
G1 X-27.450 Y28.270 E3.50663
G1 X-28.290 Y27.840 E3.52366
G1 X-29.090 Y27.330 E3.54077
G1 X-30.580 Y26.280 E3.57365
G1 X-31.910 Y25.150 E3.60514
G1 X-33.150 Y23.910 E3.63677
G1 X-34.320 Y22.520 E3.66955
G1 X-35.320 Y21.100 E3.70088
G1 X-35.830 Y20.300 E3.71799
G1 X-36.270 Y19.450 E3.73526
G1 X-37.000 Y17.870 E3.76666
G1 X-37.610 Y16.200 E3.79873
G1 X-38.140 Y14.210 E3.83588
G1 X-38.390 Y12.650 E3.86438
G1 X-38.540 Y10.910 E3.89589
G1 X-38.580 Y10.000 E3.91232
G1 X-38.580 Y-29.990 E4.63373
G1 X-38.540 Y-30.900 E4.65016
G1 X-38.390 Y-32.640 E4.68166
G1 X-38.270 Y-33.550 E4.69822
G1 X-38.070 Y-34.450 E4.71485
G1 X-37.620 Y-36.140 E4.74640
G1 X-37.000 Y-37.860 E4.77938
G1 X-36.270 Y-39.440 E4.81078
G1 X-35.830 Y-40.290 E4.82805
G1 X-35.320 Y-41.090 E4.84516
G1 X-34.320 Y-42.510 E4.87649
G1 X-33.150 Y-43.900 E4.90927
G1 X-31.910 Y-45.140 E4.94091
G1 X-30.520 Y-46.310 E4.97368
G1 X-29.100 Y-47.310 E5.00501
G1 X-28.300 Y-47.820 E5.02213
G1 X-27.450 Y-48.260 E5.03939
G1 X-25.870 Y-48.990 E5.07079
G1 X-24.150 Y-49.610 E5.10377
G1 X-22.460 Y-50.060 E5.13532
G1 X-21.560 Y-50.260 E5.15195
G1 X-20.650 Y-50.380 E5.16851
G1 X-18.910 Y-50.530 E5.20002
G1 X-18.087 Y-50.566 E5.21488
T0
G1 x77.94 y-45 f3500
G1 E10 F500
T0
G92 E0
G1 X-19.936 Y-14.573 F12000.000
G1 E20.00000 F2400.000
G1 X19.936 Y-14.573 E23.16488 F1800
G1 X21.482 Y-14.438 E23.28807
G1 X22.920 Y-14.052 E23.40619
G1 X24.269 Y-13.424 E23.52432
G1 X25.488 Y-12.570 E23.64244
G1 X26.540 Y-11.518 E23.76056
G1 X27.394 Y-10.299 E23.87868
G1 X28.022 Y-8.950 E23.99681
G1 X28.408 Y-7.512 E24.11493
G1 X28.543 Y-5.966 E24.23812
G1 X28.543 Y33.906 E27.40300
G1 X28.408 Y35.452 E27.52619
G1 X28.022 Y36.890 E27.64431
G1 X27.394 Y38.239 E27.76243
G1 X26.540 Y39.458 E27.88056
G1 X25.488 Y40.510 E27.99868
G1 X24.269 Y41.364 E28.11680
G1 X22.920 Y41.992 E28.23492
G1 X21.482 Y42.378 E28.35304
G1 X19.936 Y42.513 E28.47624
G1 X-19.936 Y42.513 E31.64112
G1 X-21.483 Y42.378 E31.76431
G1 X-22.920 Y41.992 E31.88243
G1 X-24.269 Y41.364 E32.00055
G1 X-25.488 Y40.510 E32.11867
G1 X-26.540 Y39.458 E32.23680
G1 X-27.394 Y38.239 E32.35492
G1 X-28.022 Y36.890 E32.47304
G1 X-28.408 Y35.452 E32.59116
G1 X-28.543 Y33.906 E32.71435
G1 X-28.543 Y-5.966 E35.87924
G1 X-28.408 Y-7.512 E36.00243
G1 X-28.022 Y-8.950 E36.12055
G1 X-27.394 Y-10.299 E36.23867
G1 X-26.530 Y-11.531 E36.35811
G1 X-25.488 Y-12.570 E36.47493
G1 X-24.269 Y-13.424 E36.59306
G1 X-22.920 Y-14.052 E36.71118
G1 X-21.482 Y-14.438 E36.82930
G1 X-20.023 Y-14.565 E36.94560
G1 X-20.184 Y-15.132 F12000.000
G1 X-19.962 Y-15.151 E36.96331 F1800
G1 X19.962 Y-15.151 E40.13220
G1 X21.583 Y-15.010 E40.26142
G1 X23.119 Y-14.598 E40.38757
G1 X24.559 Y-13.927 E40.51373
G1 X25.861 Y-13.015 E40.63989
G1 X26.985 Y-11.891 E40.76605
G1 X27.897 Y-10.589 E40.89220
G1 X28.568 Y-9.149 E41.01836
G1 X28.980 Y-7.613 E41.14452
G1 X29.121 Y-5.992 E41.27373
G1 X29.121 Y33.932 E44.44262
G1 X28.980 Y35.553 E44.57184
G1 X28.568 Y37.089 E44.69799
G1 X27.897 Y38.529 E44.82415
G1 X26.985 Y39.831 E44.95031
G1 X25.861 Y40.955 E45.07646
G1 X24.559 Y41.867 E45.20262
G1 X23.119 Y42.538 E45.32878
G1 X21.583 Y42.950 E45.45494
G1 X19.962 Y43.091 E45.58415
G1 X-19.962 Y43.091 E48.75304
G1 X-21.583 Y42.950 E48.88226
G1 X-23.119 Y42.538 E49.00841
G1 X-24.559 Y41.867 E49.13457
G1 X-25.861 Y40.955 E49.26073
G1 X-26.985 Y39.831 E49.38688
G1 X-27.897 Y38.529 E49.51304
G1 X-28.568 Y37.089 E49.63920
G1 X-28.980 Y35.553 E49.76535
G1 X-29.121 Y33.932 E49.89457
G1 X-29.121 Y-5.992 E53.06346
G1 X-28.980 Y-7.613 E53.19267
G1 X-28.568 Y-9.149 E53.31883
G1 X-27.897 Y-10.589 E53.44499
G1 X-26.985 Y-11.891 E53.57115
G1 X-25.861 Y-13.015 E53.69730
G1 X-24.559 Y-13.927 E53.82346
G1 X-23.119 Y-14.598 E53.94962
G1 X-21.583 Y-15.010 E54.07577
G1 X-20.270 Y-15.124 E54.18039
G1 X-20.234 Y-15.708 F12000.000
G1 X-19.987 Y-15.730 E54.20010 F1800
G1 X19.987 Y-15.730 E57.37301
G1 X21.684 Y-15.582 E57.50824
G1 X23.317 Y-15.144 E57.64243
G1 X24.849 Y-14.429 E57.77663
G1 X26.234 Y-13.460 E57.91082
G1 X27.430 Y-12.264 E58.04501
G1 X28.399 Y-10.879 E58.17920
G1 X29.114 Y-9.347 E58.31340
G1 X29.552 Y-7.714 E58.44759
G1 X29.700 Y-6.017 E58.58282
G1 X29.700 Y33.957 E61.75573
G1 X29.552 Y35.654 E61.89096
G1 X29.114 Y37.287 E62.02515
G1 X28.399 Y38.819 E62.15935
G1 X27.430 Y40.204 E62.29354
G1 X26.234 Y41.400 E62.42773
G1 X24.849 Y42.369 E62.56192
G1 X23.317 Y43.084 E62.69612
G1 X21.684 Y43.522 E62.83031
G1 X19.987 Y43.670 E62.96554
G1 X-19.987 Y43.670 E66.13845
G1 X-21.684 Y43.522 E66.27368
G1 X-23.317 Y43.084 E66.40788
G1 X-24.849 Y42.369 E66.54207
G1 X-26.234 Y41.400 E66.67626
G1 X-27.430 Y40.204 E66.81045
G1 X-28.399 Y38.819 E66.94464
G1 X-29.114 Y37.287 E67.07884
G1 X-29.552 Y35.654 E67.21303
G1 X-29.700 Y33.957 E67.34827
G1 X-29.700 Y-6.017 E70.52117
G1 X-29.552 Y-7.714 E70.65640
G1 X-29.114 Y-9.347 E70.79060
G1 X-28.399 Y-10.879 E70.92479
G1 X-27.430 Y-12.264 E71.05898
G1 X-26.234 Y-13.460 E71.19317
G1 X-24.849 Y-14.429 E71.32736
G1 X-23.317 Y-15.144 E71.46156
G1 X-21.684 Y-15.582 E71.59575
G1 X-20.321 Y-15.701 E71.70438
G1 X-20.092 Y-15.505 F12000.000
G1 X-27.544 Y-9.053 F12000.000
G1 X-27.544 Y36.993 E75.36765 F1800
G1 X-26.964 Y38.172 F12000.000
G1 X-26.964 Y-10.232 E79.21848 F1800
G1 X-26.384 Y-11.060 E79.29891
G1 X-26.384 Y39.000 E83.28150
G1 X-25.804 Y39.642 E83.35030
G1 X-25.804 Y-11.704 E87.43516
G1 X-25.224 Y-12.278 E87.50008
G1 X-25.224 Y40.218 E91.67647
G1 X-24.644 Y40.624 E91.73278
G1 X-24.644 Y-12.684 E95.97377
G1 X-24.064 Y-13.088 E96.03000
G1 X-24.064 Y41.028 E100.33529
G1 X-23.485 Y41.298 E100.38619
G1 X-23.485 Y-13.358 E104.73450
G1 X-22.905 Y-13.629 E104.78540
G1 X-22.905 Y41.569 E109.17674
G1 X-22.325 Y41.748 E109.22502
G1 X-22.325 Y-13.808 E113.64482
G1 X-21.745 Y-13.963 E113.69258
G1 X-21.745 Y41.903 E118.13711
G1 X-21.165 Y42.013 E118.18407
G1 X-21.165 Y-14.074 E122.64616
G1 X-20.585 Y-14.124 E122.69247
G1 X-20.585 Y42.064 E127.16264
G1 X-20.005 Y42.093 E127.20883
G1 X-20.005 Y-14.154 E131.68365
G1 X-19.425 Y-14.154 E131.72978
G1 X-19.425 Y42.093 E136.20460
G1 X-18.846 Y42.093 E136.25073
G1 X-18.846 Y-14.154 E140.72555
G1 X-18.266 Y-14.154 E140.77168
G1 X-18.266 Y42.093 E145.24650
G1 X-17.686 Y42.093 E145.29263
G1 X-17.686 Y-14.154 E149.76745
G1 X-17.106 Y-14.154 E149.81359
G1 X-17.106 Y42.093 E154.28841
G1 X-16.526 Y42.093 E154.33454
G1 X-16.526 Y-14.154 E158.80936
G1 X-15.946 Y-14.154 E158.85549
G1 X-15.946 Y42.093 E163.33031
G1 X-15.366 Y42.093 E163.37644
G1 X-15.366 Y-14.154 E167.85126
G1 X-14.787 Y-14.154 E167.89739
G1 X-14.787 Y42.093 E172.37221
G1 X-14.207 Y42.093 E172.41835
G1 X-14.207 Y-14.154 E176.89317
G1 X-13.627 Y-14.154 E176.93930
G1 X-13.627 Y42.093 E181.41412
G1 X-13.047 Y42.093 E181.46025
G1 X-13.047 Y-14.154 E185.93507
G1 X-12.467 Y-14.154 E185.98120
G1 X-12.467 Y42.093 E190.45602
G1 X-11.887 Y42.093 E190.50215
G1 X-11.887 Y-14.154 E194.97697
G1 X-11.307 Y-14.154 E195.02311
G1 X-11.307 Y42.093 E199.49793
G1 X-10.727 Y42.093 E199.54406
G1 X-10.727 Y-14.154 E204.01888
G1 X-10.148 Y-14.154 E204.06501
G1 X-10.148 Y42.093 E208.53983
G1 X-9.568 Y42.093 E208.58596
G1 X-9.568 Y-14.154 E213.06078
G1 X-8.988 Y-14.154 E213.10691
G1 X-8.988 Y42.093 E217.58173
G1 X-8.408 Y42.093 E217.62787
G1 X-8.408 Y-14.154 E222.10269
G1 X-7.828 Y-14.154 E222.14882
G1 X-7.828 Y42.093 E226.62364
G1 X-7.248 Y42.093 E226.66977
G1 X-7.248 Y-14.154 E231.14459
G1 X-6.668 Y-14.154 E231.19072
G1 X-6.668 Y42.093 E235.66554
G1 X-6.089 Y42.093 E235.71167
G1 X-6.089 Y-14.154 E240.18649
G1 X-5.509 Y-14.154 E240.23263
G1 X-5.509 Y42.093 E244.70745
G1 X-4.929 Y42.093 E244.75358
G1 X-4.929 Y-14.154 E249.22840
G1 X-4.349 Y-14.154 E249.27453
G1 X-4.349 Y42.093 E253.74935
G1 X-3.769 Y42.093 E253.79548
G1 X-3.769 Y-14.154 E258.27030
G1 X-3.189 Y-14.154 E258.31643
G1 X-3.189 Y42.093 E262.79125
G1 X-2.609 Y42.093 E262.83739
G1 X-2.609 Y-14.154 E267.31221
G1 X-2.029 Y-14.154 E267.35834
G1 X-2.029 Y42.093 E271.83316
G1 X-1.450 Y42.093 E271.87929
G1 X-1.450 Y-14.154 E276.35411
G1 X-0.870 Y-14.154 E276.40024
G1 X-0.870 Y42.093 E280.87506
G1 X-0.290 Y42.093 E280.92120
G1 X-0.290 Y-14.154 E285.39601
G1 X0.290 Y-14.154 E285.44215
G1 X0.290 Y42.093 E289.91697
