; generated by Slic3r 1.0.0RC2 on 2014-02-01 at 17:59:43

; layer_height = .2
; perimeters = 1
; top_solid_layers = 2
; bottom_solid_layers = 2
; fill_density = 0.4
; perimeter_speed = 30
; infill_speed = 30
; travel_speed = 200
; nozzle_diameter = 0.5
; filament_diameter = 1.75
; extrusion_multiplier = 1
; perimeters extrusion width = 0.50mm
; infill extrusion width = 1.02mm
; solid infill extrusion width = 0.85mm
; top infill extrusion width = 0.85mm

G21 ; set units to millimeters
M107
M190 S55 ; wait for bed temperature to be reached
M104 S235 T0 ; set temperature
G28 ; home all axes
G1 Z300 F3000 ; lift nozzle
M109 S235 T0 ; wait for temperature to be reached
G90 ; use absolute coordinates
G92 E0
M82 ; use absolute distances for extrusion
T0
G92 E0
G1 F3600.000 E-1.00000
G92 E0
G1 Z0.300 F12000.000
G1 X19.967 Y-15.280 F12000.000
G1 E1.00000 F3600.000
G1 X21.606 Y-15.137 E1.10257 F1800
G1 X23.163 Y-14.719 E1.20309
G1 X24.624 Y-14.038 E1.30361
G1 X25.944 Y-13.114 E1.40414
G1 X27.084 Y-11.974 E1.50466
G1 X28.091 Y-10.535 E1.61420
G1 X28.072 Y-10.516 E1.61587
G1 X28.689 Y-9.193 E1.70693
G1 X29.107 Y-7.636 E1.80746
G1 X29.250 Y-5.997 E1.91003
G1 X29.250 Y33.937 E4.40045
G1 X29.107 Y35.576 E4.50302
G1 X28.689 Y37.133 E4.60354
G1 X28.008 Y38.594 E4.70407
G1 X27.084 Y39.914 E4.80459
G1 X25.944 Y41.054 E4.90511
G1 X24.624 Y41.978 E5.00563
G1 X23.163 Y42.659 E5.10615
G1 X21.606 Y43.077 E5.20667
G1 X19.967 Y43.220 E5.30924
G1 X-19.967 Y43.220 E7.79967
G1 X-21.606 Y43.077 E7.90224
G1 X-23.163 Y42.659 E8.00276
G1 X-24.624 Y41.978 E8.10328
G1 X-25.944 Y41.054 E8.20381
G1 X-27.084 Y39.914 E8.30433
G1 X-28.008 Y38.594 E8.40485
G1 X-28.689 Y37.133 E8.50537
G1 X-29.107 Y35.576 E8.60589
G1 X-29.250 Y33.937 E8.70846
G1 X-29.250 Y-5.997 E11.19889
G1 X-29.107 Y-7.636 E11.30146
G1 X-28.689 Y-9.193 E11.40198
G1 X-28.008 Y-10.654 E11.50250
G1 X-27.084 Y-11.974 E11.60302
G1 X-25.944 Y-13.114 E11.70355
G1 X-24.624 Y-14.038 E11.80407
G1 X-23.163 Y-14.719 E11.90459
G1 X-21.606 Y-15.137 E12.00511
G1 X-19.967 Y-15.280 E12.10768
G1 X19.892 Y-15.280 E14.59343
G1 X19.989 Y-15.780 F12000.000
G1 X21.693 Y-15.631 E14.70009 F1800
G1 X23.334 Y-15.191 E14.80607
G1 X24.875 Y-14.473 E14.91205
G1 X26.267 Y-13.498 E15.01802
G1 X27.468 Y-12.297 E15.12400
G1 X28.443 Y-10.905 E15.22998
G1 X29.161 Y-9.364 E15.33596
G1 X29.601 Y-7.723 E15.44193
G1 X29.750 Y-6.019 E15.54859
G1 X29.750 Y33.959 E18.04174
G1 X29.601 Y35.663 E18.14840
G1 X29.161 Y37.304 E18.25438
G1 X28.443 Y38.845 E18.36036
G1 X27.468 Y40.237 E18.46634
G1 X26.267 Y41.438 E18.57231
G1 X24.875 Y42.413 E18.67829
G1 X23.334 Y43.131 E18.78427
G1 X21.693 Y43.571 E18.89025
G1 X19.989 Y43.720 E18.99691
G1 X-19.989 Y43.720 E21.49005
G1 X-21.693 Y43.571 E21.59672
G1 X-23.334 Y43.131 E21.70269
G1 X-24.875 Y42.413 E21.80867
G1 X-26.267 Y41.438 E21.91465
G1 X-27.468 Y40.237 E22.02062
G1 X-28.443 Y38.845 E22.12660
G1 X-29.161 Y37.304 E22.23258
G1 X-29.601 Y35.663 E22.33856
G1 X-29.750 Y33.959 E22.44522
G1 X-29.750 Y-6.019 E24.93837
G1 X-29.601 Y-7.723 E25.04503
G1 X-29.161 Y-9.364 E25.15100
G1 X-28.443 Y-10.905 E25.25698
G1 X-27.468 Y-12.297 E25.36296
G1 X-26.267 Y-13.498 E25.46894
G1 X-24.875 Y-14.473 E25.57491
G1 X-23.334 Y-15.191 E25.68089
G1 X-21.693 Y-15.631 E25.78687
G1 X-19.989 Y-15.780 E25.89353
G1 X19.914 Y-15.780 E28.38200
G1 X28.007 Y-9.732 F12000.000
G1 X28.007 Y37.672 E33.18164 F1800
G1 X27.195 Y39.073 E33.34565
G1 X27.195 Y-11.134 E38.42914
G1 X26.383 Y-12.122 E38.55862
G1 X26.383 Y40.062 E43.84220
G1 X25.571 Y40.837 E43.95589
G1 X25.571 Y-12.897 E49.39655
G1 X24.760 Y-13.466 E49.49689
G1 X24.760 Y41.406 E55.05266
G1 X23.948 Y41.862 E55.14695
G1 X23.948 Y-13.922 E60.79511
G1 X23.136 Y-14.301 E60.88580
G1 X23.136 Y42.241 E66.61061
G1 X22.324 Y42.479 E66.69629
G1 X22.324 Y-14.539 E72.46947
G1 X21.512 Y-14.752 E72.55445
G1 X21.512 Y42.692 E78.37076
G1 X20.701 Y42.763 E78.45326
G1 X20.701 Y-14.823 E84.28395
G1 X19.889 Y-14.848 E84.36619
G1 X19.889 Y42.788 E90.20195
G1 X19.077 Y42.788 E90.28415
G1 X19.077 Y-14.848 E96.11991
G1 X18.265 Y-14.848 E96.20210
G1 X18.265 Y42.788 E102.03787
G1 X17.453 Y42.788 E102.12006
G1 X17.453 Y-14.848 E107.95583
G1 X16.642 Y-14.848 E108.03802
G1 X16.642 Y42.788 E113.87379
G1 X15.830 Y42.788 E113.95598
G1 X15.830 Y-14.848 E119.79175
G1 X15.018 Y-14.848 E119.87394
G1 X15.018 Y42.788 E125.70971
G1 X14.206 Y42.788 E125.79190
G1 X14.206 Y-14.848 E131.62767
G1 X13.395 Y-14.848 E131.70986
G1 X13.395 Y42.788 E137.54563
G1 X12.583 Y42.788 E137.62782
G1 X12.583 Y-14.848 E143.46358
G1 X11.771 Y-14.848 E143.54578
G1 X11.771 Y42.788 E149.38154
G1 X10.959 Y42.788 E149.46374
G1 X10.959 Y-14.848 E155.29950
G1 X10.147 Y-14.848 E155.38170
G1 X10.147 Y42.788 E161.21746
G1 X9.336 Y42.788 E161.29966
G1 X9.336 Y-14.848 E167.13542
G1 X8.524 Y-14.848 E167.21762
G1 X8.524 Y42.788 E173.05338
G1 X7.712 Y42.788 E173.13557
G1 X7.712 Y-14.848 E178.97134
G1 X6.900 Y-14.848 E179.05353
G1 X6.900 Y42.788 E184.88930
G1 X6.088 Y42.788 E184.97149
G1 X6.088 Y-14.848 E190.80726
G1 X5.277 Y-14.848 E190.88945
G1 X5.277 Y42.788 E196.72522
G1 X4.465 Y42.788 E196.80741
G1 X4.465 Y-14.848 E202.64318
G1 X3.653 Y-14.848 E202.72537
G1 X3.653 Y42.788 E208.56114
G1 X2.841 Y42.788 E208.64333
G1 X2.841 Y-14.848 E214.47910
G1 X2.029 Y-14.848 E214.56129
G1 X2.029 Y42.788 E220.39705
G1 X1.218 Y42.788 E220.47925
G1 X1.218 Y-14.848 E226.31501
G1 X0.406 Y-14.848 E226.39721
G1 X0.406 Y42.788 E232.23297
G1 X-0.406 Y42.788 E232.31517
G1 X-0.406 Y-14.848 E238.15093
G1 X-1.218 Y-14.848 E238.23313
G1 X-1.218 Y42.788 E244.06889
G1 X-2.029 Y42.788 E244.15109
G1 X-2.029 Y-14.848 E249.98685
G1 X-2.841 Y-14.848 E250.06904
G1 X-2.841 Y42.788 E255.90481
G1 X-3.653 Y42.788 E255.98700
G1 X-3.653 Y-14.848 E261.82277
G1 X-4.465 Y-14.848 E261.90496
G1 X-4.465 Y42.788 E267.74073
G1 X-5.277 Y42.788 E267.82292
G1 X-5.277 Y-14.848 E273.65869
G1 X-6.088 Y-14.848 E273.74088
G1 X-6.088 Y42.788 E279.57665
G1 X-6.900 Y42.788 E279.65884
G1 X-6.900 Y-14.848 E285.49461
G1 X-7.712 Y-14.848 E285.57680
G1 X-7.712 Y42.788 E291.41257
G1 X-8.524 Y42.788 E291.49476
G1 X-8.524 Y-14.848 E297.33052
G1 X-9.336 Y-14.848 E297.41272
G1 X-9.336 Y42.788 E303.24848
G1 X-10.147 Y42.788 E303.33068
G1 X-10.147 Y-14.848 E309.16644
G1 X-10.959 Y-14.848 E309.24864
G1 X-10.959 Y42.788 E315.08440
G1 X-11.771 Y42.788 E315.16660
G1 X-11.771 Y-14.848 E321.00236
G1 X-12.583 Y-14.848 E321.08456
G1 X-12.583 Y42.788 E326.92032
G1 X-13.394 Y42.788 E327.00251
G1 X-13.394 Y-14.848 E332.83828
G1 X-14.206 Y-14.848 E332.92047
G1 X-14.206 Y42.788 E338.75624
G1 X-15.018 Y42.788 E338.83843
G1 X-15.018 Y-14.848 E344.67420
G1 X-15.830 Y-14.848 E344.75639
G1 X-15.830 Y42.788 E350.59216
G1 X-16.642 Y42.788 E350.67435
G1 X-16.642 Y-14.848 E356.51012
G1 X-17.453 Y-14.848 E356.59231
G1 X-17.453 Y42.788 E362.42808
G1 X-18.265 Y42.788 E362.51027
G1 X-18.265 Y-14.848 E368.34604
G1 X-19.077 Y-14.848 E368.42823
G1 X-19.077 Y42.788 E374.26399
G1 X-19.889 Y42.788 E374.34619
G1 X-19.889 Y-14.848 E380.18195
G1 X-20.701 Y-14.823 E380.26419
G1 X-20.701 Y42.763 E386.09488
G1 X-21.512 Y42.692 E386.17739
G1 X-21.512 Y-14.752 E391.99369
G1 X-22.324 Y-14.539 E392.07867
G1 X-22.324 Y42.479 E397.85185
G1 X-23.136 Y42.241 E397.93753
G1 X-23.136 Y-14.301 E403.66235
G1 X-23.948 Y-13.922 E403.75304
G1 X-23.948 Y41.862 E409.40121
G1 X-24.759 Y41.406 E409.49549
G1 X-24.759 Y-13.466 E415.05127
G1 X-25.571 Y-12.897 E415.15161
G1 X-25.571 Y40.837 E420.59228
G1 X-26.383 Y40.062 E420.70597
G1 X-26.383 Y-12.122 E425.98956
G1 X-27.195 Y-11.134 E426.11904
G1 X-27.195 Y39.074 E431.20254
G1 X-28.007 Y37.672 E431.36655
G1 X-28.007 Y-9.732 E436.16621
G1 X-28.818 Y-6.444 F12000.000
G1 X-28.818 Y34.384 E440.30009 F1800
G1 X28.818 Y34.384 F12000.000
G1 X28.818 Y-6.444 E444.43387 F1800
G1 F3600.000 E443.43387
G92 E0
G1 Z0.500 F12000.000
G1 X29.222 Y-6.312 F12000.000
G1 E1.00000 F3600.000
G1 X29.250 Y-5.997 E1.01313 F1800
G1 X29.250 Y33.937 E2.67342
G1 X29.107 Y35.576 E2.74180
G1 X28.689 Y37.133 E2.80881
G1 X28.008 Y38.594 E2.87583
G1 X27.084 Y39.914 E2.94284
G1 X25.944 Y41.054 E3.00985
G1 X24.624 Y41.978 E3.07687
G1 X23.163 Y42.659 E3.14388
G1 X21.606 Y43.077 E3.21090
G1 X19.967 Y43.220 E3.27928
G1 X-19.967 Y43.220 E4.93956
G1 X-21.606 Y43.077 E5.00794
G1 X-23.163 Y42.659 E5.07496
G1 X-24.624 Y41.978 E5.14197
G1 X-25.944 Y41.054 E5.20899
G1 X-27.084 Y39.914 E5.27600
G1 X-28.008 Y38.594 E5.34301
G1 X-28.689 Y37.133 E5.41003
G1 X-29.107 Y35.576 E5.47704
G1 X-29.250 Y33.937 E5.54542
G1 X-29.250 Y-5.997 E7.20571
G1 X-29.107 Y-7.636 E7.27409
G1 X-28.689 Y-9.193 E7.34110
G1 X-28.008 Y-10.654 E7.40812
G1 X-27.246 Y-11.742 E7.46337
G1 X-27.084 Y-11.974 E7.47513
G1 X-25.944 Y-13.114 E7.54215
G1 X-24.624 Y-14.038 E7.60916
G1 X-23.163 Y-14.719 E7.67617
G1 X-21.606 Y-15.137 E7.74319
G1 X-19.967 Y-15.280 E7.81157
G1 X19.967 Y-15.280 E9.47185
G1 X21.606 Y-15.137 E9.54023
G1 X23.163 Y-14.719 E9.60725
G1 X24.624 Y-14.038 E9.67426
G1 X25.944 Y-13.114 E9.74128
G1 X27.084 Y-11.974 E9.80829
G1 X28.008 Y-10.654 E9.87531
G1 X28.689 Y-9.193 E9.94232
G1 X29.107 Y-7.636 E10.00933
G1 X29.216 Y-6.387 E10.06146
G1 X29.721 Y-6.356 F12000.000
G1 X29.750 Y-6.019 E10.07550 F4800
G1 X29.750 Y33.959 E11.73760
G1 X29.601 Y35.663 E11.80871
G1 X29.161 Y37.304 E11.87936
G1 X28.443 Y38.845 E11.95001
G1 X27.468 Y40.237 E12.02067
G1 X26.267 Y41.438 E12.09132
G1 X24.875 Y42.413 E12.16197
G1 X23.334 Y43.131 E12.23262
G1 X21.693 Y43.571 E12.30327
G1 X19.989 Y43.720 E12.37438
G1 X-19.989 Y43.720 E14.03648
G1 X-21.693 Y43.571 E14.10759
G1 X-23.334 Y43.131 E14.17824
G1 X-24.875 Y42.413 E14.24889
G1 X-26.267 Y41.438 E14.31954
G1 X-27.468 Y40.237 E14.39019
G1 X-28.443 Y38.845 E14.46084
G1 X-29.161 Y37.304 E14.53150
G1 X-29.601 Y35.663 E14.60215
G1 X-29.750 Y33.959 E14.67325
G1 X-29.750 Y-6.019 E16.33535
G1 X-29.601 Y-7.723 E16.40646
G1 X-29.161 Y-9.364 E16.47711
G1 X-28.443 Y-10.905 E16.54776
G1 X-27.656 Y-12.029 E16.60483
G1 X-27.468 Y-12.297 E16.61841
G1 X-26.267 Y-13.498 E16.68907
G1 X-24.875 Y-14.473 E16.75972
G1 X-23.334 Y-15.191 E16.83037
G1 X-21.693 Y-15.631 E16.90102
G1 X-19.989 Y-15.780 E16.97213
G1 X19.989 Y-15.780 E18.63423
G1 X21.693 Y-15.631 E18.70533
G1 X23.334 Y-15.191 E18.77599
G1 X24.875 Y-14.473 E18.84664
G1 X26.267 Y-13.498 E18.91729
G1 X27.468 Y-12.297 E18.98794
G1 X28.443 Y-10.905 E19.05859
G1 X29.161 Y-9.364 E19.12924
G1 X29.601 Y-7.723 E19.19990
G1 X29.714 Y-6.430 E19.25384
G1 X20.414 Y-14.848 F12000.000
G1 X-20.414 Y-14.848 E22.00970 F1800
G1 X-23.702 Y-14.037 F12000.000
G1 X23.702 Y-14.037 E25.20946 F1800
G1 X25.104 Y-13.225 E25.31880
G1 X-25.104 Y-13.225 E28.70779
G1 X-26.092 Y-12.413 E28.79411
G1 X26.092 Y-12.413 E32.31650
G1 X26.867 Y-11.601 E32.39229
G1 X-26.867 Y-11.601 E36.01940
G1 X-27.436 Y-10.790 E36.08629
G1 X27.436 Y-10.790 E39.79014
G1 X27.892 Y-9.978 E39.85300
G1 X-27.892 Y-9.978 E43.61844
G1 X-28.271 Y-9.166 E43.67890
G1 X28.271 Y-9.166 E47.49544
G1 X28.509 Y-8.354 E47.55256
G1 X-28.509 Y-8.354 E51.40135
G1 X-28.722 Y-7.542 E51.45800
G1 X28.722 Y-7.542 E55.33554
G1 X28.793 Y-6.731 E55.39054
G1 X-28.793 Y-6.731 E59.27767
G1 X-28.818 Y-5.919 E59.33249
G1 X28.818 Y-5.919 E63.22300
G1 X28.818 Y-5.107 E63.27780
G1 X-28.818 Y-5.107 E67.16831
G1 X-28.818 Y-4.295 E67.22310
G1 X28.818 Y-4.295 E71.11361
G1 X28.818 Y-3.483 E71.16841
G1 X-28.818 Y-3.483 E75.05892
G1 X-28.818 Y-2.672 E75.11372
G1 X28.818 Y-2.672 E79.00423
G1 X28.818 Y-1.860 E79.05902
G1 X-28.818 Y-1.860 E82.94953
G1 X-28.818 Y-1.048 E83.00433
G1 X28.818 Y-1.048 E86.89484
G1 X28.818 Y-0.236 E86.94964
G1 X-28.818 Y-0.236 E90.84015
G1 X-28.818 Y0.575 E90.89494
G1 X28.818 Y0.575 E94.78545
G1 X28.818 Y1.387 E94.84025
G1 X-28.818 Y1.387 E98.73076
G1 X-28.818 Y2.199 E98.78555
G1 X28.818 Y2.199 E102.67606
G1 X28.818 Y3.011 E102.73086
G1 X-28.818 Y3.011 E106.62137
G1 X-28.818 Y3.823 E106.67617
G1 X28.818 Y3.823 E110.56668
G1 X28.818 Y4.634 E110.62147
G1 X-28.818 Y4.634 E114.51198
G1 X-28.818 Y5.446 E114.56678
G1 X28.818 Y5.446 E118.45729
G1 X28.818 Y6.258 E118.51208
G1 X-28.818 Y6.258 E122.40259
G1 X-28.818 Y7.070 E122.45739
G1 X28.818 Y7.070 E126.34790
G1 X28.818 Y7.882 E126.40270
G1 X-28.818 Y7.882 E130.29321
G1 X-28.818 Y8.693 E130.34800
G1 X28.818 Y8.693 E134.23851
G1 X28.818 Y9.505 E134.29331
G1 X-28.818 Y9.505 E138.18382
G1 X-28.818 Y10.317 E138.23862
G1 X28.818 Y10.317 E142.12913
G1 X28.818 Y11.129 E142.18392
G1 X-28.818 Y11.129 E146.07443
G1 X-28.818 Y11.941 E146.12923
G1 X28.818 Y11.941 E150.01974
G1 X28.818 Y12.752 E150.07453
G1 X-28.818 Y12.752 E153.96504
G1 X-28.818 Y13.564 E154.01984
G1 X28.818 Y13.564 E157.91035
G1 X28.818 Y14.376 E157.96515
G1 X-28.818 Y14.376 E161.85566
G1 X-28.818 Y15.188 E161.91045
G1 X28.818 Y15.188 E165.80096
G1 X28.818 Y15.999 E165.85576
G1 X-28.818 Y15.999 E169.74627
G1 X-28.818 Y16.811 E169.80106
G1 X28.818 Y16.811 E173.69157
G1 X28.818 Y17.623 E173.74637
G1 X-28.818 Y17.623 E177.63688
G1 X-28.818 Y18.435 E177.69168
G1 X28.818 Y18.435 E181.58219
G1 X28.818 Y19.247 E181.63698
G1 X-28.818 Y19.247 E185.52749
G1 X-28.818 Y20.058 E185.58229
G1 X28.818 Y20.058 E189.47280
G1 X28.818 Y20.870 E189.52760
G1 X-28.818 Y20.870 E193.41811
G1 X-28.818 Y21.682 E193.47290
G1 X28.818 Y21.682 E197.36341
G1 X28.818 Y22.494 E197.41821
G1 X-28.818 Y22.494 E201.30872
G1 X-28.818 Y23.306 E201.36351
G1 X28.818 Y23.306 E205.25402
G1 X28.818 Y24.117 E205.30882
G1 X-28.818 Y24.117 E209.19933
G1 X-28.818 Y24.929 E209.25413
G1 X28.818 Y24.929 E213.14464
G1 X28.818 Y25.741 E213.19943
G1 X-28.818 Y25.741 E217.08994
G1 X-28.818 Y26.553 E217.14474
G1 X28.818 Y26.553 E221.03525
G1 X28.818 Y27.364 E221.09004
G1 X-28.818 Y27.364 E224.98055
G1 X-28.818 Y28.176 E225.03535
G1 X28.818 Y28.176 E228.92586
G1 X28.818 Y28.988 E228.98066
G1 X-28.818 Y28.988 E232.87117
G1 X-28.818 Y29.800 E232.92596
G1 X28.818 Y29.800 E236.81647
G1 X28.818 Y30.612 E236.87127
G1 X-28.818 Y30.612 E240.76178
G1 X-28.818 Y31.423 E240.81658
G1 X28.818 Y31.423 E244.70709
G1 X28.818 Y32.235 E244.76188
G1 X-28.818 Y32.235 E248.65239
G1 X-28.818 Y33.047 E248.70719
G1 X28.818 Y33.047 E252.59770
G1 X28.818 Y33.859 E252.65249
G1 X-28.818 Y33.859 E256.54300
G1 X-28.793 Y34.671 E256.59783
G1 X28.793 Y34.671 E260.48495
G1 X28.722 Y35.482 E260.53996
G1 X-28.722 Y35.482 E264.41750
G1 X-28.509 Y36.294 E264.47415
G1 X28.509 Y36.294 E268.32294
G1 X28.271 Y37.106 E268.38005
G1 X-28.271 Y37.106 E272.19660
G1 X-27.892 Y37.918 E272.25706
G1 X27.892 Y37.918 E276.02251
G1 X27.436 Y38.729 E276.08536
G1 X-27.436 Y38.729 E279.78921
G1 X-26.867 Y39.541 E279.85611
G1 X26.867 Y39.541 E283.48322
G1 X26.092 Y40.353 E283.55901
G1 X-26.092 Y40.353 E287.08141
G1 X-25.104 Y41.165 E287.16773
G1 X25.104 Y41.165 E290.55673
G1 X23.702 Y41.977 E290.66606
G1 X-23.702 Y41.977 E293.86584
G1 X-20.414 Y42.788 F12000.000
G1 X20.414 Y42.788 E296.62176 F1800
M106 S38
G1 F3600.000 E295.62176
G92 E0
G1 Z0.700 F12000.000
G1 X20.456 Y43.177 F12000.000
G1 E1.00000 F3600.000
G1 X19.967 Y43.220 E1.02038 F1800
G1 X-19.967 Y43.220 E2.68066
G1 X-21.606 Y43.077 E2.74904
G1 X-23.163 Y42.659 E2.81606
G1 X-24.624 Y41.978 E2.88307
G1 X-25.944 Y41.054 E2.95009
G1 X-27.084 Y39.914 E3.01710
G1 X-28.008 Y38.594 E3.08412
G1 X-28.689 Y37.133 E3.15113
G1 X-29.107 Y35.576 E3.21814
G1 X-29.250 Y33.937 E3.28653
G1 X-29.250 Y-5.997 E4.94681
G1 X-29.107 Y-7.636 E5.01519
G1 X-28.689 Y-9.193 E5.08220
G1 X-28.008 Y-10.654 E5.14922
G1 X-27.346 Y-11.599 E5.19722
G1 X-27.084 Y-11.974 E5.21623
G1 X-25.944 Y-13.114 E5.28325
G1 X-24.624 Y-14.038 E5.35026
G1 X-23.163 Y-14.719 E5.41728
G1 X-21.606 Y-15.137 E5.48429
G1 X-19.967 Y-15.280 E5.55267
G1 X19.967 Y-15.280 E7.21295
G1 X21.606 Y-15.137 E7.28134
G1 X23.163 Y-14.719 E7.34835
G1 X24.624 Y-14.038 E7.41536
G1 X25.569 Y-13.376 E7.46337
G1 X25.944 Y-13.114 E7.48238
G1 X27.084 Y-11.974 E7.54939
G1 X28.008 Y-10.654 E7.61641
G1 X28.689 Y-9.193 E7.68342
G1 X29.107 Y-7.636 E7.75044
G1 X29.250 Y-5.997 E7.81882
G1 X29.250 Y33.937 E9.47910
G1 X29.107 Y35.576 E9.54748
G1 X28.689 Y37.133 E9.61450
G1 X28.008 Y38.594 E9.68151
G1 X27.084 Y39.914 E9.74852
G1 X25.944 Y41.054 E9.81554
G1 X24.624 Y41.978 E9.88255
G1 X23.163 Y42.659 E9.94957
